;FLAVOR:Marlin
;TIME:3957
;Filament used: 3.17667m
;Layer height: 0.2
;Generated with Cura_SteamEngine 3.1.0
M190 S70
M104 S240
M109 S240
M82 ; absolute extrusion mode
G28 X0 Y0  ;move X/Y to min endstops
G28 Z0     ;move Z to min endstops
G1 Z15 F5000 ; lift nozzle
G92 E0
G1 F200 E3
G92 E0
;LAYER_COUNT:75
;LAYER:0
M107
G0 F3000 X77.509 Y77.262 Z0.2
;TYPE:SKIRT
G1 F1500 X77.562 Y77.209 E0.00249
G1 X78.048 Y76.738 E0.025
G1 X78.481 Y76.374 E0.04382
G1 X78.961 Y76.075 E0.06263
G1 X79.478 Y75.846 E0.08143
G1 X80.022 Y75.693 E0.10023
G1 X80.832 Y75.61 E0.12731
G1 X122.966 Y75.61 E1.52869
G1 X123.53 Y75.65 E1.5475
G1 X124.083 Y75.769 E1.56631
G1 X124.613 Y75.965 E1.58511
G1 X125.11 Y76.233 E1.60389
G1 X125.565 Y76.569 E1.6227
G1 X125.968 Y76.966 E1.64152
G1 X126.31 Y77.416 E1.66031
G1 X126.586 Y77.909 E1.67911
G1 X126.79 Y78.437 E1.69793
G1 X126.887 Y78.821 E1.71111
G1 X128.007 Y84.384 E1.89984
G1 X129.382 Y89.643 E2.08064
G1 X131.051 Y94.815 E2.2614
G1 X133.01 Y99.882 E2.44208
G1 X135.242 Y104.808 E2.62196
G1 X137.774 Y109.649 E2.80366
G1 X140.557 Y114.305 E2.98408
G1 X142.826 Y117.799 E3.12264
G1 X142.939 Y117.984 E3.12985
G1 X145.482 Y122.406 E3.29951
G1 X145.728 Y122.915 E3.31832
G1 X145.9 Y123.453 E3.3371
G1 X145.995 Y124.01 E3.3559
G1 X146.01 Y124.576 E3.37473
G1 X145.945 Y125.137 E3.39351
G1 X145.802 Y125.684 E3.41232
G1 X145.478 Y126.4 E3.43845
G1 X142.583 Y131.413 E3.63099
G1 X142.266 Y131.882 E3.64982
G1 X141.887 Y132.301 E3.66861
G1 X141.452 Y132.662 E3.68741
G1 X140.971 Y132.959 E3.70622
G1 X140.536 Y133.153 E3.72206
G1 X136.686 Y134.612 E3.859
G1 X131.699 Y136.776 E4.03981
G1 X126.831 Y139.224 E4.22104
G1 X121.849 Y142.101 E4.41238
G1 X121.341 Y142.348 E4.43117
G1 X120.803 Y142.522 E4.44998
G1 X120.246 Y142.617 E4.46877
G1 X119.842 Y142.637 E4.48223
G1 X115.99 Y142.63 E4.61034
G1 X115.827 Y142.626 E4.61577
G1 X110.302 Y142.391 E4.7997
G1 X104.852 Y142.469 E4.98098
G1 X99.448 Y142.851 E5.16117
G1 X94.047 Y143.541 E5.34227
G1 X89.674 Y144.328 E5.49005
G1 X88.962 Y144.391 E5.51382
G1 X87.678 Y144.39 E5.55653
G1 X87.114 Y144.35 E5.57533
G1 X86.561 Y144.23 E5.59416
G1 X86.031 Y144.034 E5.61295
G1 X85.534 Y143.765 E5.63175
G1 X85.08 Y143.429 E5.65053
G1 X84.862 Y143.228 E5.66039
G1 X82.637 Y141.018 E5.7647
G1 X82.589 Y140.97 E5.76696
G1 X82.118 Y140.486 E5.78942
G1 X81.754 Y140.054 E5.80821
G1 X81.454 Y139.575 E5.82701
G1 X81.224 Y139.058 E5.84583
G1 X81.07 Y138.514 E5.86463
G1 X80.985 Y137.721 E5.89116
G1 X80.975 Y136.132 E5.94401
G1 X80.978 Y135.958 E5.9498
G1 X81.195 Y130.152 E6.14304
G1 X81.12 Y124.691 E6.32469
G1 X80.739 Y119.288 E6.50484
G1 X80.051 Y113.894 E6.6857
G1 X79.062 Y108.563 E6.86604
G1 X78.458 Y105.931 E6.95585
G1 X77.015 Y100.683 E7.13688
G1 X75.267 Y95.493 E7.31903
G1 X74.246 Y92.814 E7.41438
G1 X74.083 Y92.273 E7.43318
G1 X73.997 Y91.714 E7.45199
G1 X73.984 Y91.39 E7.46277
G1 X73.985 Y82.457 E7.75988
G1 X74.025 Y81.893 E7.77869
G1 X74.144 Y81.34 E7.7975
G1 X74.34 Y80.81 E7.8163
G1 X74.609 Y80.312 E7.83512
G1 X74.945 Y79.858 E7.85391
G1 X75.148 Y79.638 E7.86387
G1 X77.509 Y77.262 E7.97527
G0 F3000 X77.792 Y77.543
G1 F1500 X77.841 Y77.496 E7.97753
G1 X78.327 Y77.025 E8.00004
G1 X78.738 Y76.681 E8.01787
G1 X79.197 Y76.403 E8.03572
G1 X79.691 Y76.195 E8.05354
G1 X80.211 Y76.064 E8.07138
G1 X80.832 Y76.01 E8.09211
G1 X122.966 Y76.01 E9.49349
G1 X123.501 Y76.05 E9.51134
G1 X124.024 Y76.169 E9.52918
G1 X124.523 Y76.364 E9.547
G1 X124.988 Y76.632 E9.56485
G1 X125.408 Y76.965 E9.58268
G1 X125.774 Y77.357 E9.60051
G1 X126.077 Y77.799 E9.61834
G1 X126.312 Y78.282 E9.6362
G1 X126.495 Y78.9 E9.65764
G1 X127.617 Y84.476 E9.84681
G1 X128.999 Y89.757 E10.02838
G1 X130.673 Y94.945 E10.20969
G1 X132.64 Y100.034 E10.39115
G1 X134.891 Y105.002 E10.57256
G1 X137.414 Y109.826 E10.75363
G1 X140.231 Y114.538 E10.93622
G1 X142.49 Y118.017 E11.07419
G1 X142.592 Y118.183 E11.08067
G1 X145.135 Y122.605 E11.25033
G1 X145.367 Y123.089 E11.26818
G1 X145.524 Y123.601 E11.28599
G1 X145.604 Y124.132 E11.30385
G1 X145.604 Y124.668 E11.32168
G1 X145.524 Y125.198 E11.33951
G1 X145.367 Y125.711 E11.35735
G1 X145.131 Y126.2 E11.37541
G1 X142.236 Y131.213 E11.56795
G1 X141.934 Y131.656 E11.58578
G1 X141.57 Y132.05 E11.60362
G1 X141.151 Y132.385 E11.62147
G1 X140.687 Y132.654 E11.6393
G1 X140.395 Y132.779 E11.64987
G1 X136.53 Y134.244 E11.78734
G1 X131.518 Y136.419 E11.96906
G1 X126.657 Y138.863 E12.15003
G1 X121.649 Y141.755 E12.34237
G1 X121.166 Y141.987 E12.36019
G1 X120.654 Y142.146 E12.37802
G1 X120.124 Y142.227 E12.39586
G1 X119.842 Y142.237 E12.40524
G1 X115.99 Y142.23 E12.53336
G1 X115.844 Y142.227 E12.53822
G1 X110.296 Y141.991 E12.72291
G1 X104.836 Y142.069 E12.90453
G1 X99.404 Y142.453 E13.08565
G1 X93.984 Y143.145 E13.26738
G1 X89.603 Y143.934 E13.41544
G1 X88.962 Y143.991 E13.43684
G1 X87.678 Y143.99 E13.47955
G1 X87.143 Y143.95 E13.49739
G1 X86.621 Y143.83 E13.51521
G1 X86.121 Y143.635 E13.53306
G1 X85.657 Y143.367 E13.55088
G1 X85.144 Y142.944 E13.57299
G1 X82.919 Y140.734 E13.6773
G1 X82.876 Y140.691 E13.67932
G1 X82.405 Y140.207 E13.70178
G1 X82.061 Y139.796 E13.71961
G1 X81.781 Y139.338 E13.73747
G1 X81.573 Y138.844 E13.75529
G1 X81.44 Y138.324 E13.77314
G1 X81.385 Y137.719 E13.79335
G1 X81.375 Y136.13 E13.8462
G1 X81.378 Y135.973 E13.85142
G1 X81.595 Y130.162 E14.04483
G1 X81.52 Y124.668 E14.22758
G1 X81.137 Y119.245 E14.4084
G1 X80.448 Y113.843 E14.58953
G1 X79.451 Y108.471 E14.77125
G1 X78.845 Y105.827 E14.86147
G1 X77.4 Y100.57 E15.04281
G1 X75.643 Y95.358 E15.22574
G1 X74.62 Y92.672 E15.32134
G1 X74.467 Y92.158 E15.33918
G1 X74.384 Y91.39 E15.36487
G1 X74.385 Y82.457 E15.66198
G1 X74.425 Y81.922 E15.67983
G1 X74.544 Y81.399 E15.69767
G1 X74.739 Y80.899 E15.71552
G1 X75.007 Y80.435 E15.73334
G1 X75.431 Y79.919 E15.75555
G1 X77.792 Y77.543 E15.86696
G0 F3000 X78.076 Y77.825
G1 F1500 X78.119 Y77.783 E15.86896
G1 X78.605 Y77.312 E15.89147
G1 X78.995 Y76.99 E15.90829
G1 X79.43 Y76.733 E15.92509
G1 X79.901 Y76.548 E15.94192
G1 X80.395 Y76.44 E15.95874
G1 X80.832 Y76.41 E15.97331
G1 X122.966 Y76.41 E17.37469
G1 X123.47 Y76.45 E17.39151
G1 X123.961 Y76.569 E17.40831
G1 X124.428 Y76.763 E17.42513
G1 X124.858 Y77.029 E17.44195
G1 X125.241 Y77.359 E17.45876
G1 X125.567 Y77.746 E17.47559
G1 X125.828 Y78.179 E17.49241
G1 X126.018 Y78.647 E17.50921
G1 X126.103 Y78.979 E17.52061
G1 X127.228 Y84.567 E17.71019
G1 X128.616 Y89.876 E17.89271
G1 X130.292 Y95.069 E18.0742
G1 X132.27 Y100.186 E18.25667
G1 X134.53 Y105.173 E18.43877
G1 X137.067 Y110.024 E18.62085
G1 X139.893 Y114.752 E18.80405
G1 X142.155 Y118.235 E18.94218
G1 X142.245 Y118.383 E18.94795
G1 X144.788 Y122.805 E19.11761
G1 X145.005 Y123.262 E19.13443
G1 X145.147 Y123.747 E19.15124
G1 X145.21 Y124.248 E19.16804
G1 X145.194 Y124.754 E19.18487
G1 X145.099 Y125.25 E19.20167
G1 X144.927 Y125.725 E19.21847
G1 X144.785 Y126 E19.22877
G1 X141.89 Y131.013 E19.42131
G1 X141.603 Y131.43 E19.43814
G1 X141.255 Y131.796 E19.45494
G1 X140.853 Y132.103 E19.47177
G1 X140.253 Y132.405 E19.49411
G1 X136.381 Y133.872 E19.63182
G1 X131.358 Y136.052 E19.81394
G1 X126.449 Y138.521 E19.99671
G1 X121.449 Y141.408 E20.18874
G1 X120.993 Y141.626 E20.20555
G1 X120.508 Y141.768 E20.22236
G1 X119.843 Y141.837 E20.24459
G1 X115.991 Y141.83 E20.37271
G1 X115.861 Y141.827 E20.37704
G1 X110.307 Y141.591 E20.56193
G1 X104.82 Y141.669 E20.74445
G1 X99.362 Y142.055 E20.92643
G1 X93.919 Y142.75 E21.10894
G1 X89.532 Y143.54 E21.2572
G1 X88.963 Y143.591 E21.2762
G1 X87.679 Y143.59 E21.31891
G1 X87.175 Y143.55 E21.33572
G1 X86.683 Y143.43 E21.35257
G1 X86.217 Y143.235 E21.36937
G1 X85.787 Y142.969 E21.38618
G1 X85.426 Y142.66 E21.40199
G1 X83.201 Y140.45 E21.50629
G1 X83.163 Y140.412 E21.50808
G1 X82.692 Y139.928 E21.53054
G1 X82.369 Y139.539 E21.54736
G1 X82.111 Y139.104 E21.56418
G1 X81.925 Y138.633 E21.58102
G1 X81.816 Y138.14 E21.59782
G1 X81.785 Y137.716 E21.61196
G1 X81.775 Y136.127 E21.66481
G1 X81.777 Y135.988 E21.66943
G1 X81.995 Y130.152 E21.86367
G1 X81.92 Y124.659 E22.04639
G1 X81.535 Y119.201 E22.22837
G1 X80.842 Y113.773 E22.41038
G1 X79.846 Y108.4 E22.59213
G1 X79.238 Y105.75 E22.68256
G1 X77.775 Y100.431 E22.86604
G1 X76.026 Y95.237 E23.04832
G1 X74.994 Y92.53 E23.14468
G1 X74.852 Y92.044 E23.16152
G1 X74.784 Y91.39 E23.18339
G1 X74.785 Y82.457 E23.4805
G1 X74.825 Y81.953 E23.49732
G1 X74.944 Y81.461 E23.51415
G1 X75.139 Y80.995 E23.53095
G1 X75.404 Y80.565 E23.54775
G1 X75.715 Y80.201 E23.56368
G1 X78.076 Y77.825 E23.67508
G1 F1200 E21.67508
G0 F3000 X80.176 Y79.311
G0 X81.082 Y80.218
G0 X81.913 Y80.22
G0 X82.084 Y80.178
G0 X82.866 Y80.178
G0 X83.299 Y80.269
G0 X93.229 Y83.56
G0 X93.239 Y83.659
;TYPE:WALL-INNER
G1 F1200 E23.67508
G1 F1500 X92.779 Y83.758 E23.69073
G1 X92.348 Y83.949 E23.70641
G1 X91.967 Y84.226 E23.72208
G1 X91.652 Y84.576 E23.73774
G1 X91.417 Y84.983 E23.75337
G1 X91.271 Y85.431 E23.76905
G1 X91.222 Y85.9 E23.78473
G1 X91.268 Y86.348 E23.79971
G1 X91.408 Y86.794 E23.81526
G1 X91.64 Y87.206 E23.83098
G1 X91.983 Y87.586 E23.84801
G1 X92.369 Y87.861 E23.86377
G1 X92.802 Y88.049 E23.87947
G1 X93.262 Y88.141 E23.89507
G1 X93.734 Y88.137 E23.91077
G1 X94.193 Y88.034 E23.92642
G1 X94.618 Y87.84 E23.94196
G1 X94.983 Y87.574 E23.95698
G1 X95.298 Y87.224 E23.97264
G1 X95.533 Y86.817 E23.98827
G1 X95.679 Y86.369 E24.00395
G1 X95.728 Y85.9 E24.01963
G1 X95.679 Y85.431 E24.03531
G1 X95.533 Y84.983 E24.05098
G1 X95.298 Y84.576 E24.06662
G1 X94.983 Y84.226 E24.08228
G1 X94.602 Y83.949 E24.09794
G1 X94.171 Y83.758 E24.11362
G1 X93.711 Y83.659 E24.12927
G1 X93.239 Y83.659 E24.14497
G0 F3000 X93.229 Y83.56
G0 X117.078 Y82.118
G0 X117.088 Y82.217
G1 F1500 X116.331 Y82.378 E24.17071
G1 X115.623 Y82.693 E24.19649
G1 X114.997 Y83.148 E24.22223
G1 X114.479 Y83.724 E24.24799
G1 X114.092 Y84.393 E24.2737
G1 X113.853 Y85.129 E24.29944
G1 X113.772 Y85.9 E24.32522
G1 X113.85 Y86.646 E24.35017
G1 X114.082 Y87.38 E24.37577
G1 X114.466 Y88.055 E24.4016
G1 X115.016 Y88.667 E24.42897
G1 X115.648 Y89.119 E24.45481
G1 X116.354 Y89.427 E24.48043
G1 X117.088 Y89.583 E24.50539
G1 X117.862 Y89.583 E24.53113
G1 X118.619 Y89.422 E24.55687
G1 X119.327 Y89.107 E24.58265
G1 X119.953 Y88.652 E24.60839
G1 X120.471 Y88.076 E24.63415
G1 X120.858 Y87.407 E24.65986
G1 X121.097 Y86.671 E24.6856
G1 X121.178 Y85.9 E24.71138
G1 X121.097 Y85.129 E24.73716
G1 X120.858 Y84.393 E24.7629
G1 X120.471 Y83.724 E24.78861
G1 X119.953 Y83.148 E24.81437
G1 X119.327 Y82.693 E24.84011
G1 X118.619 Y82.378 E24.86589
G1 X117.862 Y82.217 E24.89163
G1 X117.088 Y82.217 E24.91737
G0 F3000 X117.078 Y82.118
G0 X116.319 Y82.34
G0 X115.604 Y82.659
G0 X114.971 Y83.119
G0 X114.447 Y83.701
G0 X114.056 Y84.377
G0 X113.814 Y85.121
G0 X113.732 Y85.9
G0 X119.305 Y122.73
G0 X119.375 Y122.8
G1 F1500 X119.375 Y132.53 E25.24099
G1 X121.033 Y135.4 E25.35123
G1 X119.504 Y138.048 E25.45293
G1 X116.446 Y138.048 E25.55464
G1 X115.148 Y135.8 E25.64098
G1 X114.575 Y135.8 E25.66004
G1 X114.575 Y131.829 E25.79211
G1 X88.575 Y131.829 E26.65688
G1 X88.575 Y89.399 E28.06811
G1 X88.523 Y88.865 E28.08595
G1 X88.356 Y88.347 E28.10405
G1 X88.084 Y87.873 E28.12223
G1 X87.714 Y87.462 E28.14062
G1 X87.272 Y87.144 E28.15873
G1 X86.776 Y86.923 E28.17679
G1 X86.243 Y86.811 E28.19491
G1 X85.699 Y86.812 E28.213
G1 X85.246 Y86.91 E28.22842
G1 X85.167 Y86.926 E28.2311
G1 X85.092 Y86.959 E28.23382
G1 X84.671 Y87.148 E28.24917
G1 X84.466 Y87.297 E28.2576
G1 X84.234 Y87.465 E28.26713
G1 X84.058 Y87.66 E28.27587
G1 X83.869 Y87.869 E28.28524
G1 X83.597 Y88.342 E28.30338
G1 X83.429 Y88.858 E28.32143
G1 X83.375 Y89.368 E28.33849
G1 X83.375 Y90.8 E28.38612
G1 X78.575 Y90.8 E28.54577
G1 X78.575 Y85.051 E28.73698
G1 X78.575 Y84.646 E28.75045
G1 X78.575 Y83.9 E28.77526
G1 X78.575 Y83.129 E28.80091
G1 X78.575 Y82.7 E28.81518
G1 X78.986 Y82.289 E28.83451
G1 X79.38 Y81.895 E28.85304
G1 X79.092 Y82.393 E28.85696
G1 X78.953 Y82.823 E28.86666
G1 X78.853 Y83.129 E28.87543
G1 X78.772 Y83.9 E28.89078
G1 X78.85 Y84.646 E28.90554
G1 X78.972 Y85.032 E28.91693
G1 X79.082 Y85.38 E28.92906
G1 X79.466 Y86.055 E28.95489
G1 X80.016 Y86.667 E28.98226
G1 X80.648 Y87.119 E29.0081
G1 X81.354 Y87.427 E29.03372
G1 X82.088 Y87.583 E29.05868
G1 X82.862 Y87.583 E29.08442
G1 X83.619 Y87.422 E29.11017
G1 X83.877 Y87.307 E29.11956
G1 X84.117 Y87.201 E29.12619
G1 X84.327 Y87.107 E29.12972
G1 X84.532 Y86.958 E29.13236
G1 X84.953 Y86.652 E29.14504
G1 X85.007 Y86.592 E29.14755
G1 X85.471 Y86.076 E29.17063
G1 X85.858 Y85.407 E29.19634
G1 X86.097 Y84.671 E29.22208
G1 X86.178 Y83.9 E29.24786
G1 X86.097 Y83.129 E29.27365
G1 X85.858 Y82.393 E29.29938
G1 X85.471 Y81.724 E29.32509
G1 X84.953 Y81.148 E29.35085
G1 X84.327 Y80.693 E29.37659
G1 X84.096 Y80.59 E29.38501
G1 X83.619 Y80.378 E29.40237
G1 X82.862 Y80.217 E29.42811
G1 X82.088 Y80.217 E29.45385
G1 X81.331 Y80.378 E29.47959
G1 X81.184 Y80.443 E29.48494
G1 X80.623 Y80.693 E29.50537
G1 X80.473 Y80.802 E29.51153
G1 X80.602 Y80.673
G1 X81.075 Y80.2 E29.52053
G1 X81.331 Y80.2 E29.52304
G1 X82.088 Y80.2 E29.52907
G1 X82.862 Y80.2 E29.53017
G1 X83.619 Y80.2 E29.5362
G1 X84.141 Y80.2 E29.54885
G1 X122.375 Y80.2 E30.82052
G1 X122.375 Y115.344 E31.98942
G1 X133.29 Y119.977 E32.3838
G1 X138.779 Y119.977 E32.56636
G1 X141.333 Y124.4 E32.73624
G1 X138.779 Y128.823 E32.90611
G1 X133.672 Y128.823 E33.07597
G1 X132.681 Y127.105 E33.14194
G1 X122.537 Y122.8 E33.50845
G1 X119.375 Y122.8 E33.61362
G0 F3000 X119.305 Y122.73
G0 X117.745 Y133.209
G0 X117.755 Y133.308
G1 F1500 X117.325 Y133.4 E33.62825
G1 X116.923 Y133.579 E33.64288
G1 X116.568 Y133.836 E33.65746
G1 X116.272 Y134.164 E33.67216
G1 X116.053 Y134.545 E33.68677
G1 X115.918 Y134.962 E33.70135
G1 X115.872 Y135.4 E33.716
G1 X115.918 Y135.838 E33.73065
G1 X116.053 Y136.255 E33.74522
G1 X116.272 Y136.636 E33.75984
G1 X116.568 Y136.964 E33.77454
G1 X116.925 Y137.222 E33.78919
G1 X117.331 Y137.402 E33.80396
G1 X117.762 Y137.492 E33.8186
G1 X118.202 Y137.491 E33.83324
G1 X118.633 Y137.398 E33.8479
G1 X119.032 Y137.218 E33.86246
G1 X119.382 Y136.964 E33.87684
G1 X119.678 Y136.636 E33.89154
G1 X119.897 Y136.255 E33.90615
G1 X120.032 Y135.838 E33.92073
G1 X120.078 Y135.4 E33.93538
G1 X120.032 Y134.962 E33.95003
G1 X119.897 Y134.545 E33.96461
G1 X119.678 Y134.164 E33.97922
G1 X119.382 Y133.836 E33.99392
G1 X119.027 Y133.579 E34.00849
G1 X118.625 Y133.4 E34.02313
G1 X118.195 Y133.308 E34.03776
G1 X117.755 Y133.308 E34.05239
G0 F3000 X117.745 Y133.209
G0 X119.347 Y122.772
G0 X135.979 Y122.06
G0 X135.989 Y122.159
G1 F1500 X135.529 Y122.258 E34.06804
G1 X135.098 Y122.449 E34.08372
G1 X134.717 Y122.726 E34.09939
G1 X134.402 Y123.076 E34.11505
G1 X134.167 Y123.483 E34.13068
G1 X134.021 Y123.931 E34.14635
G1 X133.972 Y124.4 E34.16204
G1 X134.018 Y124.848 E34.17702
G1 X134.158 Y125.294 E34.19256
G1 X134.39 Y125.706 E34.20829
G1 X134.733 Y126.086 E34.22532
G1 X135.119 Y126.361 E34.24108
G1 X135.552 Y126.549 E34.25678
G1 X136.012 Y126.641 E34.27238
G1 X136.484 Y126.637 E34.28808
G1 X136.943 Y126.534 E34.30373
G1 X137.368 Y126.34 E34.31927
G1 X137.733 Y126.074 E34.33429
G1 X138.048 Y125.724 E34.34995
G1 X138.283 Y125.317 E34.36558
G1 X138.429 Y124.869 E34.38125
G1 X138.478 Y124.4 E34.39694
G1 X138.429 Y123.931 E34.41262
G1 X138.283 Y123.483 E34.42829
G1 X138.048 Y123.076 E34.44392
G1 X137.733 Y122.726 E34.45958
G1 X137.352 Y122.449 E34.47525
G1 X136.921 Y122.258 E34.49093
G1 X136.461 Y122.159 E34.50658
G1 X135.989 Y122.159 E34.52228
G1 F1200 E32.52228
G0 F3000 X135.979 Y122.06
G0 X119.347 Y122.772
G0 X88.589 Y131.815
G0 X87.31 Y131.815
G0 X84.322 Y134.747
G0 X84.314 Y137.974
G0 X87.401 Y141.061
