;FLAVOR:Marlin
;TIME:4621
;Filament used: 3.40174m
;Layer height: 0.2
;Generated with Cura_SteamEngine 3.1.0
M190 S70
M104 S240
M109 S240
M82 ; absolute extrusion mode
G28 X0 Y0  ;move X/Y to min endstops
G28 Z0     ;move Z to min endstops
G1 Z15 F5000 ; lift nozzle
G92 E0
G1 F200 E3
G92 E0
;LAYER_COUNT:75
;LAYER:0
M107
G0 F3000 X77.291 Y76.064 Z0.2
;TYPE:SKIRT
G1 F1500 X77.766 Y75.647 E0.02102
G1 X78.289 Y75.292 E0.04205
G1 X78.853 Y75.006 E0.06308
G1 X79.448 Y74.794 E0.08409
G1 X80.066 Y74.658 E0.10513
G1 X80.827 Y74.6 E0.13052
G1 X122.975 Y74.6 E1.53237
G1 X123.606 Y74.64 E1.5534
G1 X124.227 Y74.759 E1.57443
G1 X124.827 Y74.956 E1.59543
G1 X125.399 Y75.227 E1.61648
G1 X125.931 Y75.567 E1.63748
G1 X126.416 Y75.973 E1.65852
G1 X126.846 Y76.436 E1.67954
G1 X127.215 Y76.95 E1.70058
G1 X127.515 Y77.506 E1.72159
G1 X127.743 Y78.095 E1.7426
G1 X127.895 Y78.709 E1.76364
G1 X127.975 Y79.6 E1.79339
G1 X127.975 Y111.638 E2.85898
G1 X134.427 Y114.377 E3.09211
G1 X139.126 Y114.377 E3.2484
G1 X139.757 Y114.417 E3.26943
G1 X140.378 Y114.536 E3.29046
G1 X140.978 Y114.733 E3.31146
G1 X141.55 Y115.004 E3.33252
G1 X142.082 Y115.344 E3.35352
G1 X142.567 Y115.75 E3.37455
G1 X142.997 Y116.213 E3.39557
G1 X143.457 Y116.878 E3.42246
G1 X146.356 Y121.901 E3.61536
G1 X146.636 Y122.467 E3.63636
G1 X146.843 Y123.064 E3.65738
G1 X146.973 Y123.683 E3.67841
G1 X147.024 Y124.313 E3.69944
G1 X146.995 Y124.944 E3.72044
G1 X146.887 Y125.567 E3.74147
G1 X146.701 Y126.171 E3.76249
G1 X146.356 Y126.899 E3.78929
G1 X143.457 Y131.922 E3.98218
G1 X143.107 Y132.449 E4.00322
G1 X142.693 Y132.927 E4.02426
G1 X142.222 Y133.349 E4.04529
G1 X141.702 Y133.708 E4.06631
G1 X141.141 Y133.999 E4.08733
G1 X140.548 Y134.217 E4.10834
G1 X139.931 Y134.358 E4.12939
G1 X139.126 Y134.423 E4.15625
G1 X133.324 Y134.423 E4.34923
G1 X132.693 Y134.383 E4.37026
G1 X132.072 Y134.264 E4.39129
G1 X131.472 Y134.067 E4.41229
G1 X130.9 Y133.796 E4.43334
G1 X130.368 Y133.456 E4.45434
G1 X129.883 Y133.05 E4.47538
G1 X129.453 Y132.587 E4.4964
G1 X128.992 Y131.92 E4.52336
G1 X128.766 Y131.528 E4.53841
G1 X124.975 Y129.919 E4.67539
G1 X124.975 Y131.029 E4.71231
G1 X126.055 Y132.9 E4.78416
G1 X126.336 Y133.466 E4.80518
G1 X126.543 Y134.064 E4.82623
G1 X126.673 Y134.682 E4.84723
G1 X126.724 Y135.312 E4.86825
G1 X126.695 Y135.944 E4.8893
G1 X126.587 Y136.566 E4.91029
G1 X126.401 Y137.171 E4.93135
G1 X126.056 Y137.899 E4.95814
G1 X124.182 Y141.147 E5.08286
G1 X123.832 Y141.673 E5.10387
G1 X123.418 Y142.151 E5.12491
G1 X122.948 Y142.573 E5.14592
G1 X122.428 Y142.933 E5.16695
G1 X121.867 Y143.224 E5.18797
G1 X121.273 Y143.441 E5.209
G1 X120.657 Y143.583 E5.23003
G1 X119.851 Y143.648 E5.25693
G1 X116.099 Y143.648 E5.38172
G1 X115.468 Y143.608 E5.40275
G1 X114.847 Y143.489 E5.42378
G1 X114.247 Y143.292 E5.44478
G1 X113.675 Y143.021 E5.46583
G1 X113.143 Y142.681 E5.48683
G1 X112.658 Y142.275 E5.50787
G1 X112.228 Y141.812 E5.52889
G1 X111.767 Y141.145 E5.55585
G1 X111.553 Y140.774 E5.5701
G1 X111.551 Y140.773 E5.57017
G1 X111.019 Y140.433 E5.59117
G1 X110.534 Y140.027 E5.61221
G1 X110.104 Y139.564 E5.63323
G1 X109.735 Y139.05 E5.65427
G1 X109.435 Y138.494 E5.67528
G1 X109.207 Y137.905 E5.69629
G1 X109.089 Y137.429 E5.7126
G1 X93.975 Y137.429 E6.2153
G1 X93.975 Y140.4 E6.31411
G1 X93.935 Y141.031 E6.33514
G1 X93.816 Y141.652 E6.35617
G1 X93.619 Y142.252 E6.37717
G1 X93.348 Y142.824 E6.39823
G1 X93.008 Y143.356 E6.41923
G1 X92.602 Y143.841 E6.44026
G1 X92.139 Y144.271 E6.46128
G1 X91.625 Y144.64 E6.48232
G1 X91.069 Y144.94 E6.50334
G1 X90.48 Y145.168 E6.52434
G1 X89.866 Y145.32 E6.54538
G1 X88.975 Y145.4 E6.57514
G1 X87.675 Y145.4 E6.61837
G1 X87.044 Y145.36 E6.6394
G1 X86.423 Y145.241 E6.66043
G1 X85.823 Y145.044 E6.68144
G1 X85.251 Y144.773 E6.70249
G1 X84.719 Y144.433 E6.72349
G1 X84.139 Y143.936 E6.74889
G1 X81.439 Y141.236 E6.87589
G1 X81.022 Y140.761 E6.89692
G1 X80.667 Y140.238 E6.91794
G1 X80.381 Y139.674 E6.93897
G1 X80.169 Y139.079 E6.95998
G1 X80.033 Y138.461 E6.98103
G1 X79.975 Y137.7 E7.00641
G1 X79.975 Y135.4 E7.08291
G1 X80.015 Y134.769 E7.10394
G1 X80.134 Y134.148 E7.12497
G1 X80.331 Y133.548 E7.14597
G1 X80.602 Y132.976 E7.16703
G1 X80.942 Y132.444 E7.18803
G1 X81.348 Y131.959 E7.20906
G1 X81.811 Y131.529 E7.23008
G1 X82.325 Y131.16 E7.25112
G1 X82.881 Y130.86 E7.27214
G1 X82.971 Y130.825 E7.27535
G1 X82.939 Y96.4 E8.42033
G1 X77.975 Y96.4 E8.58543
G1 X77.344 Y96.36 E8.60646
G1 X76.723 Y96.241 E8.62749
G1 X76.123 Y96.044 E8.6485
G1 X75.551 Y95.773 E8.66955
G1 X75.019 Y95.433 E8.69055
G1 X74.534 Y95.027 E8.71159
G1 X74.104 Y94.564 E8.7326
G1 X73.735 Y94.05 E8.75365
G1 X73.435 Y93.494 E8.77466
G1 X73.207 Y92.905 E8.79567
G1 X73.055 Y92.291 E8.8167
G1 X72.975 Y91.4 E8.84646
G1 X72.975 Y82.452 E9.14407
G1 X73.015 Y81.821 E9.1651
G1 X73.134 Y81.2 E9.18613
G1 X73.331 Y80.6 E9.20713
G1 X73.602 Y80.028 E9.22819
G1 X73.942 Y79.496 E9.24919
G1 X74.439 Y78.916 E9.27459
G1 X77.291 Y76.064 E9.40874
G0 F3000 X77.574 Y76.347
G1 F1500 X78.03 Y75.948 E9.42889
G1 X78.535 Y75.612 E9.44907
G1 X79.079 Y75.345 E9.46922
G1 X79.654 Y75.152 E9.48939
G1 X80.249 Y75.036 E9.50956
G1 X80.827 Y75 E9.52882
G1 X122.975 Y75 E10.93067
G1 X123.58 Y75.04 E10.95083
G1 X124.174 Y75.159 E10.97098
G1 X124.748 Y75.355 E10.99116
G1 X125.291 Y75.626 E11.01134
G1 X125.794 Y75.965 E11.03152
G1 X126.247 Y76.367 E11.05166
G1 X126.644 Y76.825 E11.07182
G1 X126.977 Y77.332 E11.09199
G1 X127.241 Y77.878 E11.11217
G1 X127.43 Y78.454 E11.13233
G1 X127.542 Y79.05 E11.1525
G1 X127.575 Y79.6 E11.17082
G1 X127.575 Y111.903 E12.24523
G1 X134.346 Y114.777 E12.48988
G1 X139.126 Y114.777 E12.64886
G1 X139.731 Y114.817 E12.66903
G1 X140.325 Y114.936 E12.68918
G1 X140.899 Y115.132 E12.70935
G1 X141.442 Y115.403 E12.72953
G1 X141.945 Y115.742 E12.74971
G1 X142.398 Y116.144 E12.76985
G1 X142.795 Y116.602 E12.79001
G1 X143.11 Y117.078 E12.809
G1 X146.009 Y122.101 E13.00189
G1 X146.277 Y122.645 E13.02206
G1 X146.471 Y123.219 E13.04221
G1 X146.588 Y123.814 E13.06238
G1 X146.625 Y124.419 E13.08254
G1 X146.582 Y125.024 E13.10272
G1 X146.461 Y125.618 E13.12288
G1 X146.262 Y126.191 E13.14305
G1 X146.009 Y126.699 E13.16193
G1 X143.11 Y131.722 E13.35482
G1 X142.773 Y132.226 E13.37499
G1 X142.373 Y132.682 E13.39516
G1 X141.916 Y133.08 E13.41532
G1 X141.411 Y133.416 E13.43549
G1 X140.866 Y133.681 E13.45565
G1 X140.291 Y133.873 E13.47581
G1 X139.695 Y133.988 E13.496
G1 X139.126 Y134.023 E13.51496
G1 X133.324 Y134.023 E13.70794
G1 X132.719 Y133.983 E13.7281
G1 X132.125 Y133.864 E13.74825
G1 X131.551 Y133.668 E13.76842
G1 X131.008 Y133.397 E13.78861
G1 X130.505 Y133.058 E13.80878
G1 X130.052 Y132.656 E13.82893
G1 X129.655 Y132.198 E13.84909
G1 X129.339 Y131.72 E13.86815
G1 X129.046 Y131.211 E13.88768
G1 X124.575 Y129.313 E14.04923
G1 X124.575 Y131.136 E14.10986
G1 X125.709 Y133.1 E14.18529
G1 X125.977 Y133.644 E14.20546
G1 X126.171 Y134.218 E14.22562
G1 X126.287 Y134.813 E14.24578
G1 X126.325 Y135.418 E14.26594
G1 X126.283 Y136.023 E14.28611
G1 X126.161 Y136.617 E14.30628
G1 X125.962 Y137.19 E14.32645
G1 X125.709 Y137.699 E14.34536
G1 X123.835 Y140.947 E14.47008
G1 X123.498 Y141.451 E14.49025
G1 X123.098 Y141.906 E14.51039
G1 X122.641 Y142.305 E14.53057
G1 X122.136 Y142.64 E14.55073
G1 X121.591 Y142.906 E14.5709
G1 X121.016 Y143.098 E14.59106
G1 X120.421 Y143.213 E14.61122
G1 X119.851 Y143.248 E14.63021
G1 X116.099 Y143.248 E14.755
G1 X115.494 Y143.208 E14.77517
G1 X114.9 Y143.089 E14.79532
G1 X114.326 Y142.893 E14.81549
G1 X113.783 Y142.622 E14.83568
G1 X113.28 Y142.283 E14.85585
G1 X112.827 Y141.881 E14.876
G1 X112.43 Y141.423 E14.89616
G1 X112.114 Y140.945 E14.91521
G1 X111.836 Y140.462 E14.93375
G1 X111.659 Y140.374 E14.94032
G1 X111.156 Y140.035 E14.9605
G1 X110.703 Y139.633 E14.98064
G1 X110.306 Y139.175 E15.0008
G1 X109.973 Y138.668 E15.02098
G1 X109.709 Y138.122 E15.04115
G1 X109.52 Y137.546 E15.06131
G1 X109.423 Y137.029 E15.07881
G1 X93.575 Y137.029 E15.60591
G1 X93.575 Y140.4 E15.71803
G1 X93.535 Y141.005 E15.7382
G1 X93.416 Y141.599 E15.75835
G1 X93.22 Y142.173 E15.77852
G1 X92.949 Y142.716 E15.79871
G1 X92.61 Y143.219 E15.81888
G1 X92.208 Y143.672 E15.83903
G1 X91.75 Y144.069 E15.85919
G1 X91.243 Y144.402 E15.87936
G1 X90.697 Y144.666 E15.89953
G1 X90.121 Y144.855 E15.91969
G1 X89.525 Y144.967 E15.93986
G1 X88.975 Y145 E15.95819
G1 X87.675 Y145 E16.00143
G1 X87.07 Y144.96 E16.02159
G1 X86.476 Y144.841 E16.04174
G1 X85.902 Y144.645 E16.06192
G1 X85.359 Y144.374 E16.0821
G1 X84.856 Y144.035 E16.10228
G1 X84.422 Y143.653 E16.12151
G1 X81.722 Y140.953 E16.24851
G1 X81.323 Y140.497 E16.26866
G1 X80.987 Y139.992 E16.28883
G1 X80.72 Y139.448 E16.30899
G1 X80.527 Y138.873 E16.32916
G1 X80.411 Y138.278 E16.34932
G1 X80.375 Y137.7 E16.36859
G1 X80.375 Y135.4 E16.44508
G1 X80.415 Y134.795 E16.46525
G1 X80.534 Y134.201 E16.4854
G1 X80.73 Y133.627 E16.50557
G1 X81.001 Y133.084 E16.52576
G1 X81.34 Y132.581 E16.54593
G1 X81.742 Y132.128 E16.56608
G1 X82.2 Y131.731 E16.58624
G1 X82.707 Y131.398 E16.60641
G1 X83.253 Y131.134 E16.62658
G1 X83.371 Y131.095 E16.63072
G1 X83.338 Y96 E17.79798
G1 X77.975 Y96 E17.97636
G1 X77.37 Y95.96 E17.99652
G1 X76.776 Y95.841 E18.01667
G1 X76.202 Y95.645 E18.03684
G1 X75.659 Y95.374 E18.05703
G1 X75.156 Y95.035 E18.0772
G1 X74.703 Y94.633 E18.09735
G1 X74.306 Y94.175 E18.11751
G1 X73.973 Y93.668 E18.13768
G1 X73.709 Y93.122 E18.15785
G1 X73.52 Y92.546 E18.17802
G1 X73.408 Y91.95 E18.19819
G1 X73.375 Y91.4 E18.21651
G1 X73.375 Y82.452 E18.51412
G1 X73.415 Y81.847 E18.53429
G1 X73.534 Y81.253 E18.55444
G1 X73.73 Y80.679 E18.57461
G1 X74.001 Y80.136 E18.5948
G1 X74.34 Y79.633 E18.61497
G1 X74.722 Y79.199 E18.6342
G1 X77.574 Y76.347 E18.76835
G0 F3000 X77.857 Y76.63
G1 F1500 X78.294 Y76.25 E18.78761
G1 X78.779 Y75.933 E18.80688
G1 X79.303 Y75.686 E18.82615
G1 X79.856 Y75.514 E18.84541
G1 X80.428 Y75.419 E18.8647
G1 X80.827 Y75.4 E18.87798
G1 X122.975 Y75.4 E20.27983
G1 X123.553 Y75.44 E20.2991
G1 X124.12 Y75.559 E20.31837
G1 X124.665 Y75.755 E20.33764
G1 X125.178 Y76.024 E20.3569
G1 X125.649 Y76.361 E20.37616
G1 X126.069 Y76.76 E20.39543
G1 X126.431 Y77.213 E20.41472
G1 X126.726 Y77.711 E20.43397
G1 X126.951 Y78.245 E20.45324
G1 X127.099 Y78.805 E20.47251
G1 X127.175 Y79.6 E20.49907
G1 X127.175 Y112.167 E21.58225
G1 X134.265 Y115.177 E21.83844
G1 X139.126 Y115.177 E22.00012
G1 X139.704 Y115.217 E22.01939
G1 X140.271 Y115.336 E22.03866
G1 X140.816 Y115.532 E22.05792
G1 X141.329 Y115.801 E22.07719
G1 X141.8 Y116.138 E22.09645
G1 X142.22 Y116.537 E22.11572
G1 X142.582 Y116.99 E22.135
G1 X142.764 Y117.278 E22.14633
G1 X145.663 Y122.301 E22.33923
G1 X145.917 Y122.821 E22.35848
G1 X146.097 Y123.372 E22.37776
G1 X146.2 Y123.942 E22.39702
G1 X146.223 Y124.521 E22.41629
G1 X146.167 Y125.097 E22.43554
G1 X146.031 Y125.66 E22.45481
G1 X145.82 Y126.2 E22.47409
G1 X145.663 Y126.499 E22.48532
G1 X142.764 Y131.522 E22.67821
G1 X142.44 Y132.003 E22.6975
G1 X142.054 Y132.435 E22.71677
G1 X141.611 Y132.809 E22.73606
G1 X141.122 Y133.118 E22.75529
G1 X140.594 Y133.358 E22.77459
G1 X140.039 Y133.523 E22.79384
G1 X139.466 Y133.609 E22.81311
G1 X139.126 Y133.623 E22.82443
G1 X133.324 Y133.623 E23.01741
G1 X132.746 Y133.583 E23.03668
G1 X132.179 Y133.464 E23.05595
G1 X131.634 Y133.268 E23.07521
G1 X131.121 Y132.999 E23.09448
G1 X130.65 Y132.662 E23.11374
G1 X130.23 Y132.263 E23.13301
G1 X129.868 Y131.81 E23.15229
G1 X129.685 Y131.521 E23.16367
G1 X129.324 Y130.895 E23.18771
G1 X124.175 Y128.709 E23.37376
G1 X124.175 Y131.244 E23.45807
G1 X125.362 Y133.3 E23.53703
G1 X125.617 Y133.82 E23.5563
G1 X125.797 Y134.371 E23.57558
G1 X125.9 Y134.941 E23.59484
G1 X125.923 Y135.52 E23.61411
G1 X125.867 Y136.096 E23.63336
G1 X125.732 Y136.66 E23.65265
G1 X125.52 Y137.199 E23.67191
G1 X125.363 Y137.499 E23.68318
G1 X123.489 Y140.747 E23.8079
G1 X123.165 Y141.228 E23.82719
G1 X122.779 Y141.659 E23.84643
G1 X122.337 Y142.033 E23.86569
G1 X121.847 Y142.343 E23.88497
G1 X121.32 Y142.583 E23.90423
G1 X120.764 Y142.747 E23.92351
G1 X120.192 Y142.834 E23.94276
G1 X119.851 Y142.848 E23.95411
G1 X116.099 Y142.848 E24.0789
G1 X115.521 Y142.808 E24.09817
G1 X114.954 Y142.689 E24.11744
G1 X114.409 Y142.493 E24.1367
G1 X113.896 Y142.224 E24.15597
G1 X113.425 Y141.887 E24.17523
G1 X113.005 Y141.488 E24.1945
G1 X112.643 Y141.035 E24.21379
G1 X112.46 Y140.746 E24.22516
G1 X112.122 Y140.159 E24.24769
G1 X111.772 Y139.976 E24.26083
G1 X111.301 Y139.639 E24.28009
G1 X110.881 Y139.24 E24.29936
G1 X110.519 Y138.787 E24.31864
G1 X110.224 Y138.289 E24.3379
G1 X109.999 Y137.755 E24.35717
G1 X109.851 Y137.195 E24.37643
G1 X109.797 Y136.629 E24.39535
G1 X93.175 Y136.629 E24.9482
G1 X93.175 Y140.4 E25.07362
G1 X93.135 Y140.978 E25.09289
G1 X93.016 Y141.545 E25.11216
G1 X92.82 Y142.09 E25.13142
G1 X92.551 Y142.603 E25.15069
G1 X92.214 Y143.074 E25.16995
G1 X91.815 Y143.494 E25.18922
G1 X91.362 Y143.856 E25.20851
G1 X90.864 Y144.151 E25.22776
G1 X90.33 Y144.376 E25.24703
G1 X89.77 Y144.524 E25.2663
G1 X88.975 Y144.6 E25.29286
G1 X87.675 Y144.6 E25.3361
G1 X87.097 Y144.56 E25.35537
G1 X86.53 Y144.441 E25.37464
G1 X85.985 Y144.245 E25.3939
G1 X85.472 Y143.976 E25.41316
G1 X85.001 Y143.639 E25.43243
G1 X84.705 Y143.37 E25.44573
G1 X82.005 Y140.67 E25.57273
G1 X81.625 Y140.233 E25.59199
G1 X81.308 Y139.748 E25.61126
G1 X81.061 Y139.224 E25.63053
G1 X80.889 Y138.671 E25.64979
G1 X80.794 Y138.099 E25.66908
G1 X80.775 Y137.7 E25.68236
G1 X80.775 Y135.4 E25.75886
G1 X80.815 Y134.822 E25.77813
G1 X80.934 Y134.255 E25.7974
G1 X81.13 Y133.71 E25.81666
G1 X81.399 Y133.197 E25.83593
G1 X81.736 Y132.726 E25.85519
G1 X82.135 Y132.306 E25.87446
G1 X82.588 Y131.944 E25.89375
G1 X83.086 Y131.649 E25.913
G1 X83.62 Y131.424 E25.93227
G1 X83.771 Y131.384 E25.93747
G1 X83.738 Y95.6 E27.12765
G1 X77.975 Y95.6 E27.31933
G1 X77.397 Y95.56 E27.3386
G1 X76.83 Y95.441 E27.35787
G1 X76.285 Y95.245 E27.37713
G1 X75.772 Y94.976 E27.3964
G1 X75.301 Y94.639 E27.41566
G1 X74.881 Y94.24 E27.43493
G1 X74.519 Y93.787 E27.45421
G1 X74.224 Y93.289 E27.47346
G1 X73.999 Y92.755 E27.49274
G1 X73.851 Y92.195 E27.512
G1 X73.775 Y91.4 E27.53857
G1 X73.775 Y82.452 E27.83618
G1 X73.815 Y81.874 E27.85545
G1 X73.934 Y81.307 E27.87472
G1 X74.13 Y80.762 E27.89398
G1 X74.399 Y80.249 E27.91325
G1 X74.736 Y79.778 E27.93251
G1 X75.005 Y79.482 E27.94581
G1 X77.857 Y76.63 E28.07996
G0 F3000 X78.14 Y76.913
G1 F1500 X78.557 Y76.553 E28.09828
G1 X79.021 Y76.256 E28.11661
G1 X79.524 Y76.03 E28.13495
G1 X80.054 Y75.879 E28.15328
G1 X80.827 Y75.8 E28.17912
G1 X122.975 Y75.8 E29.58097
G1 X123.525 Y75.84 E29.59931
G1 X124.063 Y75.959 E29.61764
G1 X124.578 Y76.155 E29.63597
G1 X125.059 Y76.423 E29.65428
G1 X125.497 Y76.757 E29.6726
G1 X125.881 Y77.152 E29.69092
G1 X126.205 Y77.598 E29.70926
G1 X126.46 Y78.086 E29.72757
G1 X126.643 Y78.606 E29.74591
G1 X126.748 Y79.147 E29.76423
G1 X126.775 Y79.6 E29.77933
G1 X126.775 Y112.432 E30.87133
G1 X134.185 Y115.577 E31.13906
G1 X139.126 Y115.577 E31.3034
G1 X139.676 Y115.617 E31.32174
G1 X140.214 Y115.736 E31.34007
G1 X140.729 Y115.932 E31.3584
G1 X141.21 Y116.2 E31.37671
G1 X141.648 Y116.534 E31.39503
G1 X142.032 Y116.929 E31.41335
G1 X142.417 Y117.478 E31.43566
G1 X145.316 Y122.501 E31.62855
G1 X145.556 Y122.996 E31.64685
G1 X145.722 Y123.522 E31.66519
G1 X145.81 Y124.066 E31.68352
G1 X145.819 Y124.617 E31.70185
G1 X145.748 Y125.163 E31.72016
G1 X145.598 Y125.693 E31.73848
G1 X145.316 Y126.299 E31.76071
G1 X142.417 Y131.322 E31.95361
G1 X142.108 Y131.778 E31.97193
G1 X141.736 Y132.185 E31.99027
G1 X141.309 Y132.533 E32.00859
G1 X140.836 Y132.816 E32.02692
