;FLAVOR:Marlin
;TIME:7824
;Filament used: 5.66489m
;Layer height: 0.2
;Generated with Cura_SteamEngine 3.1.0
M190 S70
M104 S240
M109 S240
M82 ; absolute extrusion mode
G28 X0 Y0  ;move X/Y to min endstops
G28 Z0     ;move Z to min endstops
G1 Z15 F5000 ; lift nozzle
G92 E0
G1 F200 E3
G92 E0
;LAYER_COUNT:81
;LAYER:0
M107
G0 F3000 X90.467 Y65.578 Z0.2
;TYPE:SKIRT
G1 F1500 X90.964 Y64.998 E0.0254
G1 X97.748 Y58.214 E0.3445
G1 X98.223 Y57.797 E0.36553
G1 X98.746 Y57.442 E0.38655
G1 X99.31 Y57.156 E0.40758
G1 X99.905 Y56.944 E0.42859
G1 X100.523 Y56.808 E0.44964
G1 X101.284 Y56.75 E0.47502
G1 X134.716 Y56.75 E1.58697
G1 X135.347 Y56.79 E1.608
G1 X135.968 Y56.909 E1.62903
G1 X136.568 Y57.106 E1.65004
G1 X137.14 Y57.377 E1.67109
G1 X137.672 Y57.717 E1.69209
G1 X138.252 Y58.214 E1.71749
G1 X140.036 Y59.998 E1.80141
G1 X140.453 Y60.473 E1.82243
G1 X140.808 Y60.996 E1.84345
G1 X141.094 Y61.56 E1.86449
G1 X141.306 Y62.155 E1.8855
G1 X141.442 Y62.773 E1.90654
G1 X141.5 Y63.535 E1.93196
G1 X141.493 Y101.725 E3.20216
G1 X143.035 Y103.266 E3.27467
G1 X143.453 Y103.74 E3.29569
G1 X143.808 Y104.263 E3.31672
G1 X144.093 Y104.827 E3.33773
G1 X144.306 Y105.423 E3.35878
G1 X144.442 Y106.04 E3.3798
G1 X144.5 Y106.802 E3.40522
G1 X144.5 Y115.75 E3.70283
G1 X144.46 Y116.381 E3.72386
G1 X144.341 Y117.002 E3.74489
G1 X144.144 Y117.602 E3.76589
G1 X143.873 Y118.174 E3.78694
G1 X143.533 Y118.706 E3.80794
G1 X143.127 Y119.191 E3.82898
G1 X142.664 Y119.621 E3.85
G1 X142.15 Y119.99 E3.87104
G1 X141.594 Y120.29 E3.89205
G1 X141.005 Y120.518 E3.91306
G1 X140.391 Y120.67 E3.9341
G1 X139.5 Y120.75 E3.96385
G1 X134.5 Y120.75 E4.13015
G1 X134.5 Y147.75 E5.02818
G1 X134.46 Y148.381 E5.04921
G1 X134.341 Y149.002 E5.07024
G1 X134.144 Y149.602 E5.09124
G1 X133.873 Y150.174 E5.11229
G1 X133.533 Y150.706 E5.13329
G1 X133.127 Y151.191 E5.15433
G1 X132.664 Y151.621 E5.17535
G1 X132.15 Y151.99 E5.19639
G1 X131.594 Y152.29 E5.2174
G1 X131.005 Y152.518 E5.23841
G1 X130.391 Y152.67 E5.25945
G1 X129.5 Y152.75 E5.2892
G1 X102.492 Y152.75 E6.18749
G1 X102.038 Y153.058 E6.20574
G1 X101.474 Y153.344 E6.22677
G1 X100.879 Y153.556 E6.24778
G1 X100.261 Y153.692 E6.26883
G1 X99.5 Y153.75 E6.29421
G1 X98.135 Y153.75 E6.33961
G1 X98.135 Y158.251 E6.48932
G1 X98.095 Y158.881 E6.51031
G1 X97.976 Y159.502 E6.53134
G1 X97.779 Y160.103 E6.55238
G1 X97.508 Y160.674 E6.5734
G1 X97.167 Y161.206 E6.59442
G1 X96.762 Y161.692 E6.61546
G1 X96.299 Y162.122 E6.63647
G1 X95.785 Y162.49 E6.6575
G1 X95.229 Y162.79 E6.67851
G1 X94.639 Y163.018 E6.69955
G1 X94.026 Y163.17 E6.72056
G1 X93.135 Y163.25 E6.75031
G1 X83.027 Y163.25 E7.0865
G1 X82.396 Y163.21 E7.10753
G1 X81.775 Y163.091 E7.12856
G1 X81.175 Y162.894 E7.14957
G1 X80.603 Y162.623 E7.17062
G1 X80.071 Y162.283 E7.19162
G1 X79.586 Y161.877 E7.21266
G1 X79.156 Y161.414 E7.23367
G1 X78.787 Y160.9 E7.25472
G1 X78.487 Y160.344 E7.27573
G1 X78.259 Y159.755 E7.29674
G1 X78.107 Y159.141 E7.31778
G1 X78.027 Y158.25 E7.34753
G1 X78.026 Y140.25 E7.94621
G1 X78.066 Y139.619 E7.96724
G1 X78.185 Y138.999 E7.98824
G1 X78.382 Y138.398 E8.00927
G1 X78.653 Y137.827 E8.0303
G1 X78.993 Y137.294 E8.05132
G1 X79.398 Y136.809 E8.07234
G1 X79.862 Y136.379 E8.09338
G1 X80.375 Y136.01 E8.1144
G1 X80.931 Y135.71 E8.13541
G1 X81.521 Y135.482 E8.15645
G1 X82.135 Y135.33 E8.17749
G1 X83.026 Y135.25 E8.20724
G1 X89.5 Y135.25 E8.42257
G1 X89.5 Y134.25 E8.45583
G1 X88 Y134.25 E8.50572
G1 X87.369 Y134.21 E8.52675
G1 X86.748 Y134.091 E8.54778
G1 X86.148 Y133.894 E8.56878
G1 X85.576 Y133.623 E8.58983
G1 X85.044 Y133.283 E8.61083
G1 X84.464 Y132.786 E8.63624
G1 X83.464 Y131.786 E8.68327
G1 X83.047 Y131.311 E8.7043
G1 X82.692 Y130.788 E8.72532
G1 X82.406 Y130.224 E8.74635
G1 X82.194 Y129.629 E8.76736
G1 X82.058 Y129.011 E8.78841
G1 X82 Y128.25 E8.81379
G1 X82 Y121.821 E9.02762
G1 X82.04 Y121.19 E9.04865
G1 X82.159 Y120.569 E9.06968
G1 X82.356 Y119.969 E9.09069
G1 X82.627 Y119.397 E9.11174
G1 X82.967 Y118.865 E9.13274
G1 X83.464 Y118.285 E9.15814
G1 X84.535 Y117.214 E9.20852
G1 X85.01 Y116.797 E9.22954
G1 X85.533 Y116.442 E9.25057
G1 X86.097 Y116.156 E9.2716
G1 X86.692 Y115.944 E9.29261
G1 X87.31 Y115.808 E9.31365
G1 X88.071 Y115.75 E9.33904
G1 X89.5 Y115.75 E9.38657
G1 X89.5 Y68.534 E10.95698
G1 X89.54 Y67.903 E10.97801
G1 X89.659 Y67.282 E10.99904
G1 X89.856 Y66.682 E11.02004
G1 X90.127 Y66.11 E11.04109
G1 X90.467 Y65.578 E11.06209
G0 F3000 X90.865 Y65.715
G1 F1500 X91.247 Y65.281 E11.08132
G1 X98.031 Y58.497 E11.40042
G1 X98.487 Y58.098 E11.42057
G1 X98.992 Y57.762 E11.44075
G1 X99.536 Y57.495 E11.4609
G1 X100.111 Y57.302 E11.48108
G1 X100.706 Y57.186 E11.50124
G1 X101.284 Y57.15 E11.5205
G1 X134.716 Y57.15 E12.63245
G1 X135.321 Y57.19 E12.65262
G1 X135.915 Y57.309 E12.67277
G1 X136.489 Y57.505 E12.69294
G1 X137.032 Y57.776 E12.71313
G1 X137.535 Y58.115 E12.7333
G1 X137.969 Y58.497 E12.75253
G1 X139.753 Y60.281 E12.83645
G1 X140.152 Y60.737 E12.8566
G1 X140.488 Y61.242 E12.87677
G1 X140.755 Y61.786 E12.89693
G1 X140.948 Y62.361 E12.9171
G1 X141.064 Y62.956 E12.93726
G1 X141.1 Y63.535 E12.95656
G1 X141.093 Y101.891 E14.23228
G1 X142.752 Y103.549 E14.31029
G1 X143.152 Y104.005 E14.33047
G1 X143.488 Y104.509 E14.35062
G1 X143.755 Y105.054 E14.3708
G1 X143.948 Y105.628 E14.39094
G1 X144.063 Y106.224 E14.41113
G1 X144.1 Y106.802 E14.4304
G1 X144.1 Y115.75 E14.72801
G1 X144.06 Y116.355 E14.74817
G1 X143.941 Y116.949 E14.76832
G1 X143.745 Y117.523 E14.7885
G1 X143.474 Y118.066 E14.80868
G1 X143.135 Y118.569 E14.82886
G1 X142.733 Y119.022 E14.849
G1 X142.275 Y119.419 E14.86916
G1 X141.768 Y119.752 E14.88933
G1 X141.222 Y120.016 E14.90951
G1 X140.646 Y120.205 E14.92967
G1 X140.05 Y120.317 E14.94984
G1 X139.5 Y120.35 E14.96816
G1 X134.1 Y120.35 E15.14777
G1 X134.1 Y147.75 E16.0591
G1 X134.06 Y148.355 E16.07926
G1 X133.941 Y148.949 E16.09941
G1 X133.745 Y149.523 E16.11959
G1 X133.474 Y150.066 E16.13977
G1 X133.135 Y150.569 E16.15994
G1 X132.733 Y151.022 E16.18009
G1 X132.275 Y151.419 E16.20025
G1 X131.768 Y151.752 E16.22042
G1 X131.222 Y152.016 E16.24059
G1 X130.646 Y152.205 E16.26076
G1 X130.05 Y152.317 E16.28093
G1 X129.5 Y152.35 E16.29925
G1 X102.356 Y152.35 E17.20207
G1 X102.297 Y152.402 E17.20468
G1 X101.792 Y152.738 E17.22486
G1 X101.248 Y153.005 E17.24501
G1 X100.673 Y153.198 E17.26518
G1 X100.078 Y153.314 E17.28535
G1 X99.5 Y153.35 E17.30461
G1 X97.736 Y153.35 E17.36328
G1 X97.735 Y158.25 E17.52625
G1 X97.695 Y158.855 E17.54642
G1 X97.576 Y159.45 E17.5666
G1 X97.379 Y160.024 E17.58679
G1 X97.109 Y160.566 E17.60693
G1 X96.77 Y161.069 E17.6271
G1 X96.368 Y161.522 E17.64725
G1 X95.909 Y161.919 E17.66743
G1 X95.403 Y162.252 E17.68758
G1 X94.857 Y162.516 E17.70775
G1 X94.281 Y162.705 E17.72791
G1 X93.685 Y162.817 E17.74808
G1 X93.135 Y162.85 E17.76641
G1 X83.027 Y162.85 E18.1026
G1 X82.422 Y162.81 E18.12277
G1 X81.828 Y162.691 E18.14292
G1 X81.254 Y162.495 E18.16309
G1 X80.711 Y162.224 E18.18327
G1 X80.208 Y161.885 E18.20345
G1 X79.755 Y161.483 E18.22359
G1 X79.358 Y161.025 E18.24375
G1 X79.025 Y160.518 E18.26393
G1 X78.761 Y159.972 E18.2841
G1 X78.572 Y159.396 E18.30426
G1 X78.46 Y158.8 E18.32443
G1 X78.427 Y158.25 E18.34276
G1 X78.426 Y140.25 E18.94144
G1 X78.466 Y139.645 E18.96161
G1 X78.585 Y139.051 E18.98176
G1 X78.781 Y138.477 E19.00193
G1 X79.051 Y137.934 E19.0221
G1 X79.39 Y137.432 E19.04225
G1 X79.793 Y136.978 E19.06244
G1 X80.251 Y136.581 E19.0826
G1 X80.758 Y136.248 E19.10277
G1 X81.304 Y135.985 E19.12293
G1 X81.88 Y135.795 E19.1431
G1 X82.476 Y135.683 E19.16327
G1 X83.026 Y135.65 E19.1816
G1 X89.9 Y135.65 E19.41023
G1 X89.9 Y133.85 E19.4701
G1 X88 Y133.85 E19.53329
G1 X87.395 Y133.81 E19.55346
G1 X86.801 Y133.691 E19.57361
G1 X86.227 Y133.495 E19.59378
G1 X85.684 Y133.224 E19.61396
G1 X85.181 Y132.885 E19.63414
G1 X84.747 Y132.503 E19.65337
G1 X83.747 Y131.503 E19.70041
G1 X83.348 Y131.047 E19.72056
G1 X83.012 Y130.542 E19.74073
G1 X82.745 Y129.998 E19.76089
G1 X82.552 Y129.423 E19.78106
G1 X82.436 Y128.828 E19.80122
G1 X82.4 Y128.25 E19.82049
G1 X82.4 Y121.821 E20.03431
G1 X82.44 Y121.216 E20.05448
G1 X82.559 Y120.622 E20.07463
G1 X82.755 Y120.048 E20.0948
G1 X83.026 Y119.505 E20.11499
G1 X83.365 Y119.002 E20.13516
G1 X83.747 Y118.568 E20.15439
G1 X84.818 Y117.497 E20.20477
G1 X85.274 Y117.098 E20.22492
G1 X85.779 Y116.762 E20.2451
G1 X86.323 Y116.495 E20.26525
G1 X86.898 Y116.302 E20.28543
G1 X87.493 Y116.186 E20.30559
G1 X88.071 Y116.15 E20.32485
G1 X89.9 Y116.15 E20.38568
G1 X89.9 Y68.534 E21.9694
G1 X89.94 Y67.929 E21.98956
G1 X90.059 Y67.335 E22.00971
G1 X90.255 Y66.761 E22.02989
G1 X90.526 Y66.218 E22.05007
G1 X90.865 Y65.715 E22.07024
G0 F3000 X91.261 Y65.86
G1 F1500 X91.53 Y65.564 E22.08355
G1 X98.314 Y58.78 E22.40265
G1 X98.751 Y58.4 E22.42191
G1 X99.236 Y58.083 E22.44118
G1 X99.76 Y57.836 E22.46045
G1 X100.313 Y57.664 E22.47971
G1 X100.885 Y57.569 E22.49899
G1 X101.284 Y57.55 E22.51228
G1 X134.716 Y57.55 E23.62423
G1 X135.294 Y57.59 E23.6435
G1 X135.861 Y57.709 E23.66277
G1 X136.406 Y57.905 E23.68204
G1 X136.919 Y58.174 E23.7013
G1 X137.39 Y58.511 E23.72056
G1 X137.686 Y58.78 E23.73387
G1 X139.47 Y60.564 E23.81778
G1 X139.85 Y61.001 E23.83704
G1 X140.167 Y61.486 E23.85631
G1 X140.414 Y62.01 E23.87558
G1 X140.586 Y62.563 E23.89484
G1 X140.681 Y63.135 E23.91413
G1 X140.7 Y63.535 E23.92745
G1 X140.693 Y102.057 E25.20869
G1 X142.469 Y103.832 E25.29221
G1 X142.85 Y104.269 E25.31149
G1 X143.167 Y104.754 E25.33076
G1 X143.414 Y105.278 E25.35003
G1 X143.586 Y105.831 E25.36929
G1 X143.681 Y106.402 E25.38854
G1 X143.7 Y106.802 E25.40186
G1 X143.7 Y115.75 E25.69948
G1 X143.66 Y116.328 E25.71875
G1 X143.541 Y116.895 E25.73802
G1 X143.345 Y117.44 E25.75728
G1 X143.076 Y117.953 E25.77654
G1 X142.739 Y118.424 E25.79581
G1 X142.34 Y118.844 E25.81507
G1 X141.887 Y119.206 E25.83436
G1 X141.389 Y119.501 E25.85361
G1 X140.855 Y119.726 E25.87289
G1 X140.295 Y119.874 E25.89215
G1 X139.5 Y119.95 E25.91871
G1 X133.7 Y119.95 E26.11162
G1 X133.7 Y147.75 E27.03625
G1 X133.66 Y148.328 E27.05552
G1 X133.541 Y148.895 E27.07479
G1 X133.345 Y149.44 E27.09406
G1 X133.076 Y149.953 E27.11332
G1 X132.739 Y150.424 E27.13259
G1 X132.34 Y150.844 E27.15185
G1 X131.887 Y151.206 E27.17114
G1 X131.389 Y151.501 E27.19039
G1 X130.855 Y151.726 E27.20966
G1 X130.295 Y151.874 E27.22893
G1 X129.5 Y151.95 E27.25549
G1 X102.206 Y151.95 E28.16329
G1 X102.033 Y152.1 E28.17091
G1 X101.548 Y152.417 E28.19018
G1 X101.024 Y152.664 E28.20945
G1 X100.471 Y152.836 E28.22871
G1 X99.899 Y152.931 E28.248
G1 X99.5 Y152.95 E28.26128
G1 X97.336 Y152.95 E28.33326
G1 X97.335 Y158.25 E28.50954
G1 X97.295 Y158.828 E28.52881
G1 X97.176 Y159.395 E28.54808
G1 X96.98 Y159.94 E28.56734
G1 X96.711 Y160.453 E28.5866
G1 X96.373 Y160.924 E28.60589
G1 X95.975 Y161.345 E28.62516
G1 X95.522 Y161.706 E28.64442
G1 X95.024 Y162.001 E28.66367
G1 X94.489 Y162.226 E28.68298
G1 X93.929 Y162.374 E28.70224
G1 X93.135 Y162.45 E28.72877
G1 X83.027 Y162.45 E29.06496
G1 X82.449 Y162.41 E29.08424
G1 X81.882 Y162.291 E29.1035
G1 X81.337 Y162.095 E29.12277
G1 X80.824 Y161.826 E29.14203
G1 X80.353 Y161.489 E29.1613
G1 X79.933 Y161.09 E29.18056
G1 X79.571 Y160.637 E29.19985
G1 X79.276 Y160.139 E29.2191
G1 X79.051 Y159.605 E29.23838
G1 X78.903 Y159.045 E29.25764
G1 X78.827 Y158.25 E29.2842
G1 X78.826 Y140.25 E29.88289
G1 X78.866 Y139.672 E29.90216
G1 X78.985 Y139.105 E29.92143
G1 X79.181 Y138.56 E29.94069
G1 X79.45 Y138.047 E29.95995
G1 X79.787 Y137.576 E29.97922
G1 X80.186 Y137.156 E29.99849
G1 X80.639 Y136.794 E30.01777
G1 X81.137 Y136.499 E30.03702
G1 X81.671 Y136.275 E30.05628
G1 X82.231 Y136.126 E30.07556
G1 X83.026 Y136.05 E30.10212
G1 X90.3 Y136.05 E30.34405
G1 X90.3 Y133.421 E30.43149
G1 X90 Y133.45 E30.44152
G1 X88 Y133.45 E30.50804
G1 X87.422 Y133.41 E30.52731
G1 X86.855 Y133.291 E30.54658
G1 X86.31 Y133.095 E30.56584
G1 X85.797 Y132.826 E30.58511
G1 X85.326 Y132.489 E30.60437
G1 X85.03 Y132.22 E30.61767
G1 X84.03 Y131.22 E30.66471
G1 X83.65 Y130.783 E30.68397
G1 X83.333 Y130.298 E30.70324
G1 X83.086 Y129.774 E30.72251
G1 X82.914 Y129.221 E30.74177
G1 X82.819 Y128.649 E30.76106
G1 X82.8 Y128.25 E30.77434
G1 X82.8 Y121.821 E30.98817
G1 X82.84 Y121.243 E31.00744
G1 X82.959 Y120.676 E31.02671
G1 X83.155 Y120.131 E31.04598
G1 X83.424 Y119.618 E31.06524
G1 X83.761 Y119.147 E31.08451
G1 X84.03 Y118.851 E31.09781
G1 X85.101 Y117.78 E31.14818
G1 X85.538 Y117.4 E31.16745
G1 X86.023 Y117.083 E31.18672
G1 X86.547 Y116.836 E31.20598
G1 X87.1 Y116.664 E31.22525
G1 X87.672 Y116.569 E31.24453
G1 X88.071 Y116.55 E31.25782
G1 X90.3 Y116.55 E31.33195
G1 X90.3 Y68.534 E32.92897
G1 X90.34 Y67.956 E32.94824
G1 X90.459 Y67.389 E32.96751
G1 X90.655 Y66.844 E32.98678
G1 X90.924 Y66.331 E33.00604
G1 X91.261 Y65.86 E33.0253
G0 F3000 X91.323 Y66.45
G1 F1500 X91.813 Y65.847 E33.05115
G1 X98.597 Y59.063 E33.37025
G1 X99.014 Y58.703 E33.38857
G1 X99.478 Y58.406 E33.40689
G1 X99.981 Y58.18 E33.42523
G1 X100.511 Y58.029 E33.44356
G1 X101.284 Y57.95 E33.46941
G1 X134.716 Y57.95 E34.58136
G1 X135.266 Y57.99 E34.5997
G1 X135.804 Y58.109 E34.61803
G1 X136.319 Y58.305 E34.63635
G1 X136.8 Y58.573 E34.65467
G1 X137.403 Y59.063 E34.68051
G1 X139.187 Y60.847 E34.76443
G1 X139.547 Y61.264 E34.78275
G1 X139.844 Y61.728 E34.80107
G1 X140.07 Y62.231 E34.81941
G1 X140.221 Y62.761 E34.83774
G1 X140.3 Y63.535 E34.86362
G1 X140.293 Y102.222 E36.15035
G1 X142.187 Y104.115 E36.23942
G1 X142.547 Y104.531 E36.25772
G1 X142.843 Y104.996 E36.27605
G1 X143.069 Y105.498 E36.29436
G1 X143.22 Y106.028 E36.31269
G1 X143.3 Y106.802 E36.33857
G1 X143.3 Y115.75 E36.63618
G1 X143.26 Y116.3 E36.65452
G1 X143.141 Y116.838 E36.67285
G1 X142.945 Y117.353 E36.69118
G1 X142.677 Y117.834 E36.70949
G1 X142.343 Y118.272 E36.72781
G1 X141.948 Y118.656 E36.74613
G1 X141.502 Y118.98 E36.76447
G1 X141.014 Y119.235 E36.78278
G1 X140.494 Y119.418 E36.80112
G1 X139.953 Y119.523 E36.81945
G1 X139.5 Y119.55 E36.83454
G1 X133.5 Y119.55 E37.0341
G1 X133.3 Y119.535 E37.04077
G1 X133.3 Y147.75 E37.97921
G1 X133.26 Y148.3 E37.99755
G1 X133.141 Y148.838 E38.01587
G1 X132.945 Y149.353 E38.0342
G1 X132.677 Y149.834 E38.05252
G1 X132.343 Y150.272 E38.07084
G1 X131.948 Y150.656 E38.08916
G1 X131.502 Y150.98 E38.10749
G1 X131.014 Y151.235 E38.12581
G1 X130.494 Y151.418 E38.14414
G1 X129.953 Y151.523 E38.16247
G1 X129.5 Y151.55 E38.17757
G1 X102.056 Y151.55 E39.09036
G1 X101.77 Y151.797 E39.10293
G1 X101.306 Y152.094 E39.12125
G1 X100.803 Y152.32 E39.13959
G1 X100.273 Y152.471 E39.15792
G1 X99.5 Y152.55 E39.18376
G1 X96.936 Y152.55 E39.26904
G1 X96.935 Y158.25 E39.45862
G1 X96.895 Y158.8 E39.47697
G1 X96.776 Y159.338 E39.49529
G1 X96.58 Y159.853 E39.51362
G1 X96.312 Y160.334 E39.53193
G1 X95.977 Y160.772 E39.55027
G1 X95.583 Y161.157 E39.5686
G1 X95.137 Y161.48 E39.58691
G1 X94.649 Y161.736 E39.60524
G1 X94.129 Y161.918 E39.62356
G1 X93.588 Y162.023 E39.64189
G1 X93.135 Y162.05 E39.65699
G1 X83.027 Y162.05 E39.99318
G1 X82.477 Y162.01 E40.01152
G1 X81.939 Y161.891 E40.02985
G1 X81.424 Y161.695 E40.04818
G1 X80.943 Y161.427 E40.06649
G1 X80.505 Y161.093 E40.08481
G1 X80.121 Y160.698 E40.10313
G1 X79.797 Y160.252 E40.12147
G1 X79.542 Y159.764 E40.13978
G1 X79.359 Y159.244 E40.15812
G1 X79.254 Y158.703 E40.17645
G1 X79.227 Y158.25 E40.19154
G1 X79.226 Y140.25 E40.79022
G1 X79.266 Y139.701 E40.80853
G1 X79.385 Y139.163 E40.82686
G1 X79.58 Y138.648 E40.84517
G1 X79.848 Y138.166 E40.86352
G1 X80.183 Y137.728 E40.88186
G1 X80.578 Y137.344 E40.90018
G1 X81.024 Y137.02 E40.91851
G1 X81.512 Y136.765 E40.93683
G1 X82.032 Y136.582 E40.95516
G1 X82.573 Y136.477 E40.97349
G1 X83.026 Y136.45 E40.98859
