;FLAVOR:Marlin
;TIME:2107
;Filament used: 1.62914m
;Layer height: 0.2
;Generated with Cura_SteamEngine 3.1.0
M190 S70
M104 S240
M109 S240
M82 ; absolute extrusion mode
G28 X0 Y0  ;move X/Y to min endstops
G28 Z0     ;move Z to min endstops
G1 Z15 F5000 ; lift nozzle
G92 E0
G1 F200 E3
G92 E0
;LAYER_COUNT:51
;LAYER:0
M107
G0 F3000 X97.217 Y79.444 Z0.2
;TYPE:SKIRT
G1 F1500 X97.623 Y78.959 E0.02104
G1 X98.086 Y78.529 E0.04205
G1 X98.6 Y78.16 E0.0631
G1 X99.156 Y77.86 E0.08411
G1 X99.745 Y77.632 E0.10512
G1 X100.359 Y77.48 E0.12616
G1 X101.25 Y77.4 E0.15591
G1 X122.75 Y77.399 E0.871
G1 X123.381 Y77.439 E0.89203
G1 X124.001 Y77.558 E0.91303
G1 X124.602 Y77.755 E0.93407
G1 X125.173 Y78.026 E0.95509
G1 X125.706 Y78.366 E0.97612
G1 X126.191 Y78.771 E0.99713
G1 X126.621 Y79.235 E1.01817
G1 X126.99 Y79.748 E1.03919
G1 X127.29 Y80.305 E1.06023
G1 X127.518 Y80.894 E1.08124
G1 X127.67 Y81.508 E1.10228
G1 X127.75 Y82.399 E1.13203
G1 X127.75 Y93.5 E1.50125
G1 X127.71 Y94.131 E1.52228
G1 X127.591 Y94.752 E1.54331
G1 X127.394 Y95.352 E1.56432
G1 X127.123 Y95.924 E1.58537
G1 X126.783 Y96.456 E1.60637
G1 X126.377 Y96.941 E1.6274
G1 X125.914 Y97.371 E1.64842
G1 X125.4 Y97.74 E1.66947
G1 X124.844 Y98.04 E1.69048
G1 X124.255 Y98.268 E1.71148
G1 X124.25 Y98.269 E1.71165
G1 X124.25 Y120.499 E2.45103
G1 X124.211 Y121.119 E2.47169
G1 X124.149 Y121.615 E2.48831
G1 X124.031 Y122.236 E2.50934
G1 X123.841 Y122.826 E2.52995
G1 X123.656 Y123.296 E2.54675
G1 X123.387 Y123.869 E2.56781
G1 X123.045 Y124.409 E2.58907
G1 X122.75 Y124.814 E2.60573
G1 X122.346 Y125.3 E2.62675
G1 X121.893 Y125.724 E2.64739
G1 X121.507 Y126.043 E2.66404
G1 X120.995 Y126.414 E2.68507
G1 X120.445 Y126.716 E2.70594
G1 X119.993 Y126.928 E2.72255
G1 X119.405 Y127.16 E2.74357
G1 X118.565 Y127.352 E2.77223
G1 X118.241 Y127.398 E2.78312
G1 X118.228 Y133.98 E3.00204
G1 X118.139 Y134.91 E3.03311
G1 X117.962 Y135.835 E3.06443
G1 X117.804 Y136.447 E3.08545
G1 X117.64 Y136.88 E3.10085
G1 X117.143 Y138.029 E3.14249
G1 X116.856 Y138.592 E3.16351
G1 X116.505 Y139.109 E3.18429
G1 X115.737 Y140.099 E3.22597
G1 X115.318 Y140.573 E3.24701
G1 X114.974 Y140.886 E3.26248
G1 X114.248 Y141.487 E3.29383
G1 X113.737 Y141.858 E3.31483
G1 X113.331 Y142.089 E3.33037
G1 X112.215 Y142.658 E3.37203
G1 X111.635 Y142.909 E3.39305
G1 X111.185 Y143.047 E3.4087
G1 X110.272 Y143.281 E3.44005
G1 X109.651 Y143.399 E3.46108
G1 X109.191 Y143.435 E3.47642
G1 X107.94 Y143.475 E3.51805
G1 X107.308 Y143.456 E3.53908
G1 X106.84 Y143.389 E3.55481
G1 X105.915 Y143.212 E3.58613
G1 X105.303 Y143.054 E3.60715
G1 X104.868 Y142.889 E3.62263
G1 X103.718 Y142.391 E3.66431
G1 X103.155 Y142.104 E3.68533
G1 X102.64 Y141.753 E3.70606
G1 X101.649 Y140.984 E3.74778
G1 X101.175 Y140.566 E3.7688
G1 X100.763 Y140.099 E3.78951
G1 X99.995 Y139.109 E3.83118
G1 X99.64 Y138.586 E3.85221
G1 X99.357 Y138.029 E3.87299
G1 X98.86 Y136.88 E3.91463
G1 X98.646 Y136.285 E3.93566
G1 X98.538 Y135.835 E3.95105
G1 X98.361 Y134.91 E3.98237
G1 X98.272 Y133.98 E4.01345
G1 X98.259 Y127.424 E4.2315
G1 X98.203 Y127.42 E4.23337
G1 X97.323 Y127.218 E4.2634
G1 X96.848 Y127.063 E4.28002
G1 X96.261 Y126.83 E4.30102
G1 X95.723 Y126.534 E4.32144
G1 X95.3 Y126.266 E4.3381
G1 X94.788 Y125.894 E4.35915
G1 X94.328 Y125.461 E4.38016
G1 X93.985 Y125.095 E4.39684
G1 X93.582 Y124.607 E4.41789
G1 X93.253 Y124.088 E4.43833
G1 X93.009 Y123.645 E4.45515
G1 X92.74 Y123.073 E4.47618
G1 X92.545 Y122.472 E4.49719
G1 X92.458 Y122.06 E4.5112
G1 X92.335 Y121.327 E4.53592
G1 X92.266 Y120.503 E4.56342
G1 X92.25 Y92.503 E5.4947
G1 X92.29 Y91.872 E5.51573
G1 X92.408 Y91.251 E5.53676
G1 X92.605 Y90.65 E5.55779
G1 X92.875 Y90.079 E5.5788
G1 X93.216 Y89.546 E5.59985
G1 X93.621 Y89.061 E5.62086
G1 X94.084 Y88.63 E5.6419
G1 X94.597 Y88.262 E5.6629
G1 X95.153 Y87.961 E5.68393
G1 X95.743 Y87.733 E5.70497
G1 X96.25 Y87.607 E5.72234
G1 X96.25 Y82.4 E5.89553
G1 X96.29 Y81.769 E5.91656
G1 X96.409 Y81.148 E5.93759
G1 X96.606 Y80.548 E5.95859
G1 X96.877 Y79.976 E5.97964
G1 X97.217 Y79.444 E6.00064
G0 F3000 X97.615 Y79.581
G1 F1500 X98.017 Y79.128 E6.02079
G1 X98.475 Y78.731 E6.04095
G1 X98.982 Y78.398 E6.06112
G1 X99.528 Y78.134 E6.08129
G1 X100.104 Y77.945 E6.10146
G1 X100.7 Y77.833 E6.12163
G1 X101.25 Y77.8 E6.13995
G1 X122.75 Y77.799 E6.85504
G1 X123.355 Y77.839 E6.87521
G1 X123.949 Y77.958 E6.89536
G1 X124.523 Y78.154 E6.91553
G1 X125.066 Y78.424 E6.9357
G1 X125.568 Y78.763 E6.95585
G1 X126.022 Y79.166 E6.97604
G1 X126.419 Y79.624 E6.9962
G1 X126.752 Y80.131 E7.01638
G1 X127.015 Y80.677 E7.03653
G1 X127.205 Y81.253 E7.05671
G1 X127.317 Y81.849 E7.07688
G1 X127.35 Y82.399 E7.0952
G1 X127.35 Y93.5 E7.46442
G1 X127.31 Y94.105 E7.48459
G1 X127.191 Y94.699 E7.50474
G1 X126.995 Y95.273 E7.52491
G1 X126.724 Y95.816 E7.5451
G1 X126.385 Y96.319 E7.56527
G1 X125.983 Y96.772 E7.58541
G1 X125.525 Y97.169 E7.60557
G1 X125.018 Y97.502 E7.62575
G1 X124.472 Y97.766 E7.64592
G1 X123.896 Y97.955 E7.66608
G1 X123.85 Y97.964 E7.66764
G1 X123.85 Y120.499 E8.41716
G1 X123.814 Y121.07 E8.43619
G1 X123.752 Y121.566 E8.45281
G1 X123.638 Y122.161 E8.47296
G1 X123.468 Y122.68 E8.49113
G1 X123.283 Y123.15 E8.50793
G1 X123.025 Y123.698 E8.52807
G1 X122.721 Y124.173 E8.54683
G1 X122.426 Y124.578 E8.5635
G1 X122.038 Y125.044 E8.58366
G1 X121.638 Y125.416 E8.60183
G1 X121.252 Y125.735 E8.61849
G1 X120.761 Y126.089 E8.63862
G1 X120.275 Y126.354 E8.65703
G1 X119.823 Y126.566 E8.67364
G1 X119.259 Y126.786 E8.69377
G1 X118.509 Y126.956 E8.71935
G1 X117.889 Y127.043 E8.74017
G1 X117.841 Y127.046 E8.74177
G1 X117.828 Y133.979 E8.97236
G1 X117.746 Y134.835 E9.00097
G1 X117.569 Y135.76 E9.03229
G1 X117.416 Y136.346 E9.05243
G1 X117.273 Y136.721 E9.06578
G1 X116.776 Y137.87 E9.10742
G1 X116.499 Y138.41 E9.12761
G1 X116.189 Y138.864 E9.14589
G1 X115.421 Y139.854 E9.18756
G1 X115.018 Y140.307 E9.20773
G1 X114.719 Y140.577 E9.22113
G1 X113.993 Y141.178 E9.25248
G1 X113.502 Y141.533 E9.27263
G1 X113.149 Y141.733 E9.28612
G1 X112.033 Y142.302 E9.32779
G1 X111.476 Y142.541 E9.34795
G1 X111.086 Y142.66 E9.36151
G1 X110.173 Y142.894 E9.39286
G1 X109.577 Y143.005 E9.41302
G1 X109.178 Y143.036 E9.42633
G1 X107.927 Y143.076 E9.46796
G1 X107.321 Y143.055 E9.48813
G1 X106.915 Y142.996 E9.50177
G1 X105.99 Y142.819 E9.5331
G1 X105.404 Y142.666 E9.55324
G1 X105.027 Y142.522 E9.56666
G1 X103.877 Y142.024 E9.60835
G1 X103.338 Y141.747 E9.6285
G1 X102.885 Y141.437 E9.64676
G1 X101.894 Y140.668 E9.68848
G1 X101.44 Y140.266 E9.70865
G1 X101.079 Y139.854 E9.72687
G1 X100.311 Y138.864 E9.76854
G1 X99.972 Y138.361 E9.78872
G1 X99.724 Y137.87 E9.80701
G1 X99.227 Y136.721 E9.84865
G1 X99.024 Y136.15 E9.86881
G1 X98.931 Y135.76 E9.88214
G1 X98.754 Y134.835 E9.91346
G1 X98.672 Y133.979 E9.94207
G1 X98.659 Y127.052 E10.17246
G1 X98.233 Y127.02 E10.18667
G1 X97.447 Y126.838 E10.2135
G1 X96.972 Y126.683 E10.23012
G1 X96.409 Y126.457 E10.2503
G1 X95.937 Y126.196 E10.26824
G1 X95.514 Y125.928 E10.28489
G1 X95.024 Y125.57 E10.30508
G1 X94.62 Y125.188 E10.32357
G1 X94.277 Y124.822 E10.34025
G1 X93.892 Y124.353 E10.36043
G1 X93.604 Y123.895 E10.37843
G1 X93.36 Y123.452 E10.39525
G1 X93.103 Y122.903 E10.41541
G1 X92.92 Y122.325 E10.43558
G1 X92.852 Y121.994 E10.44682
G1 X92.729 Y121.261 E10.47154
G1 X92.666 Y120.503 E10.49683
G1 X92.65 Y92.503 E11.42812
G1 X92.69 Y91.898 E11.44828
G1 X92.808 Y91.303 E11.46846
G1 X93.004 Y90.729 E11.48863
G1 X93.274 Y90.186 E11.5088
G1 X93.613 Y89.684 E11.52895
G1 X94.015 Y89.23 E11.54912
G1 X94.473 Y88.833 E11.56928
G1 X94.98 Y88.499 E11.58947
G1 X95.526 Y88.235 E11.60964
G1 X96.101 Y88.046 E11.62977
G1 X96.65 Y87.942 E11.64836
G1 X96.65 Y82.4 E11.83269
G1 X96.69 Y81.795 E11.85285
G1 X96.809 Y81.201 E11.873
G1 X97.005 Y80.627 E11.89318
G1 X97.276 Y80.084 E11.91336
G1 X97.615 Y79.581 E11.93353
G0 F3000 X98.011 Y79.726
G1 F1500 X98.41 Y79.306 E11.9528
G1 X98.863 Y78.944 E11.97209
G1 X99.361 Y78.649 E11.99134
G1 X99.895 Y78.424 E12.01061
G1 X100.455 Y78.276 E12.02988
G1 X101.25 Y78.2 E12.05644
G1 X122.75 Y78.199 E12.77153
G1 X123.328 Y78.239 E12.7908
G1 X123.895 Y78.358 E12.81007
G1 X124.44 Y78.554 E12.82934
G1 X124.953 Y78.823 E12.8486
G1 X125.424 Y79.16 E12.86787
G1 X125.844 Y79.559 E12.88713
G1 X126.206 Y80.012 E12.90642
G1 X126.501 Y80.51 E12.92567
G1 X126.725 Y81.044 E12.94493
G1 X126.874 Y81.604 E12.96421
G1 X126.95 Y82.399 E12.99077
G1 X126.95 Y93.5 E13.35999
G1 X126.91 Y94.078 E13.37926
G1 X126.791 Y94.645 E13.39853
G1 X126.595 Y95.19 E13.41779
G1 X126.326 Y95.703 E13.43706
G1 X125.989 Y96.174 E13.45632
G1 X125.59 Y96.594 E13.47559
G1 X125.137 Y96.956 E13.49487
G1 X124.639 Y97.251 E13.51413
G1 X124.105 Y97.476 E13.5334
G1 X123.545 Y97.624 E13.55266
G1 X123.45 Y97.633 E13.55584
G1 X123.45 Y120.499 E14.31636
G1 X123.418 Y121.02 E14.33373
G1 X123.356 Y121.516 E14.35035
G1 X123.244 Y122.084 E14.36961
G1 X123.096 Y122.533 E14.38533
G1 X122.911 Y123.003 E14.40213
G1 X122.662 Y123.526 E14.4214
G1 X122.398 Y123.938 E14.43767
G1 X122.103 Y124.343 E14.45434
G1 X121.73 Y124.786 E14.4736
G1 X121.384 Y125.108 E14.48932
G1 X120.998 Y125.427 E14.50597
G1 X120.527 Y125.764 E14.52524
G1 X120.105 Y125.992 E14.54119
G1 X119.653 Y126.204 E14.55779
G1 X119.113 Y126.413 E14.57705
G1 X118.454 Y126.56 E14.59951
G1 X117.834 Y126.647 E14.62033
G1 X117.442 Y126.675 E14.6334
G1 X117.428 Y133.978 E14.8763
G1 X117.353 Y134.759 E14.9024
G1 X117.176 Y135.684 E14.93372
G1 X117.028 Y136.244 E14.95299
G1 X116.906 Y136.562 E14.96432
G1 X116.409 Y137.711 E15.00596
G1 X116.143 Y138.226 E15.02523
G1 X115.873 Y138.618 E15.04107
G1 X115.105 Y139.608 E15.08274
G1 X114.719 Y140.041 E15.10203
G1 X114.464 Y140.269 E15.11341
G1 X113.738 Y140.87 E15.14476
G1 X113.268 Y141.208 E15.16401
G1 X112.968 Y141.377 E15.17546
G1 X111.852 Y141.946 E15.21713
G1 X111.319 Y142.173 E15.2364
G1 X110.987 Y142.272 E15.24792
G1 X110.074 Y142.506 E15.27927
G1 X109.504 Y142.611 E15.29854
G1 X109.165 Y142.636 E15.30985
G1 X107.914 Y142.676 E15.35148
G1 X107.335 Y142.654 E15.37075
G1 X106.991 Y142.603 E15.38232
G1 X106.066 Y142.426 E15.41364
G1 X105.506 Y142.278 E15.43291
G1 X105.186 Y142.155 E15.44431
G1 X104.036 Y141.657 E15.48599
G1 X103.522 Y141.391 E15.50524
G1 X103.13 Y141.121 E15.52107
G1 X102.139 Y140.352 E15.56279
G1 X101.707 Y139.966 E15.58206
G1 X101.395 Y139.608 E15.59786
G1 X100.627 Y138.618 E15.63953
G1 X100.305 Y138.137 E15.65878
G1 X100.091 Y137.711 E15.67464
G1 X99.594 Y136.562 E15.71628
G1 X99.401 Y136.016 E15.73554
G1 X99.324 Y135.684 E15.74687
G1 X99.147 Y134.759 E15.7782
G1 X99.072 Y133.978 E15.80429
G1 X99.058 Y126.667 E16.04746
G1 X98.84 Y126.665 E16.05471
G1 X98.263 Y126.62 E16.07396
G1 X97.571 Y126.458 E16.0976
G1 X97.096 Y126.303 E16.11421
G1 X96.559 Y126.086 E16.13348
G1 X96.151 Y125.858 E16.14902
G1 X95.728 Y125.59 E16.16568
G1 X95.261 Y125.247 E16.18495
G1 X94.911 Y124.914 E16.20102
G1 X94.568 Y124.548 E16.2177
G1 X94.202 Y124.099 E16.23697
G1 X93.954 Y123.702 E16.25254
G1 X93.71 Y123.259 E16.26936
G1 X93.466 Y122.734 E16.28861
G1 X93.247 Y121.928 E16.31639
G1 X93.124 Y121.195 E16.34111
G1 X93.066 Y120.502 E16.36424
G1 X93.05 Y92.502 E17.29553
G1 X93.09 Y91.924 E17.3148
G1 X93.208 Y91.357 E17.33406
G1 X93.404 Y90.812 E17.35332
G1 X93.673 Y90.299 E17.37259
G1 X94.01 Y89.828 E17.39185
G1 X94.408 Y89.407 E17.41112
G1 X94.861 Y89.046 E17.43039
G1 X95.359 Y88.75 E17.44966
G1 X95.893 Y88.525 E17.46893
G1 X96.453 Y88.376 E17.4882
G1 X97.05 Y88.319 E17.50815
G1 X97.05 Y82.4 E17.70502
G1 X97.09 Y81.822 E17.72429
G1 X97.209 Y81.255 E17.74356
G1 X97.405 Y80.71 E17.76282
G1 X97.674 Y80.197 E17.78208
G1 X98.011 Y79.726 E17.80135
G0 F3000 X98.073 Y80.316
G1 F1500 X98.407 Y79.878 E17.81967
G1 X98.802 Y79.494 E17.83799
G1 X99.248 Y79.17 E17.85633
G1 X99.736 Y78.915 E17.87464
G1 X100.256 Y78.732 E17.89297
G1 X100.797 Y78.627 E17.9113
G1 X101.25 Y78.6 E17.9264
G1 X122.75 Y78.599 E18.64149
G1 X123.299 Y78.639 E18.6598
G1 X123.837 Y78.758 E18.67812
G1 X124.353 Y78.953 E18.69647
G1 X124.834 Y79.221 E18.71479
G1 X125.272 Y79.556 E18.73313
G1 X125.656 Y79.951 E18.75145
G1 X125.98 Y80.397 E18.76978
G1 X126.235 Y80.885 E18.7881
G1 X126.418 Y81.405 E18.80643
G1 X126.523 Y81.946 E18.82476
G1 X126.55 Y82.399 E18.83985
G1 X126.55 Y93.5 E19.20908
G1 X126.51 Y94.05 E19.22742
G1 X126.391 Y94.588 E19.24574
G1 X126.195 Y95.103 E19.26407
G1 X125.927 Y95.584 E19.28238
G1 X125.593 Y96.022 E19.30071
G1 X125.198 Y96.406 E19.31903
G1 X124.752 Y96.73 E19.33736
G1 X124.264 Y96.985 E19.35568
G1 X123.744 Y97.168 E19.37401
G1 X123.203 Y97.273 E19.39234
G1 X123.05 Y97.282 E19.39744
G1 X123.05 Y120.499 E20.16964
G1 X123.021 Y120.97 E20.18533
G1 X122.959 Y121.466 E20.20196
G1 X122.851 Y122.007 E20.22031
G1 X122.724 Y122.387 E20.23363
G1 X122.539 Y122.857 E20.25043
G1 X122.3 Y123.354 E20.26878
G1 X122.075 Y123.702 E20.28256
G1 X121.78 Y124.107 E20.29922
G1 X121.424 Y124.528 E20.31756
G1 X121.129 Y124.799 E20.33089
G1 X120.743 Y125.118 E20.34754
G1 X120.294 Y125.437 E20.36586
G1 X119.936 Y125.629 E20.37937
G1 X119.484 Y125.841 E20.39598
G1 X118.969 Y126.039 E20.41433
G1 X118.398 Y126.164 E20.43377
G1 X117.778 Y126.251 E20.45459
G1 X117.261 Y126.288 E20.47183
G1 X117.043 Y126.289 E20.47908
G1 X117.028 Y133.977 E20.73479
G1 X116.96 Y134.684 E20.75841
G1 X116.783 Y135.609 E20.78973
G1 X116.641 Y136.141 E20.80805
G1 X116.539 Y136.404 E20.81743
G1 X116.042 Y137.553 E20.85907
G1 X115.787 Y138.041 E20.87738
G1 X115.556 Y138.373 E20.89083
G1 X114.788 Y139.363 E20.93251
G1 X114.42 Y139.773 E20.95083
G1 X114.209 Y139.961 E20.96023
G1 X113.483 Y140.562 E20.99158
G1 X113.034 Y140.882 E21.00992
G1 X112.786 Y141.02 E21.01936
G1 X111.67 Y141.589 E21.06102
G1 X111.162 Y141.803 E21.07935
G1 X110.887 Y141.885 E21.0889
G1 X109.974 Y142.119 E21.12025
G1 X109.432 Y142.217 E21.13857
G1 X109.152 Y142.236 E21.1479
G1 X107.901 Y142.276 E21.18953
G1 X107.351 Y142.254 E21.20784
G1 X107.066 Y142.21 E21.21743
G1 X106.141 Y142.033 E21.24875
G1 X105.609 Y141.891 E21.26707
G1 X105.345 Y141.788 E21.27649
G1 X104.195 Y141.29 E21.31817
G1 X103.707 Y141.035 E21.33649
G1 X103.375 Y140.805 E21.34992
G1 X102.384 Y140.036 E21.39164
G1 X101.975 Y139.668 E21.40994
G1 X101.712 Y139.363 E21.42334
G1 X100.944 Y138.373 E21.46501
G1 X100.638 Y137.914 E21.48336
G1 X100.458 Y137.553 E21.49677
G1 X99.961 Y136.404 E21.53841
G1 X99.78 Y135.883 E21.55676
G1 X99.717 Y135.609 E21.56611
G1 X99.54 Y134.684 E21.59743
G1 X99.472 Y133.977 E21.62105
G1 X99.457 Y126.27 E21.87739
G1 X98.844 Y126.265 E21.89778
G1 X98.294 Y126.221 E21.91613
G1 X97.695 Y126.078 E21.93661
G1 X97.22 Y125.923 E21.95323
G1 X96.71 Y125.714 E21.97156
G1 X96.365 Y125.52 E21.98473
G1 X95.942 Y125.252 E22.00138
G1 X95.499 Y124.924 E22.01972
G1 X95.203 Y124.64 E22.03336
G1 X94.86 Y124.274 E22.05004
G1 X94.514 Y123.846 E22.06835
G1 X94.304 Y123.509 E22.08156
G1 X94.06 Y123.066 E22.09838
G1 X93.83 Y122.566 E22.11668
G1 X93.641 Y121.862 E22.14093
G1 X93.518 Y121.129 E22.16565
G1 X93.466 Y120.502 E22.18657
G1 X93.45 Y92.502 E23.11786
G1 X93.49 Y91.953 E23.13617
G1 X93.608 Y91.415 E23.15448
G1 X93.804 Y90.899 E23.17284
G1 X94.071 Y90.418 E23.19114
G1 X94.406 Y89.98 E23.20948
G1 X94.8 Y89.595 E23.2278
G1 X95.246 Y89.271 E23.24614
G1 X95.734 Y89.015 E23.26447
G1 X96.254 Y88.833 E23.28279
G1 X96.795 Y88.727 E23.30113
G1 X97.25 Y88.7 E23.31629
G1 X97.45 Y88.7 E23.32294
G1 X97.45 Y82.4 E23.53248
G1 X97.49 Y81.85 E23.55082
G1 X97.609 Y81.312 E23.56915
G1 X97.805 Y80.797 E23.58747
G1 X98.073 Y80.316 E23.60579
G0 F3000 X98.47 Y80.442
G1 F1500 X98.802 Y80.04 E23.62313
G1 X99.192 Y79.694 E23.64047
G1 X99.63 Y79.411 E23.65781
G1 X100.105 Y79.198 E23.67513
G1 X100.608 Y79.061 E23.69247
