;FLAVOR:Marlin
;TIME:10049
;Filament used: 7.27064m
;Layer height: 0.2
;Generated with Cura_SteamEngine 3.1.0
M190 S70
M104 S240
M109 S240
M82 ; absolute extrusion mode
G28 X0 Y0  ;move X/Y to min endstops
G28 Z0     ;move Z to min endstops
G1 Z15 F5000 ; lift nozzle
G92 E0
G1 F200 E3
G92 E0
;LAYER_COUNT:126
;LAYER:0
M107
G0 F3000 X92.152 Y68.635 Z0.2
;TYPE:SKIRT
G1 F1500 X92.547 Y68.141 E0.02104
G1 X93 Y67.7 E0.04206
G1 X93.505 Y67.321 E0.06307
G1 X94.055 Y67.008 E0.08411
G1 X94.639 Y66.767 E0.10513
G1 X95.249 Y66.601 E0.12615
G1 X95.875 Y66.514 E0.14717
G1 X96.25 Y66.5 E0.15965
G1 X118.019 Y66.5 E0.88369
G1 X122.379 Y63.417 E1.0613
G1 X122.918 Y63.086 E1.08234
G1 X123.493 Y62.825 E1.10334
G1 X124.097 Y62.638 E1.12437
G1 X124.72 Y62.53 E1.1454
G1 X125.266 Y62.5 E1.16359
G1 X132.6 Y62.5 E1.40752
G1 X133.231 Y62.54 E1.42855
G1 X133.852 Y62.659 E1.44958
G1 X134.452 Y62.856 E1.47058
G1 X135.024 Y63.127 E1.49163
G1 X135.556 Y63.467 E1.51263
G1 X136.041 Y63.873 E1.53367
G1 X136.471 Y64.336 E1.55469
G1 X136.84 Y64.85 E1.57573
G1 X137.14 Y65.406 E1.59674
G1 X137.368 Y65.995 E1.61775
G1 X137.52 Y66.609 E1.63879
G1 X137.6 Y67.5 E1.66854
G1 X137.6 Y73.3 E1.86145
G1 X137.56 Y73.931 E1.88248
G1 X137.441 Y74.552 E1.90351
G1 X137.244 Y75.152 E1.92452
G1 X136.973 Y75.724 E1.94557
G1 X136.633 Y76.256 E1.96657
G1 X136.227 Y76.741 E1.9876
G1 X135.764 Y77.171 E2.00862
G1 X135.25 Y77.54 E2.02967
G1 X134.694 Y77.84 E2.05068
G1 X134.105 Y78.068 E2.07168
G1 X133.491 Y78.22 E2.09272
G1 X132.6 Y78.3 E2.12248
G1 X131.5 Y78.3 E2.15906
G1 X131.5 Y84 E2.34865
G1 X133.95 Y84 E2.43013
G1 X134.581 Y84.04 E2.45116
G1 X135.202 Y84.159 E2.47219
G1 X135.802 Y84.356 E2.4932
G1 X136.374 Y84.627 E2.51425
G1 X136.906 Y84.967 E2.53525
G1 X137.391 Y85.373 E2.55629
G1 X137.821 Y85.836 E2.5773
G1 X138.19 Y86.35 E2.59835
G1 X138.49 Y86.906 E2.61936
G1 X138.718 Y87.495 E2.64037
G1 X138.87 Y88.109 E2.6614
G1 X138.95 Y89 E2.69116
G1 X138.95 Y91 E2.75768
G1 X138.91 Y91.631 E2.77871
G1 X138.791 Y92.252 E2.79974
G1 X138.626 Y92.756 E2.81738
G1 X138.718 Y92.995 E2.82589
G1 X138.87 Y93.609 E2.84693
G1 X138.95 Y94.5 E2.87669
G1 X138.95 Y102.787 E3.15231
G1 X139.014 Y103.5 E3.17612
G1 X139.013 Y151.987 E4.78881
G1 X138.973 Y152.618 E4.80984
G1 X138.854 Y153.239 E4.83087
G1 X138.657 Y153.84 E4.8519
G1 X138.386 Y154.411 E4.87293
G1 X138.046 Y154.943 E4.89392
G1 X137.549 Y155.523 E4.91933
G1 X133.036 Y160.036 E5.13161
G1 X132.561 Y160.453 E5.15263
G1 X132.038 Y160.808 E5.17365
G1 X131.474 Y161.094 E5.19469
G1 X130.879 Y161.306 E5.21569
G1 X130.261 Y161.442 E5.23674
G1 X129.5 Y161.5 E5.26213
G1 X107.5 Y161.5 E5.99385
G1 X106.869 Y161.46 E6.01488
G1 X106.248 Y161.341 E6.03591
G1 X105.648 Y161.144 E6.05691
G1 X105.076 Y160.873 E6.07796
G1 X104.544 Y160.533 E6.09896
G1 X104.059 Y160.127 E6.12
G1 X103.629 Y159.664 E6.14102
G1 X103.26 Y159.15 E6.16206
G1 X102.96 Y158.594 E6.18307
G1 X102.732 Y158.005 E6.20408
G1 X102.58 Y157.391 E6.22512
G1 X102.5 Y156.5 E6.25487
G1 X102.5 Y145.5 E6.62074
G1 X86.023 Y145.5 E7.16876
G1 X85.392 Y145.46 E7.18979
G1 X84.771 Y145.341 E7.21082
G1 X84.171 Y145.144 E7.23183
G1 X83.599 Y144.873 E7.25288
G1 X83.067 Y144.533 E7.27388
G1 X82.582 Y144.127 E7.29491
G1 X82.152 Y143.664 E7.31593
G1 X81.783 Y143.15 E7.33698
G1 X81.483 Y142.594 E7.35799
G1 X81.255 Y142.005 E7.379
G1 X81.103 Y141.391 E7.40003
G1 X81.023 Y140.5 E7.42979
G1 X81.024 Y103.5 E8.66041
G1 X81.064 Y102.869 E8.68144
G1 X81.183 Y102.248 E8.70247
G1 X81.38 Y101.647 E8.72351
G1 X81.651 Y101.076 E8.74453
G1 X81.991 Y100.544 E8.76553
G1 X82.397 Y100.059 E8.78657
G1 X82.86 Y99.628 E8.80761
G1 X83.374 Y99.26 E8.82863
G1 X83.421 Y99.235 E8.8304
G1 X83.36 Y99.15 E8.83388
G1 X83.06 Y98.594 E8.85489
G1 X82.832 Y98.005 E8.8759
G1 X82.68 Y97.391 E8.89694
G1 X82.6 Y96.5 E8.92669
G1 X82.6 Y94.5 E8.99321
G1 X82.64 Y93.869 E9.01424
G1 X82.759 Y93.248 E9.03527
G1 X82.924 Y92.744 E9.05291
G1 X82.832 Y92.505 E9.06143
G1 X82.68 Y91.891 E9.08247
G1 X82.6 Y91 E9.11222
G1 X82.6 Y89 E9.17874
G1 X82.64 Y88.369 E9.19977
G1 X82.759 Y87.748 E9.2208
G1 X82.956 Y87.148 E9.24181
G1 X83.227 Y86.576 E9.26286
G1 X83.567 Y86.044 E9.28386
G1 X83.973 Y85.559 E9.30489
G1 X84.436 Y85.129 E9.32591
G1 X84.95 Y84.76 E9.34696
G1 X85.506 Y84.46 E9.36797
G1 X86.095 Y84.232 E9.38898
G1 X86.709 Y84.08 E9.41001
G1 X87.6 Y84 E9.43977
G1 X88.5 Y84 E9.4697
G1 X88.5 Y75.433 E9.75464
G1 X88.54 Y74.802 E9.77567
G1 X88.659 Y74.181 E9.7967
G1 X88.856 Y73.581 E9.8177
G1 X89.127 Y73.009 E9.83876
G1 X89.402 Y72.568 E9.85604
G1 X92.152 Y68.635 E10.01566
G0 F3000 X92.48 Y68.864
G1 F1500 X92.86 Y68.391 E10.03584
G1 X93.298 Y67.972 E10.056
G1 X93.787 Y67.615 E10.07614
G1 X94.32 Y67.325 E10.09632
G1 X94.886 Y67.107 E10.11649
G1 X95.475 Y66.966 E10.13664
G1 X96.25 Y66.9 E10.16251
G1 X118.147 Y66.9 E10.8908
G1 X122.61 Y63.744 E11.07261
G1 X123.127 Y63.427 E11.09278
G1 X123.682 Y63.182 E11.11296
G1 X124.263 Y63.011 E11.1331
G1 X124.862 Y62.918 E11.15326
G1 X125.266 Y62.9 E11.16671
G1 X132.6 Y62.9 E11.41064
G1 X133.205 Y62.94 E11.43081
G1 X133.799 Y63.059 E11.45096
G1 X134.373 Y63.255 E11.47113
G1 X134.916 Y63.526 E11.49132
G1 X135.419 Y63.865 E11.51149
G1 X135.872 Y64.267 E11.53163
G1 X136.269 Y64.725 E11.55179
G1 X136.602 Y65.232 E11.57197
G1 X136.866 Y65.778 E11.59214
G1 X137.055 Y66.354 E11.6123
G1 X137.167 Y66.95 E11.63247
G1 X137.2 Y67.5 E11.6508
G1 X137.2 Y73.3 E11.84371
G1 X137.16 Y73.905 E11.86387
G1 X137.041 Y74.499 E11.88402
G1 X136.845 Y75.073 E11.9042
G1 X136.574 Y75.616 E11.92438
G1 X136.235 Y76.119 E11.94456
G1 X135.833 Y76.572 E11.9647
G1 X135.375 Y76.969 E11.98486
G1 X134.868 Y77.302 E12.00503
G1 X134.322 Y77.566 E12.02521
G1 X133.746 Y77.755 E12.04537
G1 X133.15 Y77.867 E12.06554
G1 X132.6 Y77.9 E12.08386
G1 X131.1 Y77.9 E12.13375
G1 X131.1 Y84.4 E12.34995
G1 X133.95 Y84.4 E12.44474
G1 X134.555 Y84.44 E12.4649
G1 X135.149 Y84.559 E12.48505
G1 X135.723 Y84.755 E12.50523
G1 X136.266 Y85.026 E12.52541
G1 X136.769 Y85.365 E12.54559
G1 X137.222 Y85.767 E12.56573
G1 X137.619 Y86.225 E12.58589
G1 X137.952 Y86.732 E12.60606
G1 X138.216 Y87.278 E12.62624
G1 X138.405 Y87.854 E12.6464
G1 X138.517 Y88.45 E12.66657
G1 X138.55 Y89 E12.68489
G1 X138.55 Y91 E12.75141
G1 X138.51 Y91.605 E12.77158
G1 X138.391 Y92.199 E12.79173
G1 X138.203 Y92.75 E12.81109
G1 X138.216 Y92.778 E12.81212
G1 X138.405 Y93.354 E12.83228
G1 X138.517 Y93.95 E12.85245
G1 X138.55 Y94.5 E12.87078
G1 X138.55 Y102.785 E13.14634
G1 X138.581 Y102.95 E13.15192
G1 X138.614 Y103.5 E13.17025
G1 X138.613 Y151.987 E14.78293
G1 X138.573 Y152.592 E14.8031
G1 X138.454 Y153.187 E14.82328
G1 X138.258 Y153.76 E14.84342
G1 X137.987 Y154.303 E14.86361
G1 X137.648 Y154.806 E14.88378
G1 X137.266 Y155.24 E14.90301
G1 X132.753 Y159.753 E15.11529
G1 X132.297 Y160.152 E15.13544
G1 X131.792 Y160.488 E15.15562
G1 X131.248 Y160.755 E15.17577
G1 X130.673 Y160.948 E15.19595
G1 X130.078 Y161.064 E15.21611
G1 X129.5 Y161.1 E15.23537
G1 X107.5 Y161.1 E15.96709
G1 X106.895 Y161.06 E15.98726
G1 X106.301 Y160.941 E16.00741
G1 X105.727 Y160.745 E16.02758
G1 X105.184 Y160.474 E16.04777
G1 X104.681 Y160.135 E16.06794
G1 X104.228 Y159.733 E16.08809
G1 X103.831 Y159.275 E16.10824
G1 X103.498 Y158.768 E16.12842
G1 X103.234 Y158.222 E16.14859
G1 X103.045 Y157.646 E16.16875
G1 X102.933 Y157.05 E16.18892
G1 X102.9 Y156.5 E16.20725
G1 X102.9 Y145.1 E16.58642
G1 X86.023 Y145.1 E17.14775
G1 X85.418 Y145.06 E17.16791
G1 X84.824 Y144.941 E17.18806
G1 X84.25 Y144.745 E17.20824
G1 X83.707 Y144.474 E17.22842
G1 X83.204 Y144.135 E17.2486
G1 X82.751 Y143.733 E17.26874
G1 X82.354 Y143.275 E17.2889
G1 X82.021 Y142.768 E17.30907
G1 X81.757 Y142.222 E17.32924
G1 X81.568 Y141.646 E17.34941
G1 X81.456 Y141.05 E17.36958
G1 X81.423 Y140.5 E17.3879
G1 X81.424 Y103.5 E18.61853
G1 X81.464 Y102.895 E18.63869
G1 X81.583 Y102.3 E18.65888
G1 X81.78 Y101.727 E18.67903
G1 X82.05 Y101.184 E18.6992
G1 X82.389 Y100.681 E18.71937
G1 X82.791 Y100.228 E18.73952
G1 X83.249 Y99.831 E18.75968
G1 X83.756 Y99.498 E18.77985
G1 X84.016 Y99.373 E18.78945
G1 X83.931 Y99.275 E18.79376
G1 X83.598 Y98.768 E18.81394
G1 X83.334 Y98.222 E18.83411
G1 X83.145 Y97.646 E18.85427
G1 X83.033 Y97.05 E18.87444
G1 X83 Y96.5 E18.89277
G1 X83 Y94.5 E18.95929
G1 X83.04 Y93.895 E18.97945
G1 X83.159 Y93.301 E18.9996
G1 X83.347 Y92.75 E19.01897
G1 X83.334 Y92.722 E19.01999
G1 X83.145 Y92.146 E19.04016
G1 X83.033 Y91.55 E19.06033
G1 X83 Y91 E19.07865
G1 X83 Y89 E19.14517
G1 X83.04 Y88.395 E19.16534
G1 X83.159 Y87.801 E19.18549
G1 X83.355 Y87.227 E19.20566
G1 X83.626 Y86.684 E19.22585
G1 X83.965 Y86.181 E19.24602
G1 X84.367 Y85.728 E19.26616
G1 X84.825 Y85.331 E19.28632
G1 X85.332 Y84.998 E19.3065
G1 X85.878 Y84.734 E19.32667
G1 X86.454 Y84.545 E19.34683
G1 X87.05 Y84.433 E19.367
G1 X87.6 Y84.4 E19.38533
G1 X88.9 Y84.4 E19.42857
G1 X88.9 Y75.433 E19.72681
G1 X88.94 Y74.828 E19.74698
G1 X89.059 Y74.234 E19.76713
G1 X89.255 Y73.66 E19.7873
G1 X89.526 Y73.117 E19.80748
G1 X89.73 Y72.797 E19.82011
G1 X92.48 Y68.864 E19.97972
G0 F3000 X92.808 Y69.093
G1 F1500 X93.172 Y68.643 E19.99897
G1 X93.594 Y68.246 E20.01825
G1 X94.067 Y67.912 E20.0375
G1 X94.582 Y67.645 E20.0568
G1 X95.128 Y67.453 E20.07605
G1 X95.696 Y67.337 E20.09533
G1 X96.25 Y67.3 E20.1138
G1 X118.274 Y67.3 E20.84632
G1 X122.841 Y64.071 E21.03235
G1 X123.336 Y63.77 E21.05162
G1 X123.868 Y63.54 E21.0709
G1 X124.426 Y63.385 E21.09016
G1 X125.266 Y63.3 E21.11824
G1 X132.6 Y63.3 E21.36217
G1 X133.178 Y63.34 E21.38144
G1 X133.745 Y63.459 E21.40071
G1 X134.29 Y63.655 E21.41997
G1 X134.803 Y63.924 E21.43924
G1 X135.274 Y64.261 E21.4585
G1 X135.694 Y64.66 E21.47777
G1 X136.056 Y65.113 E21.49705
G1 X136.351 Y65.611 E21.51631
G1 X136.576 Y66.145 E21.53558
G1 X136.724 Y66.705 E21.55484
G1 X136.8 Y67.5 E21.58141
G1 X136.8 Y73.3 E21.77432
G1 X136.76 Y73.878 E21.79359
G1 X136.641 Y74.445 E21.81285
G1 X136.445 Y74.99 E21.83212
G1 X136.176 Y75.503 E21.85138
G1 X135.839 Y75.974 E21.87065
G1 X135.44 Y76.394 E21.88991
G1 X134.987 Y76.756 E21.9092
G1 X134.489 Y77.051 E21.92845
G1 X133.955 Y77.276 E21.94773
G1 X133.395 Y77.424 E21.96699
G1 X132.6 Y77.5 E21.99355
G1 X130.7 Y77.5 E22.05675
G1 X130.7 Y84.8 E22.29955
G1 X133.95 Y84.8 E22.40764
G1 X134.528 Y84.84 E22.42691
G1 X135.095 Y84.959 E22.44618
G1 X135.64 Y85.155 E22.46545
G1 X136.153 Y85.424 E22.48471
G1 X136.624 Y85.761 E22.50397
G1 X137.044 Y86.16 E22.52324
G1 X137.406 Y86.613 E22.54253
G1 X137.701 Y87.111 E22.56178
G1 X137.926 Y87.645 E22.58105
G1 X138.074 Y88.205 E22.60032
G1 X138.15 Y89 E22.62688
G1 X138.15 Y91 E22.6934
G1 X138.11 Y91.578 E22.71267
G1 X137.991 Y92.145 E22.73194
G1 X137.795 Y92.69 E22.7512
G1 X137.761 Y92.754 E22.75361
G1 X137.926 Y93.145 E22.76773
G1 X138.074 Y93.705 E22.78699
G1 X138.15 Y94.5 E22.81356
G1 X138.15 Y102.831 E23.09065
G1 X138.214 Y103.5 E23.113
G1 X138.213 Y151.987 E24.72568
G1 X138.173 Y152.565 E24.74495
G1 X138.054 Y153.132 E24.76422
G1 X137.858 Y153.677 E24.78349
G1 X137.589 Y154.19 E24.80275
G1 X137.252 Y154.661 E24.82202
G1 X136.983 Y154.957 E24.83532
G1 X132.47 Y159.47 E25.0476
G1 X132.033 Y159.85 E25.06686
G1 X131.548 Y160.167 E25.08613
G1 X131.024 Y160.414 E25.1054
G1 X130.471 Y160.586 E25.12466
G1 X129.899 Y160.681 E25.14394
G1 X129.5 Y160.7 E25.15723
G1 X107.5 Y160.7 E25.88895
G1 X106.922 Y160.66 E25.90822
G1 X106.355 Y160.541 E25.92749
G1 X105.81 Y160.345 E25.94676
G1 X105.297 Y160.076 E25.96602
G1 X104.826 Y159.739 E25.98528
G1 X104.406 Y159.34 E26.00455
G1 X104.044 Y158.887 E26.02384
G1 X103.749 Y158.389 E26.04309
G1 X103.524 Y157.855 E26.06236
G1 X103.376 Y157.295 E26.08163
G1 X103.3 Y156.5 E26.10819
G1 X103.3 Y144.7 E26.50066
G1 X86.023 Y144.7 E27.0753
G1 X85.445 Y144.66 E27.09457
G1 X84.878 Y144.541 E27.11384
G1 X84.333 Y144.345 E27.1331
G1 X83.82 Y144.076 E27.15236
G1 X83.349 Y143.739 E27.17163
G1 X82.929 Y143.34 E27.19089
G1 X82.567 Y142.887 E27.21018
G1 X82.272 Y142.389 E27.22943
G1 X82.047 Y141.855 E27.24871
G1 X81.899 Y141.295 E27.26797
G1 X81.823 Y140.5 E27.29453
G1 X81.824 Y103.5 E28.52516
G1 X81.864 Y102.922 E28.54443
G1 X81.983 Y102.355 E28.5637
G1 X82.179 Y101.81 E28.58296
G1 X82.448 Y101.297 E28.60223
G1 X82.785 Y100.826 E28.62149
G1 X83.184 Y100.406 E28.64076
G1 X83.637 Y100.044 E28.66004
G1 X84.135 Y99.749 E28.6793
G1 X84.669 Y99.524 E28.69857
G1 X84.693 Y99.518 E28.69939
G1 X84.506 Y99.34 E28.70798
G1 X84.144 Y98.887 E28.72727
G1 X83.849 Y98.389 E28.74652
G1 X83.624 Y97.855 E28.76579
G1 X83.476 Y97.295 E28.78506
G1 X83.4 Y96.5 E28.81162
G1 X83.4 Y94.5 E28.87814
G1 X83.44 Y93.922 E28.89741
G1 X83.559 Y93.355 E28.91668
G1 X83.755 Y92.81 E28.93594
G1 X83.789 Y92.746 E28.93835
G1 X83.624 Y92.355 E28.95247
G1 X83.476 Y91.795 E28.97173
G1 X83.4 Y91 E28.99829
G1 X83.4 Y89 E29.06481
G1 X83.44 Y88.422 E29.08408
G1 X83.559 Y87.855 E29.10335
G1 X83.755 Y87.31 E29.12262
G1 X84.024 Y86.797 E29.14188
G1 X84.361 Y86.326 E29.16115
G1 X84.76 Y85.906 E29.18041
G1 X85.213 Y85.544 E29.1997
G1 X85.711 Y85.249 E29.21895
G1 X86.245 Y85.024 E29.23823
G1 X86.805 Y84.876 E29.25749
G1 X87.6 Y84.8 E29.28405
G1 X89.3 Y84.8 E29.3406
G1 X89.3 Y75.433 E29.65214
G1 X89.34 Y74.855 E29.67141
G1 X89.459 Y74.288 E29.69068
G1 X89.655 Y73.743 E29.70995
G1 X90.058 Y73.026 E29.7373
G1 X92.808 Y69.093 E29.89692
G0 F3000 X93.136 Y69.322
G1 F1500 X93.483 Y68.895 E29.91522
G1 X93.889 Y68.522 E29.93356
G1 X94.345 Y68.212 E29.9519
G1 X94.84 Y67.971 E29.97021
G1 X95.365 Y67.804 E29.98853
G1 X95.909 Y67.715 E30.00687
G1 X96.25 Y67.7 E30.01822
G1 X118.401 Y67.7 E30.75496
G1 X123.072 Y64.397 E30.94524
G1 X123.544 Y64.113 E30.96356
G1 X124.052 Y63.899 E30.9819
G1 X124.585 Y63.761 E31.00021
G1 X125.266 Y63.7 E31.02295
G1 X132.6 Y63.7 E31.26688
G1 X133.15 Y63.74 E31.28522
G1 X133.688 Y63.859 E31.30355
G1 X134.203 Y64.055 E31.32187
G1 X134.684 Y64.323 E31.34019
G1 X135.122 Y64.657 E31.35851
G1 X135.506 Y65.052 E31.37683
G1 X135.83 Y65.498 E31.39517
G1 X136.085 Y65.986 E31.41348
G1 X136.268 Y66.506 E31.43181
G1 X136.373 Y67.047 E31.45014
G1 X136.4 Y67.5 E31.46524
G1 X136.4 Y73.3 E31.65815
G1 X136.36 Y73.85 E31.67649
G1 X136.241 Y74.388 E31.69481
G1 X136.045 Y74.903 E31.71314
G1 X135.777 Y75.384 E31.73145
G1 X135.443 Y75.822 E31.74978
G1 X135.048 Y76.206 E31.7681
G1 X134.602 Y76.53 E31.78643
G1 X134.114 Y76.785 E31.80475
G1 X133.594 Y76.968 E31.82308
G1 X133.053 Y77.073 E31.84141
G1 X132.6 Y77.1 E31.8565
G1 X130.3 Y77.1 E31.933
G1 X130.3 Y85.2 E32.20241
G1 X133.95 Y85.2 E32.32381
G1 X134.5 Y85.24 E32.34215
G1 X135.038 Y85.359 E32.36048
G1 X135.553 Y85.555 E32.3788
G1 X136.034 Y85.823 E32.39712
G1 X136.472 Y86.157 E32.41544
G1 X136.856 Y86.552 E32.43376
G1 X137.18 Y86.998 E32.4521
G1 X137.435 Y87.486 E32.47041
G1 X137.618 Y88.006 E32.48874
G1 X137.723 Y88.547 E32.50707
G1 X137.75 Y89 E32.52217
G1 X137.75 Y91 E32.58869
G1 X137.71 Y91.55 E32.60703
G1 X137.591 Y92.088 E32.62536
G1 X137.395 Y92.603 E32.64368
G1 X137.312 Y92.751 E32.64933
G1 X137.435 Y92.986 E32.65815
G1 X137.618 Y93.506 E32.67648
G1 X137.723 Y94.047 E32.69481
G1 X137.75 Y94.5 E32.70991
G1 X137.75 Y102.856 E32.98783
G1 X137.787 Y103.047 E32.9943
G1 X137.814 Y103.5 E33.00939
G1 X137.813 Y151.987 E34.62208
G1 X137.773 Y152.537 E34.64042
G1 X137.654 Y153.075 E34.65875
G1 X137.458 Y153.59 E34.67707
G1 X137.19 Y154.071 E34.69539
G1 X136.7 Y154.674 E34.72123
G1 X132.187 Y159.187 E34.93351
G1 X131.77 Y159.547 E34.95183
G1 X131.306 Y159.844 E34.97015
G1 X130.803 Y160.07 E34.98849
G1 X130.273 Y160.221 E35.00682
G1 X129.5 Y160.3 E35.03267
G1 X107.5 Y160.3 E35.76439
G1 X106.95 Y160.26 E35.78273
G1 X106.412 Y160.141 E35.80106
G1 X105.897 Y159.945 E35.81939
