;FLAVOR:Marlin
;TIME:8989
;Filament used: 7.23239m
;Layer height: 0.2
;Generated with Cura_SteamEngine 3.1.0
M190 S70
M104 S240
M109 S240
M82 ; absolute extrusion mode
G28 X0 Y0  ;move X/Y to min endstops
G28 Z0     ;move Z to min endstops
G1 Z15 F5000 ; lift nozzle
G92 E0
G1 F200 E3
G92 E0
;LAYER_COUNT:126
;LAYER:0
M107
G0 F3000 X92.971 Y69.224 Z0.2
;TYPE:SKIRT
G1 F1500 X93.328 Y68.785 E0.01882
G1 X93.743 Y68.401 E0.03763
G1 X94.207 Y68.079 E0.05641
G1 X94.713 Y67.826 E0.07523
G1 X95.249 Y67.647 E0.09402
G1 X95.805 Y67.545 E0.11282
G1 X96.138 Y67.522 E0.12392
G1 X102.726 Y67.344 E0.34312
G1 X108.14 Y66.884 E0.52384
G1 X113.507 Y66.119 E0.70415
G1 X118.854 Y65.047 E0.88553
G1 X121.437 Y64.413 E0.97399
G1 X124.212 Y63.652 E1.0697
G1 X124.766 Y63.542 E1.08849
G1 X125.27 Y63.51 E1.10528
G1 X132.591 Y63.51 E1.34878
G1 X133.155 Y63.55 E1.36759
G1 X133.708 Y63.669 E1.3864
G1 X134.238 Y63.865 E1.40519
G1 X134.735 Y64.133 E1.42397
G1 X135.19 Y64.469 E1.44279
G1 X135.593 Y64.866 E1.4616
G1 X135.935 Y65.316 E1.4804
G1 X136.211 Y65.809 E1.49919
G1 X136.415 Y66.337 E1.51802
G1 X136.542 Y66.887 E1.53679
G1 X136.591 Y67.503 E1.55735
G1 X136.6 Y72.626 E1.72774
G1 X136.754 Y78.085 E1.90938
G1 X137.218 Y83.545 E2.09163
G1 X137.915 Y88.805 E2.26811
G1 X137.95 Y89.312 E2.28501
G1 X138.014 Y103.812 E2.76729
G1 X138.014 Y103.831 E2.76792
G1 X138.003 Y151.981 E4.3694
G1 X137.963 Y152.545 E4.3882
G1 X137.844 Y153.097 E4.40698
G1 X137.648 Y153.628 E4.42581
G1 X137.379 Y154.125 E4.44461
G1 X137.043 Y154.58 E4.46342
G1 X136.832 Y154.807 E4.47373
G1 X132.325 Y159.317 E4.68579
G1 X131.898 Y159.688 E4.70461
G1 X131.424 Y159.995 E4.72339
G1 X130.91 Y160.232 E4.74222
G1 X130.369 Y160.394 E4.761
G1 X129.81 Y160.478 E4.7798
G1 X129.496 Y160.49 E4.79025
G1 X107.505 Y160.49 E5.52168
G1 X106.941 Y160.45 E5.54048
G1 X106.388 Y160.331 E5.55929
G1 X105.858 Y160.135 E5.57809
G1 X105.361 Y159.867 E5.59687
G1 X104.746 Y159.386 E5.62284
G1 X102.983 Y157.706 E5.70384
G1 X98.881 Y154.103 E5.88543
G1 X94.596 Y150.747 E6.06645
G1 X90.16 Y147.66 E6.2462
G1 X83.965 Y143.918 E6.48692
G1 X83.503 Y143.592 E6.50573
G1 X83.091 Y143.204 E6.52455
G1 X82.739 Y142.763 E6.54332
G1 X82.452 Y142.275 E6.56215
G1 X82.236 Y141.753 E6.58094
G1 X82.097 Y141.205 E6.59974
G1 X82.033 Y140.494 E6.62349
G1 X82.034 Y103.503 E7.85381
G1 X82.081 Y102.889 E7.87429
G1 X82.893 Y97.656 E8.05043
G1 X83.43 Y92.252 E8.23105
G1 X83.623 Y88.768 E8.34711
G1 X83.694 Y88.207 E8.36591
G1 X83.844 Y87.662 E8.38471
G1 X84.009 Y87.263 E8.39908
G1 X87.141 Y80.716 E8.64046
G1 X89.947 Y73.719 E8.8912
G1 X90.194 Y73.211 E8.90999
G1 X90.385 Y72.911 E8.92182
G1 X92.971 Y69.224 E9.0716
G0 F3000 X93.299 Y69.454
G1 F1500 X93.638 Y69.039 E9.08943
G1 X94.036 Y68.679 E9.10728
G1 X94.483 Y68.382 E9.12513
G1 X94.969 Y68.155 E9.14297
G1 X95.483 Y68.003 E9.16079
G1 X96.149 Y67.922 E9.18311
G1 X102.753 Y67.744 E9.40284
G1 X108.176 Y67.283 E9.58386
G1 X113.57 Y66.514 E9.76508
G1 X118.959 Y65.434 E9.94788
G1 X121.532 Y64.802 E10.036
G1 X124.318 Y64.038 E10.13209
G1 X124.844 Y63.935 E10.14991
G1 X125.27 Y63.91 E10.16411
G1 X132.591 Y63.91 E10.4076
G1 X133.126 Y63.95 E10.42545
G1 X133.649 Y64.069 E10.44329
G1 X134.148 Y64.264 E10.46111
G1 X134.613 Y64.532 E10.47896
G1 X135.033 Y64.865 E10.49678
G1 X135.399 Y65.257 E10.51462
G1 X135.702 Y65.699 E10.53245
G1 X135.937 Y66.182 E10.55031
G1 X136.097 Y66.693 E10.56812
G1 X136.18 Y67.223 E10.58596
G1 X136.191 Y67.504 E10.59532
G1 X136.2 Y72.6 E10.76481
G1 X136.356 Y78.13 E10.94881
G1 X136.818 Y83.566 E11.13027
G1 X137.519 Y88.857 E11.30778
G1 X137.55 Y89.314 E11.32302
G1 X137.614 Y103.814 E11.80529
G1 X137.614 Y103.831 E11.80586
G1 X137.603 Y151.981 E13.40734
G1 X137.563 Y152.516 E13.42518
G1 X137.444 Y153.039 E13.44302
G1 X137.248 Y153.538 E13.46085
G1 X136.981 Y154.003 E13.47868
G1 X136.549 Y154.525 E13.50122
G1 X132.042 Y159.035 E13.71329
G1 X131.636 Y159.385 E13.73112
G1 X131.182 Y159.671 E13.74896
G1 X130.691 Y159.886 E13.76679
G1 X130.173 Y160.026 E13.78464
G1 X129.496 Y160.09 E13.80725
G1 X107.505 Y160.09 E14.53868
G1 X106.97 Y160.05 E14.55652
G1 X106.447 Y159.931 E14.57436
G1 X105.948 Y159.736 E14.59218
G1 X105.483 Y159.468 E14.61003
G1 X105.022 Y159.096 E14.62973
G1 X103.266 Y157.423 E14.7104
G1 X99.128 Y153.788 E14.89359
G1 X94.838 Y150.428 E15.07483
G1 X90.37 Y147.319 E15.25588
G1 X84.172 Y143.575 E15.49672
G1 X83.735 Y143.265 E15.51454
G1 X83.348 Y142.893 E15.53239
G1 X83.022 Y142.467 E15.55023
G1 X82.762 Y141.998 E15.56807
G1 X82.575 Y141.495 E15.58592
G1 X82.465 Y140.971 E15.60372
G1 X82.433 Y140.494 E15.61962
G1 X82.434 Y103.503 E16.84995
G1 X82.477 Y102.951 E16.86837
G1 X83.289 Y97.723 E17.04433
G1 X83.831 Y92.267 E17.22669
G1 X84.023 Y88.79 E17.34252
G1 X84.092 Y88.258 E17.36036
G1 X84.24 Y87.743 E17.37818
G1 X84.37 Y87.435 E17.3893
G1 X87.513 Y80.865 E17.63154
G1 X90.319 Y73.868 E17.88227
G1 X90.555 Y73.387 E17.90009
G1 X90.713 Y73.141 E17.90982
G1 X93.299 Y69.454 E18.05961
G0 F3000 X93.626 Y69.683
G1 F1500 X93.948 Y69.294 E18.0764
G1 X94.328 Y68.96 E18.09323
G1 X94.755 Y68.69 E18.11003
G1 X95.22 Y68.49 E18.12687
G1 X95.71 Y68.366 E18.14368
G1 X96.16 Y68.322 E18.15872
G1 X102.763 Y68.144 E18.37841
G1 X108.23 Y67.679 E18.5609
G1 X113.636 Y66.908 E18.74253
G1 X119.041 Y65.825 E18.92587
G1 X121.645 Y65.186 E19.01505
G1 X124.423 Y64.424 E19.11086
G1 X124.92 Y64.329 E19.12769
G1 X125.27 Y64.31 E19.13935
G1 X132.591 Y64.31 E19.38284
G1 X133.095 Y64.35 E19.39966
G1 X133.586 Y64.469 E19.41646
G1 X134.053 Y64.663 E19.43328
G1 X134.483 Y64.929 E19.4501
G1 X134.866 Y65.259 E19.46692
G1 X135.192 Y65.646 E19.48374
G1 X135.453 Y66.079 E19.50056
G1 X135.643 Y66.547 E19.51736
G1 X135.756 Y67.04 E19.53418
G1 X135.791 Y67.504 E19.54966
G1 X135.8 Y72.612 E19.71955
G1 X135.956 Y78.141 E19.90352
G1 X136.423 Y83.632 E20.08681
G1 X137.122 Y88.91 E20.26389
G1 X137.15 Y89.316 E20.27743
G1 X137.214 Y103.816 E20.7597
G1 X137.214 Y103.831 E20.7602
G1 X137.203 Y151.981 E22.36168
G1 X137.163 Y152.485 E22.37849
G1 X137.044 Y152.976 E22.3953
G1 X136.849 Y153.443 E22.41213
G1 X136.583 Y153.873 E22.42895
G1 X136.266 Y154.242 E22.44513
G1 X131.759 Y158.752 E22.65719
G1 X131.375 Y159.08 E22.67399
G1 X130.944 Y159.344 E22.6908
G1 X130.476 Y159.536 E22.70762
G1 X129.984 Y159.653 E22.72445
G1 X129.496 Y159.69 E22.74072
G1 X107.505 Y159.69 E23.47215
G1 X107.001 Y159.65 E23.48896
G1 X106.51 Y159.531 E23.50577
G1 X106.043 Y159.337 E23.52259
G1 X105.613 Y159.071 E23.5394
G1 X105.298 Y158.807 E23.55307
G1 X103.523 Y157.116 E23.63461
G1 X99.384 Y153.481 E23.81783
G1 X95.087 Y150.115 E23.99937
G1 X90.591 Y146.986 E24.18156
G1 X84.378 Y143.233 E24.42298
G1 X83.968 Y142.938 E24.43978
G1 X83.609 Y142.583 E24.45657
G1 X83.31 Y142.175 E24.4734
G1 X83.079 Y141.725 E24.49022
G1 X82.922 Y141.244 E24.50705
G1 X82.833 Y140.494 E24.53217
G1 X82.834 Y103.503 E25.7625
G1 X82.872 Y103.012 E25.77888
G1 X83.686 Y97.768 E25.95538
G1 X84.229 Y92.307 E26.13791
G1 X84.422 Y88.812 E26.25433
G1 X84.49 Y88.311 E26.27115
G1 X84.73 Y87.608 E26.29585
G1 X87.882 Y81.02 E26.53876
G1 X90.69 Y74.017 E26.78971
G1 X91.04 Y73.37 E26.81417
G1 X93.626 Y69.683 E26.96396
G1 F1200 E24.96396
G0 F3000 X95.522 Y71.382
G0 X96.572 Y72.117
G0 X125.83 Y74.814
G0 X125.9 Y74.884
;TYPE:WALL-INNER
G1 F1200 E26.96396
G1 F1500 X125.9 Y89.6 E27.45342
G1 X133.35 Y89.6 E27.7012
G1 X133.35 Y90.4 E27.72781
G1 X125.9 Y90.4 E27.9756
G1 X125.9 Y110.063 E28.62959
G1 X125.9 Y110.263 E28.63625
G1 X126.1 Y110.263 E28.64055
G1 X132.6 Y110.262 E28.85674
G1 X132.6 Y95.1 E29.36103
G1 X133.35 Y95.1 E29.38598
G1 X133.35 Y104.1 E29.68532
G1 X133.414 Y104.1 E29.68745
G1 X133.413 Y151.739 E31.27193
G1 X129.252 Y155.9 E31.46765
G1 X108.1 Y155.9 E32.17117
G1 X108.1 Y139.9 E32.70333
G1 X86.823 Y139.9 E33.41101
G1 X86.623 Y139.9 E33.41766
G1 X86.623 Y139.7 E33.42197
G1 X86.624 Y104.1 E34.60603
G1 X94.1 Y104.1 E34.85468
G1 X94.1 Y95.9 E35.12741
G1 X88.2 Y95.9 E35.32365
G1 X88.2 Y95.1 E35.35026
G1 X94.1 Y95.1 E35.54649
G1 X94.1 Y90.4 E35.70281
G1 X88.2 Y90.4 E35.89905
G1 X88.2 Y89.6 E35.92566
G1 X94.1 Y89.6 E36.12189
G1 X94.1 Y75.624 E36.58673
G1 X96.563 Y72.1 E36.72973
G1 X120.046 Y72.1 E37.51078
G1 X120.217 Y71.804 E37.52215
G1 X125.457 Y68.1 E37.73558
G1 X132 Y68.1 E37.9532
G1 X132 Y72.7 E38.1062
G1 X127.515 Y72.7 E38.25537
G1 X126.254 Y74.884 E38.33925
G1 X125.9 Y74.884 E38.35102
G0 F3000 X125.83 Y74.814
G0 X121.499 Y105.364
G0 X121.517 Y105.462
G1 F1500 X120.9 Y105.662 E38.37259
G1 X120.354 Y106.009 E38.39411
G1 X119.91 Y106.48 E38.41564
G1 X119.598 Y107.05 E38.43725
G1 X119.436 Y107.676 E38.45876
G1 X119.436 Y108.324 E38.48031
G1 X119.598 Y108.951 E38.50185
G1 X119.91 Y109.518 E38.52338
G1 X120.353 Y109.991 E38.54493
G1 X120.9 Y110.338 E38.56648
G1 X121.517 Y110.538 E38.58805
G1 X122.161 Y110.578 E38.60951
G1 X122.797 Y110.458 E38.63104
G1 X123.384 Y110.181 E38.65262
G1 X123.883 Y109.768 E38.67417
G1 X124.264 Y109.244 E38.69572
G1 X124.502 Y108.641 E38.71728
G1 X124.584 Y108 E38.73877
G1 X124.502 Y107.359 E38.76026
G1 X124.264 Y106.756 E38.78183
G1 X123.883 Y106.232 E38.80337
G1 X123.384 Y105.819 E38.82492
G1 X122.797 Y105.542 E38.84651
G1 X122.161 Y105.422 E38.86803
G1 X121.517 Y105.462 E38.88949
G0 F3000 X121.499 Y105.364
G0 X97.499 Y105.364
G0 X97.517 Y105.462
G1 F1500 X96.9 Y105.662 E38.91107
G1 X96.354 Y106.009 E38.93258
G1 X95.91 Y106.48 E38.95411
G1 X95.598 Y107.05 E38.97573
G1 X95.436 Y107.676 E38.99723
G1 X95.436 Y108.324 E39.01878
G1 X95.598 Y108.951 E39.04032
G1 X95.91 Y109.518 E39.06185
G1 X96.353 Y109.991 E39.0834
G1 X96.9 Y110.338 E39.10495
G1 X97.517 Y110.538 E39.12652
G1 X98.161 Y110.578 E39.14798
G1 X98.797 Y110.458 E39.16951
G1 X99.384 Y110.181 E39.1911
G1 X99.883 Y109.768 E39.21264
G1 X100.264 Y109.244 E39.23419
G1 X100.502 Y108.641 E39.25575
G1 X100.584 Y108 E39.27724
G1 X100.502 Y107.359 E39.29874
G1 X100.264 Y106.756 E39.3203
G1 X99.883 Y106.232 E39.34185
G1 X99.384 Y105.819 E39.36339
G1 X98.797 Y105.542 E39.38498
G1 X98.161 Y105.422 E39.40651
G1 X97.517 Y105.462 E39.42797
G0 F3000 X97.499 Y105.364
G0 X98.163 Y105.383
G0 X98.809 Y105.504
G0 X99.405 Y105.786
G0 X99.912 Y106.205
G0 X128.498 Y148.364
G0 X128.516 Y148.462
G1 F1500 X127.9 Y148.662 E39.44951
G1 X127.354 Y149.009 E39.47103
G1 X126.91 Y149.48 E39.49255
G1 X126.598 Y150.05 E39.51417
G1 X126.436 Y150.676 E39.53567
G1 X126.436 Y151.299 E39.55639
G1 X126.596 Y151.948 E39.57863
G1 X126.91 Y152.518 E39.60027
G1 X127.353 Y152.99 E39.6218
G1 X127.899 Y153.339 E39.64335
G1 X128.52 Y153.539 E39.66505
G1 X129.185 Y153.575 E39.6872
G1 X129.798 Y153.457 E39.70797
G1 X130.384 Y153.181 E39.72951
G1 X130.883 Y152.768 E39.75106
G1 X131.264 Y152.246 E39.77255
G1 X131.504 Y151.642 E39.79417
G1 X131.584 Y151 E39.81568
G1 X131.502 Y150.356 E39.83728
G1 X131.25 Y149.734 E39.8596
G1 X130.883 Y149.232 E39.88028
G1 X130.385 Y148.819 E39.9018
G1 X129.798 Y148.543 E39.92337
G1 X129.162 Y148.421 E39.94491
G1 X128.516 Y148.462 E39.96644
G0 F3000 X128.592 Y148.858
;TYPE:WALL-OUTER
G1 F1500 X128.072 Y149.027 E39.98463
G1 X127.611 Y149.32 E40.0028
G1 X127.236 Y149.717 E40.02096
G1 X126.973 Y150.198 E40.03919
G1 X126.836 Y150.727 E40.05737
G1 X126.836 Y151.25 E40.07476
G1 X126.972 Y151.801 E40.09364
G1 X127.236 Y152.281 E40.11186
G1 X127.61 Y152.68 E40.13005
G1 X128.071 Y152.974 E40.14823
G1 X128.593 Y153.142 E40.16647
G1 X129.158 Y153.173 E40.18529
G1 X129.673 Y153.074 E40.20274
G1 X130.168 Y152.841 E40.22093
G1 X130.589 Y152.492 E40.23912
G1 X130.911 Y152.051 E40.25728
G1 X131.113 Y151.542 E40.2755
G1 X131.181 Y151 E40.29366
G1 X131.112 Y150.458 E40.31184
G1 X130.898 Y149.93 E40.33079
G1 X130.589 Y149.508 E40.34818
G1 X130.169 Y149.159 E40.36634
G1 X129.673 Y148.926 E40.38457
G1 X129.137 Y148.823 E40.40272
G1 X128.592 Y148.858 E40.42089
G0 F3000 X128.402 Y148.919
G0 X128.249 Y148.443
G0 X119.397 Y108.329
G0 X119.397 Y107.671
G0 X119.561 Y107.036
G0 X119.878 Y106.457
G0 X120.329 Y105.979
G0 X120.642 Y105.78
G0 X121.44 Y105.382
G0 X121.592 Y105.858
G1 F1500 X121.072 Y106.027 E40.43907
G1 X120.611 Y106.32 E40.45724
G1 X120.236 Y106.717 E40.47541
G1 X119.973 Y107.198 E40.49364
G1 X119.836 Y107.727 E40.51181
G1 X119.836 Y108.273 E40.52997
G1 X119.973 Y108.802 E40.54815
G1 X120.236 Y109.281 E40.56632
G1 X120.61 Y109.68 E40.58451
G1 X121.072 Y109.973 E40.60271
G1 X121.592 Y110.142 E40.6209
G1 X122.136 Y110.176 E40.63902
G1 X122.673 Y110.074 E40.6572
G1 X123.168 Y109.841 E40.6754
G1 X123.589 Y109.492 E40.69359
G1 X123.911 Y109.05 E40.71178
G1 X124.112 Y108.541 E40.72998
G1 X124.181 Y108 E40.74812
G1 X124.112 Y107.459 E40.76626
G1 X123.911 Y106.95 E40.78446
G1 X123.589 Y106.508 E40.80265
G1 X123.168 Y106.159 E40.82084
G1 X122.673 Y105.926 E40.83903
G1 X122.136 Y105.824 E40.85721
G1 X121.592 Y105.858 E40.87534
G0 F3000 X121.402 Y105.919
G0 X121.249 Y105.444
G0 X97.44 Y105.382
G0 X97.592 Y105.858
G1 F1500 X97.072 Y106.027 E40.89353
G1 X96.611 Y106.32 E40.9117
G1 X96.236 Y106.717 E40.92986
G1 X95.973 Y107.198 E40.94809
G1 X95.836 Y107.727 E40.96627
G1 X95.836 Y108.273 E40.98443
G1 X95.973 Y108.802 E41.0026
G1 X96.236 Y109.281 E41.02078
G1 X96.61 Y109.68 E41.03897
G1 X97.072 Y109.973 E41.05716
G1 X97.592 Y110.142 E41.07535
G1 X98.136 Y110.176 E41.09348
G1 X98.673 Y110.074 E41.11166
G1 X99.168 Y109.841 E41.12985
G1 X99.589 Y109.492 E41.14804
G1 X99.911 Y109.05 E41.16623
G1 X100.112 Y108.541 E41.18443
G1 X100.181 Y108 E41.20257
G1 X100.112 Y107.459 E41.22071
G1 X99.911 Y106.95 E41.23891
G1 X99.589 Y106.508 E41.2571
G1 X99.168 Y106.159 E41.27529
G1 X98.673 Y105.926 E41.29349
G1 X98.136 Y105.824 E41.31167
G1 X97.592 Y105.858 E41.32979
G0 F3000 X97.402 Y105.919
G0 X97.249 Y105.444
G0 X125.8 Y75.284
G0 X126.3 Y75.284
G1 F1500 X126.3 Y89.2 E41.79264
G1 X133.75 Y89.2 E42.04043
G1 X133.75 Y90.8 E42.09365
G1 X126.3 Y90.8 E42.34143
G1 X126.3 Y109.663 E42.96882
G1 X126.3 Y109.863 E42.97547
G1 X126.5 Y109.863 E42.97978
G1 X132.2 Y109.862 E43.16936
G1 X132.2 Y94.7 E43.67365
G1 X133.75 Y94.7 E43.72521
G1 X133.75 Y103.7 E44.02455
G1 X133.814 Y103.7 E44.02668
G1 X133.813 Y151.905 E45.62998
G1 X129.418 Y156.3 E45.83671
G1 X107.7 Y156.3 E46.55905
G1 X107.7 Y140.3 E47.09121
G1 X86.423 Y140.3 E47.79889
G1 X86.223 Y140.3 E47.80554
G1 X86.223 Y140.1 E47.80985
G1 X86.224 Y103.7 E49.02052
G1 X93.7 Y103.7 E49.26917
G1 X93.7 Y96.3 E49.5153
G1 X87.8 Y96.3 E49.71153
G1 X87.8 Y94.7 E49.76475
G1 X93.7 Y94.7 E49.96098
G1 X93.7 Y90.8 E50.0907
G1 X87.8 Y90.8 E50.28693
G1 X87.8 Y89.2 E50.34015
G1 X93.7 Y89.2 E50.53638
G1 X93.7 Y75.498 E50.99211
G1 X96.355 Y71.7 E51.14624
G1 X119.815 Y71.7 E51.92652
G1 X119.914 Y71.528 E51.93312
G1 X125.329 Y67.7 E52.15368
G1 X132.4 Y67.7 E52.38887
G1 X132.4 Y73.1 E52.56847
G1 X127.746 Y73.1 E52.72326
G1 X126.485 Y75.284 E52.80714
G1 X126.3 Y75.284 E52.8133
G0 F3000 X126.3 Y75.484
G0 X125.8 Y75.484
G0 X125.857 Y74.976
G0 X126.029 Y74.494
;TYPE:SKIN
G1 F1500 X125.51 Y74.494 E52.83056
G1 X125.51 Y89.99 E53.34596
G1 X132.96 Y89.99 E53.59375
G1 X132.96 Y90.01 E53.59441
G1 X125.51 Y90.01 E53.8422
G1 X125.51 Y110.653 E54.52879
G1 X132.99 Y110.652 E54.77757
G1 X132.99 Y104.49 E54.98252
G1 X133.024 Y104.49 E54.98365
G1 X133.023 Y151.579 E56.54984
G1 X129.092 Y155.51 E56.73474
G1 X108.49 Y155.51 E57.41997
G1 X108.49 Y139.51 E57.95213
G1 X87.013 Y139.51 E58.66646
G1 X87.014 Y104.49 E59.83123
G1 X94.49 Y104.49 E60.07988
G1 X94.49 Y95.51 E60.37856
G1 X88.59 Y95.51 E60.57479
G1 X88.59 Y95.49 E60.57546
G1 X94.49 Y95.49 E60.77169
G1 X94.49 Y90.01 E60.95396
G1 X88.59 Y90.01 E61.15019
G1 X88.59 Y89.99 E61.15086
G1 X94.49 Y89.99 E61.34709
G1 X94.49 Y75.747 E61.82082
G1 X96.767 Y72.49 E61.95299
