; generated by Slic3r 1.37.1-prusa3d-win32 on 2018-01-27 at 22:41:38

; 

; external perimeters extrusion width = 0.40mm
; perimeters extrusion width = 0.40mm
; infill extrusion width = 0.50mm
; solid infill extrusion width = 0.40mm
; top infill extrusion width = 0.40mm
; first layer extrusion width = 0.21mm

M107
M190 S70 ; set bed temperature and wait for it to be reached
M104 S240 ; set temperature
G28 X0 Y0  ;move X/Y to min endstops
G28 Z0     ;move Z to min endstops
G1 Z15 F5000 ; lift nozzle
G92 E0        ;zero the extruded length
G1 F200 E3 ;extrude 3mm of feed stock
G92 E0        ;zero the extruded length again

; Filament gcode

M109 S240 ; set temperature and wait for it to be reached
G21 ; set units to millimeters
G90 ; use absolute coordinates
M82 ; use absolute distances for extrusion
G92 E0
G1 Z0.200 F7200.000
G1 E-2.00000 F2400.00000
G92 E0
G1 X100.492 Y81.548 F7200.000
G1 E2.00000 F2400.00000
G1 F2880
G1 X101.640 Y80.716 E2.01969
G1 X102.967 Y80.216 E2.03939
G1 X104.115 Y80.079 E2.05546
G1 X115.755 Y80.078 E2.21716
G1 X116.692 Y80.162 E2.23023
G1 X117.600 Y80.409 E2.24330
G1 X118.450 Y80.812 E2.25637
G1 X119.217 Y81.357 E2.26945
G1 X119.876 Y82.029 E2.28252
G1 X120.407 Y82.806 E2.29559
G1 X120.793 Y83.663 E2.30866
G1 X121.024 Y84.581 E2.32181
G1 X124.430 Y123.371 E2.86278
G1 X124.441 Y132.217 E2.98567
G1 X124.237 Y133.580 E3.00482
G1 X123.975 Y134.298 E3.01544
G1 X123.613 Y134.972 E3.02606
G1 X123.159 Y135.587 E3.03668
G1 X122.622 Y136.130 E3.04730
G1 X122.012 Y136.592 E3.05792
G1 X121.343 Y136.962 E3.06854
G1 X120.628 Y137.232 E3.07916
G1 X119.882 Y137.398 E3.08978
G1 X109.940 Y138.571 E3.22886
G1 X100.232 Y137.414 E3.36469
G1 X99.433 Y137.250 E3.37602
G1 X98.632 Y136.950 E3.38791
G1 X97.889 Y136.526 E3.39979
G1 X97.223 Y135.989 E3.41168
G1 X96.648 Y135.347 E3.42364
G1 X96.186 Y134.627 E3.43553
G1 X95.846 Y133.842 E3.44742
G1 X95.635 Y133.013 E3.45930
G1 X95.559 Y132.155 E3.47127
G1 X95.572 Y122.433 E3.60634
G1 X98.851 Y84.943 E4.12916
G1 X99.036 Y83.951 E4.14318
G1 X99.603 Y82.652 E4.16287
G1 X100.455 Y81.594 E4.18173
G1 X100.584 Y81.699 F7200.000
G1 F2880
G1 X101.737 Y80.854 E4.20160
G1 X103.029 Y80.373 E4.22075
G1 X104.121 Y80.246 E4.23602
G1 X115.755 Y80.246 E4.39764
G1 X116.666 Y80.327 E4.41035
G1 X117.548 Y80.568 E4.42306
G1 X118.374 Y80.961 E4.43577
G1 X119.119 Y81.493 E4.44848
G1 X119.754 Y82.144 E4.46111
G1 X120.268 Y82.900 E4.47382
G1 X120.642 Y83.735 E4.48653
G1 X120.862 Y84.623 E4.49924
G1 X124.263 Y123.384 E5.03980
G1 X124.274 Y132.210 E5.16241
G1 X124.074 Y133.540 E5.18110
G1 X123.820 Y134.236 E5.19139
G1 X123.465 Y134.893 E5.20177
G1 X123.023 Y135.488 E5.21207
G1 X122.501 Y136.014 E5.22236
G1 X121.909 Y136.460 E5.23266
G1 X121.259 Y136.817 E5.24296
G1 X120.565 Y137.077 E5.25325
G1 X119.841 Y137.235 E5.26355
G1 X109.941 Y138.403 E5.40205
G1 X100.258 Y137.249 E5.53752
G1 X99.477 Y137.089 E5.54859
G1 X98.699 Y136.797 E5.56014
G1 X97.978 Y136.385 E5.57168
G1 X97.332 Y135.862 E5.58322
G1 X96.778 Y135.243 E5.59476
G1 X96.331 Y134.543 E5.60631
G1 X96.001 Y133.780 E5.61785
G1 X95.798 Y132.975 E5.62939
G1 X95.726 Y132.141 E5.64101
G1 X95.739 Y122.444 E5.77573
G1 X99.018 Y84.958 E6.29851
G1 X99.196 Y83.998 E6.31207
G1 X99.748 Y82.735 E6.33122
G1 X100.547 Y81.746 E6.34888
G1 X100.741 Y81.773 F7200.000
G1 F2880
G1 X101.830 Y80.994 E6.36749
G1 X103.087 Y80.531 E6.38610
G1 X104.123 Y80.413 E6.40058
G1 X115.754 Y80.413 E6.56217
G1 X116.640 Y80.493 E6.57452
G1 X117.492 Y80.726 E6.58679
G1 X118.290 Y81.105 E6.59907
G1 X119.008 Y81.619 E6.61134
G1 X119.626 Y82.251 E6.62361
G1 X120.125 Y82.986 E6.63596
G1 X120.485 Y83.793 E6.64823
G1 X120.698 Y84.656 E6.66058
G1 X124.096 Y123.391 E7.20079
G1 X124.107 Y132.203 E7.32321
G1 X123.913 Y133.495 E7.34136
G1 X123.666 Y134.169 E7.35133
G1 X123.326 Y134.801 E7.36131
G1 X122.898 Y135.378 E7.37129
G1 X122.388 Y135.891 E7.38134
G1 X121.814 Y136.323 E7.39131
G1 X121.179 Y136.670 E7.40137
G1 X120.501 Y136.922 E7.41142
G1 X119.799 Y137.073 E7.42140
G1 X109.947 Y138.236 E7.55922
G1 X100.273 Y137.082 E7.69456
G1 X99.516 Y136.927 E7.70530
G1 X98.761 Y136.642 E7.71650
G1 X98.067 Y136.243 E7.72763
G1 X97.441 Y135.735 E7.73883
G1 X96.905 Y135.133 E7.75003
G1 X96.475 Y134.458 E7.76116
G1 X96.156 Y133.717 E7.77236
G1 X95.960 Y132.935 E7.78356
G1 X95.893 Y132.131 E7.79476
G1 X95.905 Y122.456 E7.92918
G1 X99.184 Y84.973 E8.45191
G1 X99.358 Y84.039 E8.46510
G1 X99.897 Y82.813 E8.48371
G1 X100.703 Y81.819 E8.50148
G1 X100.833 Y81.925 F7200.000
G1 F2880
G1 X100.867 Y81.883 E8.50225
G1 X101.928 Y81.131 E8.52031
G1 X103.151 Y80.688 E8.53838
G1 X104.127 Y80.580 E8.55203
G1 X115.754 Y80.580 E8.71356
G1 X116.609 Y80.657 E8.72547
G1 X117.436 Y80.883 E8.73739
G1 X118.210 Y81.252 E8.74930
G1 X118.907 Y81.752 E8.76122
G1 X119.505 Y82.367 E8.77313
G1 X119.985 Y83.078 E8.78505
G1 X120.332 Y83.862 E8.79696
G1 X120.535 Y84.695 E8.80888
G1 X123.930 Y123.404 E9.34871
G1 X123.940 Y132.201 E9.47093
G1 X123.751 Y133.455 E9.48855
G1 X123.511 Y134.108 E9.49821
G1 X123.177 Y134.724 E9.50794
G1 X122.761 Y135.281 E9.51760
G1 X122.266 Y135.776 E9.52733
G1 X121.709 Y136.192 E9.53699
G1 X121.093 Y136.525 E9.54672
G1 X120.435 Y136.767 E9.55645
G1 X119.755 Y136.910 E9.56611
G1 X109.947 Y138.069 E9.70331
G1 X100.299 Y136.917 E9.83830
G1 X99.560 Y136.765 E9.84878
G1 X98.833 Y136.491 E9.85957
G1 X98.156 Y136.101 E9.87043
G1 X97.554 Y135.611 E9.88122
G1 X97.034 Y135.027 E9.89208
G1 X96.616 Y134.367 E9.90294
G1 X96.311 Y133.653 E9.91373
G1 X96.124 Y132.899 E9.92452
G1 X96.060 Y132.120 E9.93538
G1 X96.072 Y122.467 E10.06948
G1 X99.351 Y84.987 E10.59217
G1 X99.520 Y84.080 E10.60498
G1 X100.045 Y82.890 E10.62305
G1 X100.795 Y81.972 E10.63952
G1 X100.995 Y81.993 F7200.000
G1 F2880
G1 X102.023 Y81.270 E10.65698
G1 X103.211 Y80.847 E10.67451
G1 X104.134 Y80.747 E10.68740
G1 X115.754 Y80.747 E10.84884
G1 X116.583 Y80.822 E10.86040
G1 X117.380 Y81.041 E10.87189
G1 X118.126 Y81.397 E10.88337
G1 X118.802 Y81.882 E10.89493
G1 X119.378 Y82.475 E10.90642
G1 X119.842 Y83.166 E10.91798
G1 X120.176 Y83.922 E10.92946
G1 X120.371 Y84.731 E10.94102
G1 X123.763 Y123.417 E11.48054
G1 X123.773 Y132.194 E11.60248
G1 X123.590 Y133.411 E11.61957
G1 X123.034 Y134.637 E11.63828
G1 X122.151 Y135.654 E11.65698
G1 X121.015 Y136.377 E11.67569
G1 X119.720 Y136.746 E11.69440
G1 X109.948 Y137.902 E11.83111
G1 X100.320 Y136.751 E11.96582
G1 X99.604 Y136.604 E11.97598
G1 X98.486 Y136.116 E11.99292
G1 X97.529 Y135.351 E12.00994
G1 X96.807 Y134.369 E12.02688
G1 X96.361 Y133.228 E12.04389
G1 X96.227 Y132.176 E12.05863
G1 X96.227 Y122.810 E12.18875
G1 X99.517 Y85.002 E12.71599
G1 X99.682 Y84.122 E12.72843
G1 X100.193 Y82.968 E12.74597
G1 X100.956 Y82.039 E12.76266
G1 X101.085 Y82.145 F7200.000
G1 F2880
G1 X102.113 Y81.412 E12.78021
G1 X103.267 Y81.006 E12.79720
G1 X104.136 Y80.914 E12.80935
G1 X115.754 Y80.914 E12.97075
G1 X116.552 Y80.986 E12.98188
G1 X117.325 Y81.198 E12.99302
G1 X118.048 Y81.544 E13.00415
G1 X118.698 Y82.013 E13.01528
G1 X119.255 Y82.589 E13.02642
G1 X119.701 Y83.255 E13.03755
G1 X120.022 Y83.989 E13.04868
G1 X120.208 Y84.768 E13.05981
G1 X123.596 Y123.424 E13.59891
G1 X123.606 Y132.188 E13.72066
G1 X123.427 Y133.372 E13.73729
G1 X122.887 Y134.556 E13.75537
G1 X122.032 Y135.536 E13.77345
G1 X120.932 Y136.231 E13.79153
G1 X119.679 Y136.583 E13.80960
G1 X109.948 Y137.735 E13.94573
G1 X100.340 Y136.586 E14.08017
G1 X99.643 Y136.441 E14.09006
G1 X98.561 Y135.966 E14.10648
G1 X97.636 Y135.221 E14.12297
G1 X96.941 Y134.266 E14.13939
G1 X96.516 Y133.157 E14.15588
G1 X96.394 Y132.165 E14.16977
G1 X96.394 Y122.799 E14.29989
G1 X99.684 Y85.017 E14.82678
G1 X99.844 Y84.163 E14.83885
G1 X100.339 Y83.050 E14.85577
G1 X101.047 Y82.192 E14.87122
G1 X101.239 Y82.222 F7200.000
G1 F2880
G1 X102.208 Y81.550 E14.88762
G1 X103.324 Y81.165 E14.90401
G1 X104.141 Y81.081 E14.91543
G1 X115.754 Y81.081 E15.07676
G1 X116.522 Y81.150 E15.08747
G1 X117.265 Y81.355 E15.09818
G1 X117.961 Y81.687 E15.10889
G1 X118.590 Y82.141 E15.11967
G1 X119.126 Y82.695 E15.13038
G1 X119.557 Y83.340 E15.14117
G1 X119.867 Y84.052 E15.15195
G1 X120.044 Y84.802 E15.16266
G1 X123.430 Y123.437 E15.70146
G1 X123.439 Y132.186 E15.82301
G1 X123.266 Y133.328 E15.83905
G1 X122.744 Y134.470 E15.85650
G1 X121.916 Y135.416 E15.87396
G1 X120.852 Y136.084 E15.89141
G1 X119.641 Y136.419 E15.90886
G1 X109.949 Y137.568 E16.04446
G1 X100.361 Y136.420 E16.17861
G1 X99.686 Y136.280 E16.18818
G1 X98.640 Y135.818 E16.20408
G1 X97.750 Y135.098 E16.21998
G1 X97.079 Y134.171 E16.23588
G1 X96.673 Y133.096 E16.25184
G1 X96.561 Y132.163 E16.26490
G1 X96.561 Y122.789 E16.39513
G1 X99.849 Y85.037 E16.92160
G1 X100.005 Y84.209 E16.93330
G1 X100.486 Y83.131 E16.94970
G1 X101.200 Y82.269 E16.96525
G1 X101.329 Y82.376 F7200.000
G1 F2880
G1 X101.363 Y82.335 E16.96600
G1 X102.305 Y81.689 E16.98186
G1 X103.381 Y81.324 E16.99766
G1 X104.144 Y81.248 E17.00830
G1 X115.754 Y81.248 E17.16960
G1 X116.492 Y81.315 E17.17989
G1 X117.211 Y81.513 E17.19025
G1 X117.883 Y81.835 E17.20061
G1 X118.487 Y82.273 E17.21097
G1 X119.001 Y82.807 E17.22127
G1 X119.414 Y83.427 E17.23163
G1 X119.711 Y84.112 E17.24199
G1 X119.880 Y84.838 E17.25235
G1 X123.263 Y123.445 E17.79076
G1 X123.272 Y132.180 E17.91211
G1 X123.105 Y133.284 E17.92763
G1 X122.705 Y134.214 E17.94168
G1 X122.094 Y135.020 E17.95574
G1 X121.306 Y135.655 E17.96980
G1 X120.389 Y136.082 E17.98385
G1 X119.642 Y136.251 E17.99449
G1 X110.524 Y137.371 E18.12212
G1 X109.502 Y137.374 E18.13632
G1 X100.371 Y136.253 E18.26412
G1 X99.730 Y136.119 E18.27322
G1 X98.718 Y135.670 E18.28860
G1 X97.860 Y134.971 E18.30398
G1 X97.215 Y134.071 E18.31935
G1 X96.829 Y133.029 E18.33480
G1 X96.728 Y132.158 E18.34698
G1 X96.728 Y122.780 E18.47727
G1 X100.016 Y85.051 E19.00340
G1 X100.167 Y84.249 E19.01474
G1 X100.632 Y83.212 E19.03054
G1 X101.291 Y82.422 E19.04482
G1 X101.485 Y82.450 F7200.000
G1 F2880
G1 X102.393 Y81.832 E19.06009
G1 X103.436 Y81.483 E19.07536
G1 X104.148 Y81.415 E19.08531
G1 X115.754 Y81.415 E19.24654
G1 X116.467 Y81.480 E19.25649
G1 X117.157 Y81.671 E19.26643
G1 X117.802 Y81.981 E19.27638
G1 X118.381 Y82.402 E19.28633
G1 X118.877 Y82.919 E19.29627
G1 X119.272 Y83.516 E19.30622
G1 X119.555 Y84.173 E19.31616
G1 X119.716 Y84.871 E19.32611
G1 X123.096 Y123.458 E19.86424
G1 X123.105 Y132.174 E19.98533
G1 X122.943 Y133.241 E20.00032
G1 X122.556 Y134.138 E20.01389
G1 X121.964 Y134.914 E20.02746
G1 X121.201 Y135.524 E20.04102
G1 X120.314 Y135.931 E20.05459
G1 X119.615 Y136.086 E20.06453
G1 X110.468 Y137.209 E20.19256
G1 X109.536 Y137.210 E20.20551
G1 X99.773 Y135.957 E20.34225
G1 X98.796 Y135.522 E20.35711
G1 X97.973 Y134.847 E20.37190
G1 X97.354 Y133.975 E20.38676
G1 X96.988 Y132.970 E20.40162
G1 X96.895 Y132.151 E20.41308
G1 X96.895 Y122.770 E20.54340
G1 X100.182 Y85.066 E21.06920
G1 X100.328 Y84.295 E21.08010
G1 X100.779 Y83.292 E21.09537
G1 X101.446 Y82.496 E21.10981
G1 X101.574 Y82.604 F7200.000
G1 F2880
G1 X101.607 Y82.565 E21.11052
G1 X102.482 Y81.974 E21.12519
G1 X103.491 Y81.643 E21.13994
G1 X104.150 Y81.582 E21.14914
G1 X115.754 Y81.582 E21.31034
G1 X116.437 Y81.644 E21.31988
G1 X117.099 Y81.827 E21.32941
G1 X117.717 Y82.125 E21.33895
G1 X118.272 Y82.529 E21.34848
G1 X118.747 Y83.024 E21.35802
G1 X119.126 Y83.597 E21.36755
G1 X119.397 Y84.227 E21.37709
G1 X119.552 Y84.901 E21.38669
G1 X122.929 Y123.466 E21.92451
G1 X122.937 Y132.172 E22.04547
G1 X122.782 Y133.198 E22.05988
G1 X122.410 Y134.057 E22.07289
G1 X121.837 Y134.805 E22.08597
G1 X121.100 Y135.390 E22.09905
G1 X120.242 Y135.778 E22.11213
G1 X119.590 Y135.921 E22.12140
G1 X110.434 Y137.045 E22.24956
G1 X109.550 Y137.043 E22.26184
G1 X99.817 Y135.796 E22.39817
G1 X98.879 Y135.377 E22.41245
G1 X98.085 Y134.723 E22.42672
G1 X97.494 Y133.883 E22.44100
G1 X97.146 Y132.910 E22.45535
G1 X97.062 Y132.147 E22.46602
G1 X97.062 Y122.766 E22.59634
G1 X100.349 Y85.081 E23.12188
G1 X100.489 Y84.340 E23.13236
G1 X100.925 Y83.373 E23.14710
G1 X101.535 Y82.650 E23.16024
G1 X101.729 Y82.680 F7200.000
G1 F2880
G1 X102.573 Y82.116 E23.17433
G1 X103.543 Y81.804 E23.18849
G1 X104.155 Y81.749 E23.19703
G1 X115.754 Y81.749 E23.35817
G1 X116.408 Y81.809 E23.36729
G1 X117.041 Y81.984 E23.37642
G1 X117.637 Y82.272 E23.38562
G1 X118.168 Y82.659 E23.39474
G1 X118.622 Y83.135 E23.40387
G1 X118.983 Y83.683 E23.41300
G1 X119.241 Y84.288 E23.42213
G1 X119.387 Y84.933 E23.43132
G1 X122.763 Y123.479 E23.96887
G1 X122.770 Y132.166 E24.08957
G1 X122.621 Y133.151 E24.10340
G1 X122.262 Y133.978 E24.11593
G1 X121.709 Y134.696 E24.12852
G1 X121.001 Y135.254 E24.14105
G1 X120.174 Y135.625 E24.15365
G1 X119.568 Y135.755 E24.16225
G1 X110.400 Y136.880 E24.29057
G1 X109.569 Y136.877 E24.30212
G1 X99.860 Y135.635 E24.43811
G1 X98.960 Y135.231 E24.45181
G1 X98.197 Y134.598 E24.46558
G1 X97.631 Y133.785 E24.47934
G1 X97.304 Y132.850 E24.49311
G1 X97.229 Y132.140 E24.50302
G1 X97.230 Y122.758 E24.63336
G1 X100.515 Y85.095 E25.15859
G1 X100.651 Y84.380 E25.16870
G1 X101.073 Y83.453 E25.18286
G1 X101.691 Y82.725 E25.19612
G1 E23.19612 F2400.00000
G92 E0
G1 X103.592 Y81.965 F7200.000
G1 E2.00000 F2400.00000
G1 F2880
G1 X115.754 Y81.916 E2.16896
G1 X116.379 Y81.973 E2.17769
G1 X116.984 Y82.141 E2.18642
G1 X117.554 Y82.417 E2.19520
G1 X118.061 Y82.787 E2.20393
G1 X118.494 Y83.242 E2.21266
G1 X118.838 Y83.768 E2.22138
G1 X119.085 Y84.350 E2.23017
G1 X119.223 Y84.963 E2.23890
G1 X122.596 Y123.487 E2.77615
G1 X122.603 Y132.165 E2.89671
G1 X122.460 Y133.109 E2.90997
G1 X122.113 Y133.903 E2.92202
G1 X121.581 Y134.588 E2.93406
G1 X120.897 Y135.122 E2.94611
G1 X120.104 Y135.471 E2.95816
G1 X110.367 Y136.716 E3.09453
G1 X109.587 Y136.711 E3.10536
G1 X99.908 Y135.474 E3.24093
G1 X99.042 Y135.085 E3.25412
G1 X98.312 Y134.476 E3.26732
G1 X97.771 Y133.691 E3.28058
G1 X97.463 Y132.792 E3.29377
G1 X97.396 Y132.135 E3.30294
G1 X97.397 Y122.755 E3.43326
G1 X100.682 Y85.110 E3.95824
G1 X100.812 Y84.425 E3.96792
G1 X101.215 Y83.540 E3.98144
G1 X101.849 Y82.797 E3.99501
G1 X102.660 Y82.259 E4.00852
G1 X103.534 Y81.983 E4.02127
G1 X103.584 Y82.143 F7200.000
G1 F2880
G1 X103.637 Y82.126 E4.02204
G1 X115.753 Y82.083 E4.19037
G1 X116.355 Y82.139 E4.19876
G1 X116.932 Y82.300 E4.20708
G1 X117.471 Y82.562 E4.21541
G1 X117.955 Y82.916 E4.22374
G1 X118.367 Y83.351 E4.23207
G1 X118.695 Y83.853 E4.24039
G1 X118.928 Y84.406 E4.24872
G1 X119.058 Y84.995 E4.25711
G1 X122.429 Y123.500 E4.79409
G1 X122.436 Y132.159 E4.91439
G1 X122.299 Y133.062 E4.92708
G1 X121.965 Y133.825 E4.93865
G1 X121.452 Y134.481 E4.95022
G1 X120.793 Y134.990 E4.96179
G1 X120.032 Y135.318 E4.97329
G1 X110.335 Y136.551 E5.10910
G1 X109.605 Y136.545 E5.11924
G1 X99.951 Y135.313 E5.25446
G1 X99.119 Y134.936 E5.26715
G1 X98.424 Y134.350 E5.27977
G1 X97.912 Y133.599 E5.29240
G1 X97.622 Y132.738 E5.30502
G1 X97.563 Y132.133 E5.31347
G1 X97.564 Y122.747 E5.44386
G1 X100.848 Y85.125 E5.96853
G1 X100.973 Y84.470 E5.97779
G1 X101.360 Y83.623 E5.99073
G1 X101.966 Y82.916 E6.00366
G1 X102.748 Y82.402 E6.01666
G1 X103.527 Y82.161 E6.02798
G1 X103.576 Y82.321 F7200.000
G1 F2880
G1 X103.685 Y82.288 E6.02957
G1 X115.753 Y82.251 E6.19724
G1 X116.322 Y82.303 E6.20517
G1 X116.872 Y82.456 E6.21310
G1 X117.386 Y82.706 E6.22104
G1 X117.849 Y83.046 E6.22903
G1 X118.241 Y83.462 E6.23696
G1 X118.552 Y83.941 E6.24489
G1 X118.772 Y84.468 E6.25283
G1 X118.894 Y85.025 E6.26076
G1 X122.262 Y123.508 E6.79744
G1 X122.269 Y132.154 E6.91755
G1 X122.137 Y133.021 E6.92973
G1 X121.819 Y133.743 E6.94070
G1 X121.329 Y134.368 E6.95173
G1 X120.699 Y134.851 E6.96276
G1 X119.968 Y135.163 E6.97379
G1 X110.303 Y136.387 E7.10914
G1 X109.623 Y136.379 E7.11859
G1 X99.993 Y135.151 E7.25345
G1 X99.203 Y134.791 E7.26551
G1 X98.538 Y134.227 E7.27763
G1 X98.053 Y133.507 E7.28970
G1 X97.782 Y132.683 E7.30176
G1 X97.731 Y122.745 E7.43982
G1 X101.015 Y85.139 E7.96425
G1 X101.134 Y84.514 E7.97309
G1 X101.506 Y83.705 E7.98546
G1 X102.088 Y83.032 E7.99782
G1 X102.834 Y82.547 E8.01018
G1 X103.518 Y82.339 E8.02012
G1 X103.566 Y82.499 F7200.000
G1 F2880
G1 X103.730 Y82.450 E8.02250
G1 X115.753 Y82.418 E8.18954
G1 X116.813 Y82.612 E8.20450
G1 X117.738 Y83.171 E8.21953
