;FLAVOR:Marlin
;TIME:3535
;Filament used: 2.56155m
;Layer height: 0.2
;Generated with Cura_SteamEngine 3.1.0
M190 S70
M104 S240
M109 S240
M82 ; absolute extrusion mode
G28 X0 Y0  ;move X/Y to min endstops
G28 Z0     ;move Z to min endstops
G1 Z15 F5000 ; lift nozzle
G92 E0
G1 F200 E3
G92 E0
;LAYER_COUNT:111
;LAYER:0
M107
G0 F3000 X100.575 Y82.196 Z0.2
;TYPE:SKIRT
G1 F1500 X101.018 Y81.761 E0.02168
G1 X101.514 Y81.386 E0.0434
G1 X102.054 Y81.079 E0.06509
G1 X102.629 Y80.843 E0.0868
G1 X103.229 Y80.683 E0.10848
G1 X103.845 Y80.601 E0.13019
G1 X104.171 Y80.59 E0.14158
G1 X115.749 Y80.59 E0.54592
G1 X116.369 Y80.63 E0.56761
G1 X116.979 Y80.749 E0.58932
G1 X117.568 Y80.946 E0.61101
G1 X118.127 Y81.216 E0.63269
G1 X118.647 Y81.556 E0.65439
G1 X119.119 Y81.96 E0.67608
G1 X119.536 Y82.422 E0.69782
G1 X119.889 Y82.932 E0.71948
G1 X120.174 Y83.484 E0.74118
G1 X120.386 Y84.069 E0.76291
G1 X120.521 Y84.675 E0.78459
G1 X120.561 Y84.999 E0.79599
G1 X123.912 Y123.302 E2.13876
G1 X123.93 Y123.722 E2.15344
G1 X123.931 Y132.114 E2.44652
G1 X123.891 Y132.734 E2.46821
G1 X123.772 Y133.344 E2.48992
G1 X123.576 Y133.934 E2.51163
G1 X123.305 Y134.493 E2.53332
G1 X122.965 Y135.013 E2.55502
G1 X122.561 Y135.485 E2.57672
G1 X122.1 Y135.901 E2.5984
G1 X121.589 Y136.255 E2.62011
G1 X121.037 Y136.54 E2.64181
G1 X120.453 Y136.752 E2.66351
G1 X119.689 Y136.909 E2.69075
G1 X110.588 Y138.025 E3.01096
G1 X109.968 Y138.061 E3.03265
G1 X109.412 Y138.025 E3.05211
G1 X100.312 Y136.908 E3.37229
G1 X99.701 Y136.793 E3.39401
G1 X99.11 Y136.6 E3.41572
G1 X98.549 Y136.333 E3.43742
G1 X98.027 Y135.997 E3.4591
G1 X97.552 Y135.596 E3.48081
G1 X97.133 Y135.137 E3.50251
G1 X96.776 Y134.629 E3.52419
G1 X96.488 Y134.079 E3.54588
G1 X96.272 Y133.496 E3.56759
G1 X96.133 Y132.89 E3.5893
G1 X96.07 Y132.115 E3.61646
G1 X96.069 Y122.818 E3.94114
G1 X96.087 Y122.396 E3.95589
G1 X99.359 Y84.999 E5.2669
G1 X99.453 Y84.385 E5.28859
G1 X99.625 Y83.788 E5.31029
G1 X99.872 Y83.218 E5.33198
G1 X100.191 Y82.684 E5.35371
G1 X100.575 Y82.196 E5.37539
G0 F3000 X100.977 Y82.379
G1 F1500 X101.414 Y81.978 E5.3961
G1 X101.902 Y81.639 E5.41686
G1 X102.43 Y81.368 E5.43758
G1 X102.99 Y81.171 E5.45831
G1 X103.571 Y81.051 E5.47903
G1 X104.171 Y81.01 E5.50004
G1 X115.749 Y81.01 E5.90438
G1 X116.341 Y81.05 E5.9251
G1 X116.923 Y81.169 E5.94584
G1 X117.483 Y81.365 E5.96656
G1 X118.012 Y81.635 E5.9873
G1 X118.5 Y81.973 E6.00804
G1 X118.938 Y82.374 E6.02877
G1 X119.318 Y82.83 E6.0495
G1 X119.634 Y83.333 E6.07025
G1 X119.879 Y83.873 E6.09096
G1 X120.049 Y84.442 E6.1117
G1 X120.142 Y85.036 E6.13269
G1 X123.493 Y123.339 E7.47546
G1 X123.51 Y123.722 E7.48885
G1 X123.511 Y132.114 E7.78193
G1 X123.471 Y132.707 E7.80269
G1 X123.352 Y133.288 E7.8234
G1 X123.156 Y133.849 E7.84415
G1 X122.886 Y134.378 E7.86489
G1 X122.548 Y134.865 E7.88559
G1 X122.148 Y135.303 E7.90631
G1 X121.692 Y135.684 E7.92706
G1 X121.189 Y135.999 E7.94779
G1 X120.648 Y136.245 E7.96854
G1 X120.08 Y136.415 E7.98925
G1 X119.638 Y136.492 E8.00492
G1 X110.537 Y137.608 E8.32513
G1 X109.944 Y137.641 E8.34587
G1 X109.463 Y137.608 E8.36271
G1 X100.363 Y136.491 E8.6829
G1 X99.78 Y136.379 E8.70363
G1 X99.217 Y136.19 E8.72437
G1 X98.685 Y135.927 E8.7451
G1 X98.193 Y135.595 E8.76582
G1 X97.75 Y135.2 E8.78655
G1 X97.364 Y134.749 E8.80728
G1 X97.042 Y134.25 E8.82802
G1 X96.79 Y133.713 E8.84874
G1 X96.612 Y133.146 E8.86949
G1 X96.513 Y132.561 E8.89021
G1 X96.49 Y132.114 E8.90585
G1 X96.489 Y122.817 E9.23053
G1 X96.506 Y122.433 E9.24395
G1 X99.778 Y85.036 E10.55496
G1 X99.869 Y84.449 E10.5757
G1 X100.039 Y83.88 E10.59644
G1 X100.283 Y83.339 E10.61717
G1 X100.598 Y82.836 E10.6379
G1 X100.977 Y82.379 E10.65863
G0 F3000 X101.378 Y82.571
G1 F1500 X101.808 Y82.205 E10.67835
G1 X102.286 Y81.903 E10.6981
G1 X102.801 Y81.673 E10.71779
G1 X103.344 Y81.517 E10.73752
G1 X104.171 Y81.43 E10.76657
G1 X115.749 Y81.43 E11.17091
G1 X116.312 Y81.47 E11.19062
G1 X116.864 Y81.589 E11.21034
G1 X117.394 Y81.785 E11.23007
G1 X117.89 Y82.053 E11.24976
G1 X118.344 Y82.389 E11.26949
G1 X118.746 Y82.786 E11.28922
G1 X119.088 Y83.235 E11.30893
G1 X119.363 Y83.729 E11.32867
G1 X119.565 Y84.256 E11.34838
G1 X119.724 Y85.072 E11.37742
G1 X123.075 Y123.375 E12.72019
G1 X123.09 Y123.723 E12.73235
G1 X123.091 Y132.115 E13.02543
G1 X123.051 Y132.678 E13.04514
G1 X122.932 Y133.23 E13.06486
G1 X122.736 Y133.759 E13.08456
G1 X122.468 Y134.256 E13.10428
G1 X122.132 Y134.71 E13.124
G1 X121.735 Y135.112 E13.14374
G1 X121.286 Y135.454 E13.16345
G1 X120.793 Y135.729 E13.18316
G1 X120.266 Y135.931 E13.20287
G1 X119.587 Y136.075 E13.22711
G1 X110.486 Y137.191 E13.54733
G1 X109.922 Y137.22 E13.56705
G1 X109.514 Y137.191 E13.58133
G1 X100.414 Y136.074 E13.90152
G1 X99.86 Y135.966 E13.92123
G1 X99.326 Y135.781 E13.94097
G1 X98.825 Y135.522 E13.96066
G1 X98.364 Y135.195 E13.9804
G1 X97.955 Y134.806 E14.00012
G1 X97.604 Y134.363 E14.01985
G1 X97.32 Y133.876 E14.03954
G1 X97.107 Y133.353 E14.05926
G1 X96.97 Y132.805 E14.07899
G1 X96.91 Y132.114 E14.10321
G1 X96.909 Y122.817 E14.42789
G1 X96.924 Y122.469 E14.44006
G1 X100.196 Y85.072 E15.75107
G1 X100.285 Y84.515 E15.77077
G1 X100.452 Y83.975 E15.79051
G1 X100.693 Y83.465 E15.81021
G1 X101.004 Y82.993 E15.82995
G1 X101.378 Y82.571 E15.84964
G0 F3000 X101.409 Y83.158
G1 F1500 X101.777 Y82.771 E15.86829
G1 X102.199 Y82.444 E15.88693
G1 X102.665 Y82.183 E15.90559
G1 X103.165 Y81.995 E15.92424
G1 X103.687 Y81.883 E15.94289
G1 X104.171 Y81.85 E15.95983
G1 X115.749 Y81.85 E16.36417
G1 X116.282 Y81.89 E16.38283
G1 X116.802 Y82.009 E16.40146
G1 X117.299 Y82.204 E16.42011
G1 X117.762 Y82.471 E16.43877
G1 X118.179 Y82.805 E16.45743
G1 X118.542 Y83.196 E16.47607
G1 X118.842 Y83.638 E16.49472
G1 X119.074 Y84.119 E16.51337
G1 X119.23 Y84.63 E16.53203
G1 X119.305 Y85.109 E16.54896
G1 X122.656 Y123.412 E17.89173
G1 X122.67 Y123.723 E17.9026
G1 X122.671 Y132.115 E18.19568
G1 X122.631 Y132.647 E18.21431
G1 X122.512 Y133.168 E18.23297
G1 X122.317 Y133.665 E18.25162
G1 X122.05 Y134.127 E18.27025
G1 X121.717 Y134.545 E18.28892
G1 X121.325 Y134.908 E18.30758
G1 X120.884 Y135.208 E18.3262
G1 X120.402 Y135.439 E18.34487
G1 X119.892 Y135.596 E18.36351
G1 X119.536 Y135.658 E18.37613
G1 X110.435 Y136.774 E18.69634
G1 X109.901 Y136.8 E18.71501
G1 X109.565 Y136.774 E18.72678
G1 X100.465 Y135.657 E19.04697
G1 X99.941 Y135.553 E19.06562
G1 X99.439 Y135.371 E19.08427
G1 X98.97 Y135.117 E19.1029
G1 X98.543 Y134.795 E19.12158
G1 X98.17 Y134.414 E19.1402
G1 X97.857 Y133.981 E19.15886
G1 X97.613 Y133.506 E19.1775
G1 X97.442 Y133 E19.19616
G1 X97.348 Y132.474 E19.21482
G1 X97.33 Y132.114 E19.22741
G1 X97.329 Y122.817 E19.55209
G1 X97.343 Y122.506 E19.56296
G1 X100.615 Y85.109 E20.87397
G1 X100.701 Y84.582 E20.89262
G1 X100.865 Y84.074 E20.91126
G1 X101.103 Y83.595 E20.92994
G1 X101.409 Y83.158 E20.94857
G0 F3000 X101.813 Y83.331
G1 F1500 X102.174 Y82.984 E20.96606
G1 X102.586 Y82.698 E20.98357
G1 X103.039 Y82.481 E21.00111
G1 X103.52 Y82.338 E21.01864
G1 X104.171 Y82.27 E21.0415
G1 X115.749 Y82.27 E21.44584
G1 X116.249 Y82.31 E21.46335
G1 X116.736 Y82.429 E21.48086
G1 X117.199 Y82.623 E21.49839
G1 X117.624 Y82.889 E21.5159
G1 X118.002 Y83.219 E21.53343
G1 X118.323 Y83.604 E21.55093
G1 X118.579 Y84.036 E21.56847
G1 X118.762 Y84.503 E21.58599
G1 X118.887 Y85.145 E21.60883
G1 X122.238 Y123.448 E22.9516
G1 X122.25 Y123.723 E22.96121
G1 X122.251 Y132.115 E23.25429
G1 X122.211 Y132.615 E23.2718
G1 X122.092 Y133.102 E23.28931
G1 X121.898 Y133.564 E23.30681
G1 X121.632 Y133.99 E23.32435
G1 X121.303 Y134.368 E23.34185
G1 X120.917 Y134.689 E23.35938
G1 X120.486 Y134.944 E23.37687
G1 X120.019 Y135.128 E23.3944
G1 X119.484 Y135.242 E23.41351
G1 X110.383 Y136.358 E23.73372
G1 X109.882 Y136.379 E23.75123
G1 X109.616 Y136.358 E23.76055
G1 X100.516 Y135.241 E24.08074
G1 X100.025 Y135.14 E24.09824
G1 X99.556 Y134.963 E24.11575
G1 X99.12 Y134.713 E24.1333
G1 X98.73 Y134.398 E24.15081
G1 X98.395 Y134.024 E24.16835
G1 X98.124 Y133.603 E24.18583
G1 X97.923 Y133.143 E24.20336
G1 X97.797 Y132.658 E24.22086
G1 X97.75 Y132.114 E24.23993
G1 X97.749 Y122.817 E24.56461
G1 X97.761 Y122.542 E24.57422
G1 X101.033 Y85.145 E25.88523
G1 X101.116 Y84.651 E25.90273
G1 X101.277 Y84.176 E25.92024
G1 X101.511 Y83.732 E25.93777
G1 X101.813 Y83.331 E25.9553
G0 F3000 X102.215 Y83.515
G1 F1500 X102.569 Y83.21 E25.97162
G1 X102.969 Y82.969 E25.98793
G1 X103.404 Y82.8 E26.00423
G1 X103.861 Y82.708 E26.02051
G1 X104.171 Y82.69 E26.03135
G1 X115.749 Y82.69 E26.43569
G1 X116.214 Y82.73 E26.45199
G1 X116.666 Y82.849 E26.46831
G1 X117.091 Y83.042 E26.48462
G1 X117.476 Y83.306 E26.50092
G1 X117.811 Y83.631 E26.51722
G1 X118.086 Y84.009 E26.53354
G1 X118.292 Y84.427 E26.54982
G1 X118.424 Y84.875 E26.56613
G1 X118.469 Y85.182 E26.57696
G1 X121.82 Y123.485 E27.91973
G1 X121.83 Y123.723 E27.92805
G1 X121.831 Y132.115 E28.22113
G1 X121.791 Y132.58 E28.23743
G1 X121.673 Y133.031 E28.25371
G1 X121.479 Y133.456 E28.27002
G1 X121.215 Y133.842 E28.28636
G1 X120.89 Y134.177 E28.30266
G1 X120.513 Y134.452 E28.31895
G1 X120.094 Y134.658 E28.33526
G1 X119.433 Y134.825 E28.35907
G1 X110.332 Y135.941 E28.67928
G1 X109.667 Y135.941 E28.70251
G1 X100.567 Y134.824 E29.02269
G1 X100.111 Y134.727 E29.03897
G1 X99.677 Y134.555 E29.05528
G1 X99.279 Y134.31 E29.0716
G1 X98.928 Y134.002 E29.08791
G1 X98.635 Y133.638 E29.10423
G1 X98.409 Y133.23 E29.12052
G1 X98.255 Y132.789 E29.13683
G1 X98.17 Y132.114 E29.16059
G1 X98.169 Y122.817 E29.48527
G1 X98.179 Y122.579 E29.49359
G1 X101.451 Y85.182 E30.8046
G1 X101.532 Y84.722 E30.82091
G1 X101.689 Y84.283 E30.83719
G1 X101.919 Y83.876 E30.85352
G1 X102.215 Y83.515 E30.86982
G0 F3000 X102.326 Y84.03
G1 F1500 X102.615 Y83.712 E30.88483
G1 X102.958 Y83.454 E30.89982
G1 X103.343 Y83.263 E30.91483
G1 X103.757 Y83.147 E30.92984
G1 X104.171 Y83.11 E30.94436
G1 X115.749 Y83.11 E31.3487
G1 X116.177 Y83.15 E31.36371
G1 X116.589 Y83.268 E31.37868
G1 X116.973 Y83.461 E31.39369
G1 X117.315 Y83.721 E31.40869
G1 X117.602 Y84.041 E31.4237
G1 X117.825 Y84.407 E31.43867
G1 X117.977 Y84.809 E31.45368
G1 X118.05 Y85.219 E31.46822
G1 X121.401 Y123.522 E32.81099
G1 X121.41 Y123.723 E32.81802
G1 X121.411 Y132.115 E33.11109
G1 X121.371 Y132.542 E33.12607
G1 X121.253 Y132.955 E33.14107
G1 X121.06 Y133.339 E33.15608
G1 X120.8 Y133.68 E33.17105
G1 X120.481 Y133.968 E33.18606
G1 X120.114 Y134.191 E33.20106
G1 X119.712 Y134.343 E33.21607
G1 X119.382 Y134.408 E33.22782
G1 X110.281 Y135.524 E33.54803
G1 X109.719 Y135.524 E33.56766
G1 X100.619 Y134.407 E33.88785
G1 X100.199 Y134.315 E33.90286
G1 X99.804 Y134.147 E33.91785
G1 X99.446 Y133.909 E33.93286
G1 X99.139 Y133.609 E33.94786
G1 X98.893 Y133.257 E33.96285
G1 X98.716 Y132.866 E33.97784
G1 X98.614 Y132.449 E33.99283
G1 X98.59 Y132.114 E34.00456
G1 X98.589 Y122.817 E34.32924
G1 X98.598 Y122.616 E34.33627
G1 X101.87 Y85.219 E35.64728
G1 X101.947 Y84.796 E35.6623
G1 X102.101 Y84.395 E35.6773
G1 X102.326 Y84.03 E35.69227
G0 F3000 X102.731 Y84.196
G1 F1500 X103.012 Y83.927 E35.70586
G1 X103.341 Y83.722 E35.71939
G1 X103.706 Y83.588 E35.73297
G1 X104.171 Y83.53 E35.74934
G1 X115.749 Y83.53 E36.15368
G1 X116.135 Y83.57 E36.16723
G1 X116.505 Y83.688 E36.18079
G1 X116.843 Y83.879 E36.19435
G1 X117.135 Y84.135 E36.20791
G1 X117.368 Y84.446 E36.22148
G1 X117.533 Y84.797 E36.23503
G1 X117.632 Y85.255 E36.25139
G1 X120.983 Y123.558 E37.59416
G1 X120.99 Y123.723 E37.59993
G1 X120.991 Y132.115 E37.89301
G1 X120.951 Y132.501 E37.90656
G1 X120.833 Y132.871 E37.92012
G1 X120.642 Y133.209 E37.93368
G1 X120.386 Y133.501 E37.94724
G1 X120.076 Y133.734 E37.96078
G1 X119.724 Y133.899 E37.97436
G1 X119.331 Y133.991 E37.98846
G1 X110.23 Y135.107 E38.30867
G1 X109.77 Y135.107 E38.32474
G1 X100.67 Y133.99 E38.64492
G1 X100.291 Y133.903 E38.6585
G1 X99.938 Y133.741 E38.67207
G1 X99.626 Y133.51 E38.68563
G1 X99.368 Y133.22 E38.69918
G1 X99.174 Y132.884 E38.71273
G1 X99.053 Y132.515 E38.72629
G1 X99.01 Y132.114 E38.74038
G1 X99.009 Y122.817 E39.06506
G1 X99.016 Y122.652 E39.07082
G1 X102.288 Y85.255 E40.38183
G1 X102.362 Y84.874 E40.39539
G1 X102.511 Y84.516 E40.40893
G1 X102.731 Y84.196 E40.42249
G0 F3000 X103.134 Y84.378
G1 F1500 X103.403 Y84.167 E40.43443
G1 X103.714 Y84.023 E40.4464
G1 X104.171 Y83.95 E40.46256
G1 X115.749 Y83.95 E40.8669
G1 X116.089 Y83.99 E40.87886
G1 X116.411 Y84.107 E40.89082
G1 X116.696 Y84.296 E40.90277
G1 X116.931 Y84.546 E40.91475
G1 X117.101 Y84.843 E40.9267
G1 X117.213 Y85.292 E40.94286
G1 X120.564 Y123.595 E42.28563
G1 X120.57 Y123.723 E42.29011
G1 X120.571 Y132.115 E42.58318
G1 X120.531 Y132.455 E42.59514
G1 X120.414 Y132.776 E42.60707
G1 X120.225 Y133.062 E42.61904
G1 X119.976 Y133.296 E42.63097
G1 X119.679 Y133.467 E42.64294
G1 X119.28 Y133.574 E42.65737
G1 X110.179 Y134.69 E42.97759
G1 X109.821 Y134.69 E42.99009
G1 X100.721 Y133.573 E43.31027
G1 X100.388 Y133.492 E43.32224
G1 X100.083 Y133.336 E43.33421
G1 X99.823 Y133.114 E43.34615
G1 X99.621 Y132.838 E43.35809
G1 X99.488 Y132.522 E43.37006
G1 X99.43 Y132.114 E43.38446
G1 X99.429 Y122.817 E43.70914
G1 X99.435 Y122.689 E43.71361
G1 X102.707 Y85.292 E45.02462
G1 X102.776 Y84.957 E45.03657
G1 X102.921 Y84.647 E45.04852
G1 X103.134 Y84.378 E45.0605
G0 F3000 X103.329 Y84.793
G1 F1500 X103.532 Y84.587 E45.0706
G1 X103.783 Y84.444 E45.08069
G1 X104.171 Y84.37 E45.09448
G1 X115.749 Y84.37 E45.49882
G1 X116.035 Y84.41 E45.50891
G1 X116.3 Y84.526 E45.51901
G1 X116.523 Y84.71 E45.52911
G1 X116.687 Y84.948 E45.5392
G1 X116.795 Y85.328 E45.553
G1 X120.146 Y123.631 E46.89577
G1 X120.15 Y123.723 E46.89899
G1 X120.151 Y132.115 E47.19206
G1 X120.111 Y132.401 E47.20215
G1 X119.995 Y132.666 E47.21225
G1 X119.811 Y132.889 E47.22235
G1 X119.573 Y133.053 E47.23244
G1 X119.229 Y133.157 E47.24499
G1 X110.128 Y134.273 E47.56521
G1 X109.872 Y134.273 E47.57415
G1 X100.772 Y133.156 E47.89433
G1 X100.493 Y133.082 E47.90441
G1 X100.244 Y132.934 E47.91453
G1 X100.045 Y132.724 E47.92463
G1 X99.911 Y132.468 E47.93472
G1 X99.85 Y132.114 E47.94727
G1 X99.849 Y122.817 E48.27195
G1 X99.853 Y122.725 E48.27516
G1 X103.125 Y85.328 E49.58617
G1 X103.19 Y85.047 E49.59625
G1 X103.329 Y84.793 E49.60636
G0 F3000 X103.732 Y84.968
G1 F1500 X103.918 Y84.843 E49.61419
G1 X104.171 Y84.79 E49.62321
G1 X115.749 Y84.79 E50.02755
G1 X115.969 Y84.83 E50.03536
G1 X116.161 Y84.944 E50.04316
G1 X116.302 Y85.118 E50.05098
G1 X116.377 Y85.365 E50.06
G1 X119.728 Y123.668 E51.40277
G1 X119.73 Y123.723 E51.40469
G1 X119.731 Y132.115 E51.69776
G1 X119.691 Y132.335 E51.70557
G1 X119.577 Y132.527 E51.71337
G1 X119.403 Y132.668 E51.72119
G1 X119.178 Y132.74 E51.72944
G1 X110.077 Y133.856 E52.04966
G1 X109.923 Y133.856 E52.05504
G1 X100.823 Y132.739 E52.37522
G1 X100.61 Y132.673 E52.38301
G1 X100.433 Y132.536 E52.39083
G1 X100.315 Y132.347 E52.39861
G1 X100.27 Y132.114 E52.4069
G1 X100.269 Y122.817 E52.73158
G1 X100.271 Y122.762 E52.7335
G1 X103.543 Y85.365 E54.04451
G1 X103.602 Y85.149 E54.05233
G1 X103.732 Y84.968 E54.06011
G0 F3000 X104.011 Y85.284
G1 F1500 X104.171 Y85.21 E54.06627
G1 X115.749 Y85.21 E54.47061
G1 X115.871 Y85.249 E54.47508
G1 X115.958 Y85.402 E54.48123
G1 X119.309 Y123.705 E55.824
G1 X119.31 Y123.723 E55.82463
G1 X119.311 Y132.115 E56.1177
G1 X119.272 Y132.237 E56.12217
G1 X119.127 Y132.323 E56.12806
G1 X110.026 Y133.439 E56.44828
G1 X109.974 Y133.439 E56.45009
G1 X100.874 Y132.322 E56.77028
G1 X100.758 Y132.269 E56.77473
G1 X100.69 Y132.114 E56.78065
G1 X100.689 Y122.817 E57.10533
G1 X100.69 Y122.799 E57.10596
G1 X103.962 Y85.402 E58.41697
G1 X104.011 Y85.284 E58.42143
G1 F1200 E56.42143
G0 F3000 X104.76 Y86.064
G0 X118.371 Y123.749
