;FLAVOR:Marlin
;TIME:3501
;Filament used: 2.56684m
;Layer height: 0.2
;Generated with Cura_SteamEngine 3.1.0
M190 S70
M104 S240
M109 S240
M82 ; absolute extrusion mode
G28 X0 Y0  ;move X/Y to min endstops
G28 Z0     ;move Z to min endstops
G1 Z15 F5000 ; lift nozzle
G92 E0
G1 F200 E3
G92 E0
;LAYER_COUNT:111
;LAYER:0
M107
G0 F3000 X100.354 Y82.098 Z0.2
;TYPE:SKIRT
G1 F1500 X100.801 Y81.646 E0.02326
G1 X101.301 Y81.253 E0.04653
G1 X101.846 Y80.926 E0.06978
G1 X102.428 Y80.67 E0.09304
G1 X103.038 Y80.489 E0.11632
G1 X103.665 Y80.385 E0.13957
G1 X104.171 Y80.36 E0.15811
G1 X115.749 Y80.36 E0.5817
G1 X116.384 Y80.4 E0.60498
G1 X117.008 Y80.519 E0.62822
G1 X117.613 Y80.716 E0.6515
G1 X118.188 Y80.987 E0.67476
G1 X118.725 Y81.328 E0.69803
G1 X119.215 Y81.733 E0.72129
G1 X119.65 Y82.197 E0.74456
G1 X120.023 Y82.712 E0.76782
G1 X120.329 Y83.27 E0.79111
G1 X120.563 Y83.861 E0.81436
G1 X120.72 Y84.477 E0.83762
G1 X120.79 Y84.979 E0.85616
G1 X124.141 Y123.282 E2.26287
G1 X124.16 Y123.722 E2.27899
G1 X124.161 Y132.114 E2.58602
G1 X124.121 Y132.749 E2.6093
G1 X124.002 Y133.374 E2.63257
G1 X123.805 Y133.979 E2.65585
G1 X123.534 Y134.554 E2.67911
G1 X123.194 Y135.091 E2.70236
G1 X122.788 Y135.58 E2.72562
G1 X122.324 Y136.016 E2.74891
G1 X121.81 Y136.389 E2.77215
G1 X121.252 Y136.695 E2.79543
G1 X120.661 Y136.929 E2.81868
G1 X120.044 Y137.086 E2.84198
G1 X119.717 Y137.137 E2.85409
G1 X110.616 Y138.253 E3.18955
G1 X109.981 Y138.291 E3.21282
G1 X109.384 Y138.253 E3.23471
G1 X100.284 Y137.136 E3.57014
G1 X99.658 Y137.019 E3.59344
G1 X99.053 Y136.825 E3.61669
G1 X98.477 Y136.556 E3.63995
G1 X97.939 Y136.217 E3.66321
G1 X97.447 Y135.813 E3.6865
G1 X97.011 Y135.351 E3.70974
G1 X96.635 Y134.837 E3.73304
G1 X96.328 Y134.281 E3.75628
G1 X96.092 Y133.69 E3.77956
G1 X95.932 Y133.075 E3.80281
G1 X95.851 Y132.444 E3.82609
G1 X95.84 Y132.115 E3.83813
G1 X95.839 Y122.818 E4.17827
G1 X95.858 Y122.376 E4.19446
G1 X99.13 Y84.979 E5.5679
G1 X99.225 Y84.35 E5.59117
G1 X99.399 Y83.738 E5.61445
G1 X99.647 Y83.153 E5.6377
G1 X99.967 Y82.604 E5.66094
G1 X100.354 Y82.098 E5.68425
G0 F3000 X100.776 Y82.287
G1 F1500 X101.217 Y81.868 E5.70651
G1 X101.708 Y81.511 E5.72872
G1 X102.242 Y81.222 E5.75093
G1 X102.81 Y81.005 E5.77318
G1 X103.401 Y80.865 E5.7954
G1 X104.171 Y80.8 E5.82367
G1 X115.749 Y80.8 E6.24726
G1 X116.355 Y80.84 E6.26948
G1 X116.951 Y80.959 E6.29172
G1 X117.526 Y81.155 E6.31394
G1 X118.07 Y81.426 E6.33618
G1 X118.575 Y81.765 E6.35843
G1 X119.03 Y82.167 E6.38065
G1 X119.428 Y82.626 E6.40287
G1 X119.763 Y83.133 E6.42511
G1 X120.029 Y83.679 E6.44733
G1 X120.22 Y84.256 E6.46956
G1 X120.351 Y85.017 E6.49782
G1 X123.702 Y123.32 E7.90453
G1 X123.72 Y123.722 E7.91925
G1 X123.721 Y132.114 E8.22628
G1 X123.681 Y132.721 E8.24854
G1 X123.562 Y133.317 E8.27077
G1 X123.366 Y133.892 E8.293
G1 X123.096 Y134.436 E8.31522
G1 X122.757 Y134.94 E8.33744
G1 X122.354 Y135.395 E8.35968
G1 X121.896 Y135.794 E8.3819
G1 X121.389 Y136.129 E8.40413
G1 X120.842 Y136.394 E8.42637
G1 X120.265 Y136.586 E8.44862
G1 X119.663 Y136.701 E8.47104
G1 X110.562 Y137.817 E8.80651
G1 X109.956 Y137.851 E8.82871
G1 X109.437 Y137.817 E8.84774
G1 X100.337 Y136.7 E9.18317
G1 X99.74 Y136.586 E9.20541
G1 X99.163 Y136.395 E9.22765
G1 X98.617 Y136.13 E9.24985
G1 X98.109 Y135.796 E9.2721
G1 X97.65 Y135.398 E9.29432
G1 X97.247 Y134.943 E9.31656
G1 X96.908 Y134.439 E9.33878
G1 X96.637 Y133.895 E9.36102
G1 X96.44 Y133.32 E9.38326
G1 X96.321 Y132.724 E9.40549
G1 X96.28 Y132.114 E9.42786
G1 X96.279 Y122.817 E9.768
G1 X96.297 Y122.414 E9.78276
G1 X99.569 Y85.017 E11.1562
G1 X99.661 Y84.417 E11.17841
G1 X99.832 Y83.834 E11.20063
G1 X100.078 Y83.278 E11.22288
G1 X100.394 Y82.759 E11.24511
G1 X100.776 Y82.287 E11.26733
G0 F3000 X101.197 Y82.483
G1 F1500 X101.63 Y82.101 E11.28845
G1 X102.112 Y81.782 E11.3096
G1 X102.634 Y81.533 E11.33076
G1 X103.185 Y81.358 E11.35191
G1 X103.754 Y81.261 E11.37303
G1 X104.171 Y81.24 E11.3883
G1 X115.749 Y81.24 E11.8119
G1 X116.326 Y81.28 E11.83306
G1 X116.891 Y81.399 E11.85418
G1 X117.435 Y81.595 E11.87534
G1 X117.946 Y81.864 E11.89647
G1 X118.416 Y82.201 E11.91762
G1 X118.834 Y82.6 E11.93877
G1 X119.194 Y83.052 E11.95991
G1 X119.487 Y83.55 E11.98105
G1 X119.71 Y84.083 E12.00218
G1 X119.856 Y84.643 E12.02336
G1 X119.913 Y85.056 E12.03861
G1 X123.264 Y123.359 E13.44532
G1 X123.28 Y123.723 E13.45865
G1 X123.281 Y132.115 E13.76568
G1 X123.241 Y132.691 E13.78681
G1 X123.122 Y133.257 E13.80797
G1 X122.926 Y133.8 E13.82909
G1 X122.657 Y134.312 E13.85025
G1 X122.32 Y134.781 E13.87138
G1 X121.922 Y135.2 E13.89252
G1 X121.469 Y135.559 E13.91367
G1 X120.971 Y135.853 E13.93483
G1 X120.438 Y136.075 E13.95595
G1 X119.61 Y136.264 E13.98702
G1 X110.509 Y137.38 E14.32249
G1 X109.932 Y137.41 E14.34363
G1 X109.491 Y137.38 E14.3598
G1 X100.391 Y136.263 E14.69523
G1 X99.823 Y136.153 E14.7164
G1 X99.277 Y135.966 E14.73751
G1 X98.761 Y135.705 E14.75867
G1 X98.286 Y135.376 E14.77981
G1 X97.861 Y134.984 E14.80096
G1 X97.494 Y134.537 E14.82212
G1 X97.192 Y134.044 E14.84328
G1 X96.962 Y133.515 E14.86438
G1 X96.806 Y132.958 E14.88554
G1 X96.72 Y132.114 E14.91658
G1 X96.719 Y122.817 E15.25672
G1 X96.735 Y122.453 E15.27005
G1 X100.007 Y85.056 E16.64349
G1 X100.097 Y84.485 E16.66464
G1 X100.265 Y83.932 E16.68579
G1 X100.507 Y83.407 E16.70694
G1 X100.82 Y82.921 E16.72809
G1 X101.197 Y82.483 E16.74923
G0 F3000 X101.245 Y83.09
G1 F1500 X101.616 Y82.689 E16.76922
G1 X102.041 Y82.346 E16.7892
G1 X102.512 Y82.068 E16.80921
G1 X103.019 Y81.862 E16.82923
G1 X103.55 Y81.732 E16.84923
G1 X104.171 Y81.68 E16.87203
G1 X115.749 Y81.68 E17.29562
G1 X116.294 Y81.72 E17.31562
G1 X116.828 Y81.839 E17.33563
G1 X117.338 Y82.034 E17.35561
G1 X117.815 Y82.302 E17.37563
G1 X118.247 Y82.637 E17.39563
G1 X118.626 Y83.03 E17.4156
G1 X118.944 Y83.475 E17.43561
G1 X119.193 Y83.962 E17.45562
G1 X119.369 Y84.479 E17.47561
G1 X119.475 Y85.094 E17.49844
G1 X122.826 Y123.397 E18.90515
G1 X122.84 Y123.723 E18.91709
G1 X122.841 Y132.115 E19.22412
G1 X122.801 Y132.66 E19.24411
G1 X122.682 Y133.193 E19.26409
G1 X122.487 Y133.704 E19.2841
G1 X122.219 Y134.18 E19.30409
G1 X121.885 Y134.613 E19.3241
G1 X121.491 Y134.992 E19.3441
G1 X121.046 Y135.309 E19.36409
G1 X120.56 Y135.559 E19.38408
G1 X120.042 Y135.735 E19.4041
G1 X119.556 Y135.827 E19.42219
G1 X110.455 Y136.943 E19.75766
G1 X109.909 Y136.97 E19.77766
G1 X109.544 Y136.943 E19.79105
G1 X100.444 Y135.826 E20.12648
G1 X99.908 Y135.72 E20.14647
G1 X99.393 Y135.537 E20.16647
G1 X98.91 Y135.281 E20.18647
G1 X98.47 Y134.957 E20.20646
G1 X98.081 Y134.572 E20.22648
G1 X97.753 Y134.135 E20.24647
G1 X97.492 Y133.655 E20.26646
G1 X97.304 Y133.142 E20.28645
G1 X97.193 Y132.607 E20.30644
G1 X97.16 Y132.114 E20.32452
G1 X97.159 Y122.817 E20.66466
G1 X97.173 Y122.491 E20.6766
G1 X100.445 Y85.094 E22.05004
G1 X100.533 Y84.554 E22.07006
G1 X100.698 Y84.033 E22.09005
G1 X100.937 Y83.542 E22.11003
G1 X101.245 Y83.09 E22.13004
G0 F3000 X101.669 Y83.268
G1 F1500 X102.033 Y82.906 E22.14882
G1 X102.449 Y82.605 E22.16761
G1 X102.906 Y82.372 E22.18638
G1 X103.394 Y82.213 E22.20515
G1 X103.901 Y82.131 E22.22394
G1 X104.171 Y82.12 E22.23383
G1 X115.749 Y82.12 E22.65743
G1 X116.261 Y82.16 E22.67621
G1 X116.76 Y82.279 E22.69498
G1 X117.235 Y82.474 E22.71377
G1 X117.674 Y82.74 E22.73255
G1 X118.067 Y83.071 E22.75135
G1 X118.403 Y83.459 E22.77013
G1 X118.675 Y83.894 E22.7889
G1 X118.876 Y84.367 E22.8077
G1 X119.002 Y84.864 E22.82646
G1 X119.036 Y85.132 E22.83634
G1 X122.387 Y123.435 E24.24305
G1 X122.4 Y123.723 E24.2536
G1 X122.401 Y132.115 E24.56063
G1 X122.361 Y132.626 E24.57938
G1 X122.242 Y133.126 E24.59819
G1 X122.047 Y133.601 E24.61697
G1 X121.781 Y134.04 E24.63575
G1 X121.45 Y134.432 E24.65452
G1 X121.062 Y134.769 E24.67333
G1 X120.627 Y135.041 E24.6921
G1 X120.155 Y135.242 E24.71087
G1 X119.503 Y135.39 E24.73533
G1 X110.402 Y136.506 E25.07079
G1 X109.889 Y136.529 E25.08958
G1 X109.598 Y136.506 E25.10026
G1 X100.498 Y135.389 E25.43569
G1 X99.995 Y135.287 E25.45447
G1 X99.513 Y135.109 E25.47327
G1 X99.066 Y134.857 E25.49204
G1 X98.662 Y134.54 E25.51083
G1 X98.313 Y134.163 E25.52962
G1 X98.027 Y133.737 E25.5484
G1 X97.81 Y133.272 E25.56717
G1 X97.668 Y132.778 E25.58598
G1 X97.6 Y132.114 E25.6104
G1 X97.599 Y122.817 E25.95054
G1 X97.612 Y122.529 E25.96109
G1 X100.884 Y85.132 E27.33453
G1 X100.968 Y84.626 E27.35329
G1 X101.13 Y84.139 E27.37207
G1 X101.365 Y83.683 E27.39084
G1 X101.669 Y83.268 E27.40966
G0 F3000 X102.091 Y83.457
G1 F1500 X102.447 Y83.138 E27.42715
G1 X102.851 Y82.883 E27.44463
G1 X103.292 Y82.698 E27.46212
G1 X103.757 Y82.59 E27.47959
G1 X104.171 Y82.56 E27.49477
G1 X115.749 Y82.56 E27.91837
G1 X116.225 Y82.6 E27.93584
G1 X116.688 Y82.719 E27.95333
G1 X117.125 Y82.913 E27.97083
G1 X117.523 Y83.177 E27.9883
G1 X117.872 Y83.504 E28.0058
G1 X118.161 Y83.884 E28.02327
G1 X118.384 Y84.307 E28.04076
G1 X118.532 Y84.761 E28.05823
G1 X118.598 Y85.171 E28.07342
G1 X121.949 Y123.474 E29.48014
G1 X121.96 Y123.723 E29.48925
G1 X121.961 Y132.115 E29.79629
G1 X121.921 Y132.591 E29.81376
G1 X121.803 Y133.054 E29.83124
G1 X121.608 Y133.491 E29.84875
G1 X121.344 Y133.889 E29.86622
G1 X121.018 Y134.238 E29.8837
G1 X120.637 Y134.527 E29.90119
G1 X120.214 Y134.749 E29.91867
G1 X119.76 Y134.898 E29.93615
G1 X119.449 Y134.954 E29.94771
G1 X110.348 Y136.07 E30.28318
G1 X109.652 Y136.07 E30.30864
G1 X100.552 Y134.953 E30.64407
G1 X100.084 Y134.855 E30.66157
G1 X99.639 Y134.681 E30.67905
G1 X99.229 Y134.435 E30.69654
G1 X98.866 Y134.124 E30.71403
G1 X98.559 Y133.757 E30.73154
G1 X98.318 Y133.345 E30.749
G1 X98.149 Y132.898 E30.76648
G1 X98.057 Y132.429 E30.78397
G1 X98.04 Y132.114 E30.79551
G1 X98.039 Y122.817 E31.13565
G1 X98.05 Y122.568 E31.14477
G1 X101.322 Y85.171 E32.51821
G1 X101.403 Y84.7 E32.5357
G1 X101.562 Y84.249 E32.55319
G1 X101.793 Y83.831 E32.57066
G1 X102.091 Y83.457 E32.58816
G0 F3000 X102.22 Y83.989
G1 F1500 X102.511 Y83.659 E32.60426
G1 X102.857 Y83.388 E32.62034
G1 X103.246 Y83.184 E32.63641
G1 X103.666 Y83.053 E32.6525
G1 X104.171 Y83 E32.67108
G1 X115.749 Y83 E33.09467
G1 X116.187 Y83.04 E33.11077
G1 X116.61 Y83.158 E33.12683
G1 X117.005 Y83.351 E33.14292
G1 X117.358 Y83.613 E33.159
G1 X117.659 Y83.934 E33.1751
G1 X117.896 Y84.304 E33.19118
G1 X118.063 Y84.71 E33.20724
G1 X118.16 Y85.209 E33.22584
G1 X121.511 Y123.512 E34.63255
G1 X121.52 Y123.723 E34.64027
G1 X121.521 Y132.115 E34.94731
G1 X121.481 Y132.552 E34.96336
G1 X121.363 Y132.976 E34.97946
G1 X121.17 Y133.371 E34.99555
G1 X120.909 Y133.724 E35.01161
G1 X120.588 Y134.025 E35.02771
G1 X120.218 Y134.262 E35.04378
G1 X119.811 Y134.429 E35.05988
G1 X119.396 Y134.517 E35.0754
G1 X110.295 Y135.633 E35.41086
G1 X109.705 Y135.633 E35.43245
G1 X100.605 Y134.516 E35.76788
G1 X100.176 Y134.423 E35.78394
G1 X99.77 Y134.254 E35.80003
G1 X99.401 Y134.014 E35.81614
G1 X99.082 Y133.712 E35.83221
G1 X98.823 Y133.357 E35.84829
G1 X98.633 Y132.961 E35.86436
G1 X98.517 Y132.537 E35.88044
G1 X98.48 Y132.114 E35.89597
G1 X98.479 Y122.817 E36.23611
G1 X98.488 Y122.606 E36.24384
G1 X101.76 Y85.209 E37.61728
G1 X101.838 Y84.776 E37.63338
G1 X101.993 Y84.365 E37.64945
G1 X102.22 Y83.989 E37.66552
G0 F3000 X102.645 Y84.159
G1 F1500 X102.927 Y83.879 E37.68006
G1 X103.26 Y83.662 E37.6946
G1 X103.63 Y83.515 E37.70916
G1 X104.171 Y83.44 E37.72915
G1 X115.749 Y83.44 E38.15274
G1 X116.144 Y83.48 E38.16727
G1 X116.524 Y83.598 E38.18182
G1 X116.872 Y83.79 E38.19637
G1 X117.175 Y84.047 E38.2109
G1 X117.421 Y84.359 E38.22544
G1 X117.599 Y84.715 E38.24
G1 X117.721 Y85.247 E38.25997
G1 X121.072 Y123.55 E39.66668
G1 X121.08 Y123.723 E39.67302
G1 X121.081 Y132.115 E39.98005
G1 X121.041 Y132.51 E39.99457
G1 X120.923 Y132.89 E40.00913
G1 X120.732 Y133.238 E40.02365
G1 X120.474 Y133.541 E40.03821
G1 X120.162 Y133.787 E40.05275
G1 X119.807 Y133.965 E40.06728
G1 X119.342 Y134.08 E40.0848
G1 X110.241 Y135.196 E40.42027
G1 X109.759 Y135.196 E40.4379
G1 X100.659 Y134.079 E40.77334
G1 X100.271 Y133.991 E40.78789
G1 X99.909 Y133.828 E40.80242
G1 X99.586 Y133.595 E40.81699
G1 X99.317 Y133.303 E40.83151
G1 X99.111 Y132.963 E40.84606
G1 X98.978 Y132.589 E40.86058
G1 X98.92 Y132.114 E40.87809
G1 X98.919 Y122.817 E41.21823
G1 X98.927 Y122.644 E41.22457
G1 X102.199 Y85.247 E42.59801
G1 X102.273 Y84.857 E42.61253
G1 X102.423 Y84.489 E42.62707
G1 X102.645 Y84.159 E42.64162
G0 F3000 X103.067 Y84.346
G1 F1500 X103.338 Y84.125 E42.65441
G1 X103.653 Y83.97 E42.66726
G1 X103.994 Y83.89 E42.68007
G1 X104.171 Y83.88 E42.68656
G1 X115.749 Y83.88 E43.11015
G1 X116.097 Y83.92 E43.12297
G1 X116.427 Y84.037 E43.13578
G1 X116.722 Y84.227 E43.14862
G1 X116.967 Y84.477 E43.16142
G1 X117.148 Y84.777 E43.17424
G1 X117.258 Y85.11 E43.18707
G1 X117.283 Y85.286 E43.19358
G1 X120.634 Y123.589 E44.60029
G1 X120.64 Y123.723 E44.60519
G1 X120.641 Y132.115 E44.91223
G1 X120.601 Y132.463 E44.92504
G1 X120.484 Y132.793 E44.93785
G1 X120.295 Y133.088 E44.95067
G1 X120.044 Y133.333 E44.9635
G1 X119.744 Y133.514 E44.97632
G1 X119.288 Y133.644 E44.99367
G1 X110.187 Y134.76 E45.32913
G1 X109.812 Y134.76 E45.34285
G1 X100.712 Y133.643 E45.67829
G1 X100.372 Y133.561 E45.69108
G1 X100.058 Y133.404 E45.70393
G1 X99.789 Y133.18 E45.71673
G1 X99.576 Y132.901 E45.72957
G1 X99.433 Y132.581 E45.7424
G1 X99.36 Y132.114 E45.75969
G1 X99.359 Y122.817 E46.09983
G1 X99.365 Y122.683 E46.10474
G1 X102.637 Y85.286 E47.47818
G1 X102.707 Y84.942 E47.49102
G1 X102.853 Y84.624 E47.50383
G1 X103.067 Y84.346 E47.51666
G0 F3000 X103.28 Y84.775
G1 F1500 X103.485 Y84.56 E47.52753
G1 X103.739 Y84.409 E47.53834
G1 X104.171 Y84.32 E47.55448
G1 X115.749 Y84.32 E47.97807
G1 X116.042 Y84.36 E47.98889
G1 X116.314 Y84.476 E47.99971
G1 X116.545 Y84.661 E48.01054
G1 X116.719 Y84.901 E48.02138
G1 X116.845 Y85.324 E48.03753
G1 X120.196 Y123.627 E49.44424
G1 X120.2 Y123.723 E49.44776
G1 X120.201 Y132.115 E49.75479
G1 X120.161 Y132.408 E49.76561
G1 X120.045 Y132.68 E49.77643
G1 X119.86 Y132.911 E49.78725
G1 X119.62 Y133.085 E49.7981
G1 X119.235 Y133.207 E49.81288
G1 X110.134 Y134.323 E50.14834
G1 X109.866 Y134.323 E50.15815
G1 X100.766 Y133.206 E50.49358
G1 X100.48 Y133.131 E50.5044
G1 X100.224 Y132.982 E50.51523
G1 X100.017 Y132.77 E50.52607
G1 X99.874 Y132.511 E50.5369
G1 X99.8 Y132.114 E50.55167
G1 X99.799 Y122.817 E50.89181
G1 X99.803 Y122.721 E50.89533
G1 X103.075 Y85.324 E52.26877
G1 X103.14 Y85.035 E52.27961
G1 X103.28 Y84.775 E52.29041
G0 F3000 X103.704 Y84.954
G1 F1500 X103.891 Y84.822 E52.29878
G1 X104.171 Y84.76 E52.30928
G1 X115.749 Y84.76 E52.73287
G1 X115.974 Y84.8 E52.74123
G1 X116.173 Y84.914 E52.74962
G1 X116.32 Y85.089 E52.75798
G1 X116.406 Y85.362 E52.76846
G1 X119.757 Y123.665 E54.17517
G1 X119.76 Y123.723 E54.17729
G1 X119.761 Y132.115 E54.48432
G1 X119.721 Y132.34 E54.49268
G1 X119.607 Y132.539 E54.50107
G1 X119.432 Y132.686 E54.50944
G1 X119.181 Y132.77 E54.51912
G1 X110.08 Y133.886 E54.85458
G1 X109.92 Y133.886 E54.86044
G1 X100.82 Y132.769 E55.19587
G1 X100.601 Y132.702 E55.20425
G1 X100.418 Y132.565 E55.21261
G1 X100.293 Y132.373 E55.221
G1 X100.24 Y132.114 E55.23067
G1 X100.239 Y122.817 E55.57081
G1 X100.242 Y122.759 E55.57293
G1 X103.514 Y85.362 E56.94637
G1 X103.573 Y85.141 E56.95474
G1 X103.704 Y84.954 E56.9631
G0 F3000 X104.002 Y85.28
G1 F1500 X104.171 Y85.2 E56.96994
G1 X115.749 Y85.2 E57.39353
G1 X115.874 Y85.239 E57.39832
G1 X115.968 Y85.401 E57.40517
G1 X119.319 Y123.704 E58.81189
G1 X119.32 Y123.723 E58.81258
G1 X119.321 Y132.115 E59.11961
G1 X119.282 Y132.24 E59.1244
G1 X119.128 Y132.333 E59.13099
G1 X110.027 Y133.449 E59.46645
G1 X109.973 Y133.449 E59.46843
G1 X100.873 Y132.332 E59.80386
